;Project zt640
;Created by Estlcam version 11 build 11.245
;Machining time about 00:03:21 hours

G90                      ; use absolute cords
G10 P0 L20 X 0 Y 0         ; set x and y home to here

M0 (MSG Place Z Probe)
G38.2 G91 Z-20 F40               ; home Z
G10 P0 L20 Z 2.1                    ; SET Z TO WIDTH OF PROBE
G1 Z3 F150          ; lift tool up a bit
G90
M00 (MSG Remove Z Probe and turn on spindle)
M03 S11500

G00 X0.0000 Y0.0000 Z0.0000 F4000
G00 Z3.0000 F400


;No. 1: Hole 1
G00 X-0.0384 Y-0.5124 F4000
G00 Z0.5000 F400
G01 Z0.0000 F210 S11500
G01 X-0.0718 Y-0.5088 Z-0.0104 F210
G01 X-0.1050 Y-0.5030 Z-0.0209 F210
G01 X-0.1376 Y-0.4951 Z-0.0313 F210
G01 X-0.1697 Y-0.4850 Z-0.0418 F210
G01 X-0.2011 Y-0.4729 Z-0.0522 F210
G01 X-0.2316 Y-0.4587 Z-0.0627 F210
G01 X-0.2611 Y-0.4426 Z-0.0731 F210
G01 X-0.2895 Y-0.4246 Z-0.0836 F210
G01 X-0.3166 Y-0.4047 Z-0.0940 F210
G01 X-0.3424 Y-0.3832 Z-0.1045 F210
G01 X-0.3667 Y-0.3599 Z-0.1149 F210
G01 X-0.3895 Y-0.3352 Z-0.1254 F210
G01 X-0.4106 Y-0.3090 Z-0.1358 F210
G01 X-0.4299 Y-0.2815 Z-0.1463 F210
G01 X-0.4474 Y-0.2528 Z-0.1567 F210
G01 X-0.4630 Y-0.2230 Z-0.1672 F210
G01 X-0.4766 Y-0.1922 Z-0.1776 F210
G01 X-0.4881 Y-0.1606 Z-0.1881 F210
G01 X-0.4976 Y-0.1284 Z-0.1985 F210
G01 X-0.5049 Y-0.0955 Z-0.2090 F210
G01 X-0.5101 Y-0.0623 Z-0.2194 F210
G01 X-0.5131 Y-0.0288 Z-0.2299 F210
G01 X-0.5138 Y0.0048 Z-0.2403 F210
G01 X-0.5124 Y0.0384 Z-0.2508 F210
G01 X-0.5088 Y0.0718 Z-0.2612 F210
G01 X-0.5030 Y0.1050 Z-0.2717 F210
G01 X-0.4951 Y0.1376 Z-0.2821 F210
G01 X-0.4850 Y0.1697 Z-0.2926 F210
G01 X-0.4729 Y0.2011 Z-0.3030 F210
G01 X-0.4587 Y0.2316 Z-0.3135 F210
G01 X-0.4426 Y0.2611 Z-0.3239 F210
G01 X-0.4246 Y0.2895 Z-0.3344 F210
G01 X-0.4047 Y0.3166 Z-0.3448 F210
G01 X-0.3832 Y0.3424 Z-0.3553 F210
G01 X-0.3599 Y0.3667 Z-0.3657 F210
G01 X-0.3352 Y0.3895 Z-0.3762 F210
G01 X-0.3090 Y0.4106 Z-0.3866 F210
G01 X-0.2815 Y0.4299 Z-0.3971 F210
G01 X-0.2528 Y0.4474 Z-0.4075 F210
G01 X-0.2230 Y0.4630 Z-0.4180 F210
G01 X-0.1922 Y0.4766 Z-0.4284 F210
G01 X-0.1606 Y0.4881 Z-0.4389 F210
G01 X-0.1284 Y0.4976 Z-0.4493 F210
G01 X-0.0955 Y0.5049 Z-0.4598 F210
G01 X-0.0623 Y0.5101 Z-0.4702 F210
G01 X-0.0288 Y0.5131 Z-0.4807 F210
G01 X0.0048 Y0.5138 Z-0.4911 F210
G01 X0.0384 Y0.5124 Z-0.5016 F210
G01 X0.0718 Y0.5088 Z-0.5120 F210
G01 X0.1050 Y0.5030 Z-0.5225 F210
G01 X0.1376 Y0.4951 Z-0.5329 F210
G01 X0.1697 Y0.4850 Z-0.5433 F210
G01 X0.2011 Y0.4729 Z-0.5538 F210
G01 X0.2316 Y0.4587 Z-0.5642 F210
G01 X0.2611 Y0.4426 Z-0.5747 F210
G01 X0.2895 Y0.4246 Z-0.5851 F210
G01 X0.3166 Y0.4047 Z-0.5956 F210
G01 X0.3424 Y0.3832 Z-0.6060 F210
G01 X0.3667 Y0.3599 Z-0.6165 F210
G01 X0.3895 Y0.3352 Z-0.6269 F210
G01 X0.4106 Y0.3090 Z-0.6374 F210
G01 X0.4299 Y0.2815 Z-0.6478 F210
G01 X0.4474 Y0.2528 Z-0.6583 F210
G01 X0.4630 Y0.2230 Z-0.6687 F210
G01 X0.4764 Y0.1925 Z-0.6791 F210
G01 X0.4879 Y0.1612 Z-0.6894 F210
G01 X0.4973 Y0.1293 Z-0.6998 F210
G01 X0.5047 Y0.0968 Z-0.7101 F210
G01 X0.5099 Y0.0639 Z-0.7205 F210
G01 X0.5129 Y0.0307 Z-0.7308 F210
G01 X0.5139 Y-0.0026 Z-0.7412 F210
G01 X0.5126 Y-0.0359 Z-0.7516 F210
G01 X0.5092 Y-0.0690 Z-0.7619 F210
G01 X0.5037 Y-0.1019 Z-0.7723 F210
G01 X0.4960 Y-0.1343 Z-0.7826 F210
G01 X0.4863 Y-0.1662 Z-0.7930 F210
G01 X0.4745 Y-0.1973 Z-0.8033 F210
G01 X0.4607 Y-0.2277 Z-0.8137 F210
G01 X0.4450 Y-0.2570 Z-0.8240 F210
G01 X0.4274 Y-0.2853 Z-0.8344 F210
G01 X0.4080 Y-0.3124 Z-0.8447 F210
G01 X0.3869 Y-0.3382 Z-0.8551 F210
G01 X0.3642 Y-0.3626 Z-0.8654 F210
G01 X0.3399 Y-0.3854 Z-0.8758 F210
G01 X0.3142 Y-0.4066 Z-0.8861 F210
G01 X0.2872 Y-0.4261 Z-0.8965 F210
G01 X0.2590 Y-0.4438 Z-0.9068 F210
G01 X0.2297 Y-0.4597 Z-0.9172 F210
G01 X0.1994 Y-0.4736 Z-0.9275 F210
G01 X0.1683 Y-0.4855 Z-0.9379 F210
G01 X0.1365 Y-0.4954 Z-0.9482 F210
G01 X0.1041 Y-0.5032 Z-0.9586 F210
G01 X0.0713 Y-0.5089 Z-0.9689 F210
G01 X0.0382 Y-0.5124 Z-0.9793 F210
G01 X0.0049 Y-0.5138 Z-0.9896 F210
G01 X-0.0284 Y-0.5131 Z-1.0000 F210
G01 X0.0049 Y-0.5138 Z-1.0104 F210
G01 X0.0382 Y-0.5124 Z-1.0207 F210
G01 X0.0713 Y-0.5089 Z-1.0311 F210
G01 X0.1041 Y-0.5032 Z-1.0414 F210
G01 X0.1365 Y-0.4954 Z-1.0518 F210
G01 X0.1683 Y-0.4855 Z-1.0621 F210
G01 X0.1994 Y-0.4736 Z-1.0725 F210
G01 X0.2297 Y-0.4597 Z-1.0828 F210
G01 X0.2590 Y-0.4438 Z-1.0932 F210
G01 X0.2872 Y-0.4261 Z-1.1035 F210
G01 X0.3142 Y-0.4066 Z-1.1139 F210
G01 X0.3399 Y-0.3854 Z-1.1242 F210
G01 X0.3642 Y-0.3626 Z-1.1346 F210
G01 X0.3869 Y-0.3382 Z-1.1449 F210
G01 X0.4080 Y-0.3124 Z-1.1553 F210
G01 X0.4274 Y-0.2853 Z-1.1656 F210
G01 X0.4450 Y-0.2570 Z-1.1760 F210
G01 X0.4607 Y-0.2277 Z-1.1863 F210
G01 X0.4745 Y-0.1973 Z-1.1967 F210
G01 X0.4863 Y-0.1662 Z-1.2070 F210
G01 X0.4960 Y-0.1343 Z-1.2174 F210
G01 X0.5037 Y-0.1019 Z-1.2277 F210
G01 X0.5092 Y-0.0690 Z-1.2381 F210
G01 X0.5126 Y-0.0359 Z-1.2484 F210
G01 X0.5139 Y-0.0026 Z-1.2588 F210
G01 X0.5129 Y0.0307 Z-1.2692 F210
G01 X0.5099 Y0.0639 Z-1.2795 F210
G01 X0.5047 Y0.0968 Z-1.2899 F210
G01 X0.4973 Y0.1293 Z-1.3002 F210
G01 X0.4879 Y0.1612 Z-1.3106 F210
G01 X0.4764 Y0.1925 Z-1.3209 F210
G01 X0.4630 Y0.2230 Z-1.3313 F210
G01 X0.4474 Y0.2528 Z-1.3417 F210
G01 X0.4299 Y0.2815 Z-1.3522 F210
G01 X0.4106 Y0.3090 Z-1.3626 F210
G01 X0.3895 Y0.3352 Z-1.3731 F210
G01 X0.3667 Y0.3599 Z-1.3835 F210
G01 X0.3424 Y0.3832 Z-1.3940 F210
G01 X0.3166 Y0.4047 Z-1.4044 F210
G01 X0.2895 Y0.4246 Z-1.4149 F210
G01 X0.2611 Y0.4426 Z-1.4253 F210
G01 X0.2316 Y0.4587 Z-1.4358 F210
G01 X0.2011 Y0.4729 Z-1.4462 F210
G01 X0.1697 Y0.4850 Z-1.4567 F210
G01 X0.1376 Y0.4951 Z-1.4671 F210
G01 X0.1050 Y0.5030 Z-1.4775 F210
G01 X0.0718 Y0.5088 Z-1.4880 F210
G01 X0.0384 Y0.5124 Z-1.4984 F210
G01 X0.0048 Y0.5138 Z-1.5089 F210
G01 X-0.0288 Y0.5131 Z-1.5193 F210
G01 X-0.0623 Y0.5101 Z-1.5298 F210
G01 X-0.0955 Y0.5049 Z-1.5402 F210
G01 X-0.1284 Y0.4976 Z-1.5507 F210
G01 X-0.1606 Y0.4881 Z-1.5611 F210
G01 X-0.1922 Y0.4766 Z-1.5716 F210
G01 X-0.2230 Y0.4630 Z-1.5820 F210
G01 X-0.2528 Y0.4474 Z-1.5925 F210
G01 X-0.2815 Y0.4299 Z-1.6029 F210
G01 X-0.3090 Y0.4106 Z-1.6134 F210
G01 X-0.3352 Y0.3895 Z-1.6238 F210
G01 X-0.3599 Y0.3667 Z-1.6343 F210
G01 X-0.3832 Y0.3424 Z-1.6447 F210
G01 X-0.4047 Y0.3166 Z-1.6552 F210
G01 X-0.4246 Y0.2895 Z-1.6656 F210
G01 X-0.4426 Y0.2611 Z-1.6761 F210
G01 X-0.4587 Y0.2316 Z-1.6865 F210
G01 X-0.4729 Y0.2011 Z-1.6970 F210
G01 X-0.4850 Y0.1697 Z-1.7074 F210
G01 X-0.4951 Y0.1376 Z-1.7179 F210
G01 X-0.5030 Y0.1050 Z-1.7283 F210
G01 X-0.5088 Y0.0718 Z-1.7388 F210
G01 X-0.5124 Y0.0384 Z-1.7492 F210
G01 X-0.5138 Y0.0048 Z-1.7597 F210
G01 X-0.5131 Y-0.0288 Z-1.7701 F210
G01 X-0.5101 Y-0.0623 Z-1.7806 F210
G01 X-0.5049 Y-0.0955 Z-1.7910 F210
G01 X-0.4976 Y-0.1284 Z-1.8015 F210
G01 X-0.4881 Y-0.1606 Z-1.8119 F210
G01 X-0.4766 Y-0.1922 Z-1.8224 F210
G01 X-0.4630 Y-0.2230 Z-1.8328 F210
G01 X-0.4474 Y-0.2528 Z-1.8433 F210
G01 X-0.4299 Y-0.2815 Z-1.8537 F210
G01 X-0.4106 Y-0.3090 Z-1.8642 F210
G01 X-0.3895 Y-0.3352 Z-1.8746 F210
G01 X-0.3667 Y-0.3599 Z-1.8851 F210
G01 X-0.3424 Y-0.3832 Z-1.8955 F210
G01 X-0.3166 Y-0.4047 Z-1.9060 F210
G01 X-0.2895 Y-0.4246 Z-1.9164 F210
G01 X-0.2611 Y-0.4426 Z-1.9269 F210
G01 X-0.2316 Y-0.4587 Z-1.9373 F210
G01 X-0.2011 Y-0.4729 Z-1.9478 F210
G01 X-0.1697 Y-0.4850 Z-1.9582 F210
G01 X-0.1376 Y-0.4951 Z-1.9687 F210
G01 X-0.1050 Y-0.5030 Z-1.9791 F210
G01 X-0.0718 Y-0.5088 Z-1.9896 F210
G01 X-0.0384 Y-0.5124 Z-2.0000 F210
G01 X-0.0718 Y-0.5088 F480
G01 X-0.1050 Y-0.5030 F480
G01 X-0.1376 Y-0.4951 F480
G01 X-0.1697 Y-0.4850 F480
G01 X-0.2011 Y-0.4729 F480
G01 X-0.2316 Y-0.4587 F480
G01 X-0.2611 Y-0.4426 F480
G01 X-0.2895 Y-0.4246 F480
G01 X-0.3166 Y-0.4047 F480
G01 X-0.3424 Y-0.3832 F480
G01 X-0.3667 Y-0.3599 F480
G01 X-0.3895 Y-0.3352 F480
G01 X-0.4106 Y-0.3090 F480
G01 X-0.4299 Y-0.2815 F480
G01 X-0.4474 Y-0.2528 F480
G01 X-0.4630 Y-0.2230 F480
G01 X-0.4766 Y-0.1922 F480
G01 X-0.4881 Y-0.1606 F480
G01 X-0.4976 Y-0.1284 F480
G01 X-0.5049 Y-0.0955 F480
G01 X-0.5101 Y-0.0623 F480
G01 X-0.5131 Y-0.0288 F480
G01 X-0.5138 Y0.0048 F480
G01 X-0.5124 Y0.0384 F480
G01 X-0.5088 Y0.0718 F480
G01 X-0.5030 Y0.1050 F480
G01 X-0.4951 Y0.1376 F480
G01 X-0.4850 Y0.1697 F480
G01 X-0.4729 Y0.2011 F480
G01 X-0.4587 Y0.2316 F480
G01 X-0.4426 Y0.2611 F480
G01 X-0.4246 Y0.2895 F480
G01 X-0.4047 Y0.3166 F480
G01 X-0.3832 Y0.3424 F480
G01 X-0.3599 Y0.3667 F480
G01 X-0.3352 Y0.3895 F480
G01 X-0.3090 Y0.4106 F480
G01 X-0.2815 Y0.4299 F480
G01 X-0.2528 Y0.4474 F480
G01 X-0.2230 Y0.4630 F480
G01 X-0.1922 Y0.4766 F480
G01 X-0.1606 Y0.4881 F480
G01 X-0.1284 Y0.4976 F480
G01 X-0.0955 Y0.5049 F480
G01 X-0.0623 Y0.5101 F480
G01 X-0.0288 Y0.5131 F480
G01 X0.0048 Y0.5138 F480
G01 X0.0384 Y0.5124 F480
G01 X0.0718 Y0.5088 F480
G01 X0.1050 Y0.5030 F480
G01 X0.1376 Y0.4951 F480
G01 X0.1697 Y0.4850 F480
G01 X0.2011 Y0.4729 F480
G01 X0.2316 Y0.4587 F480
G01 X0.2611 Y0.4426 F480
G01 X0.2895 Y0.4246 F480
G01 X0.3166 Y0.4047 F480
G01 X0.3424 Y0.3832 F480
G01 X0.3667 Y0.3599 F480
G01 X0.3895 Y0.3352 F480
G01 X0.4106 Y0.3090 F480
G01 X0.4299 Y0.2815 F480
G01 X0.4474 Y0.2528 F480
G01 X0.4630 Y0.2230 F480
G01 X0.4766 Y0.1922 F480
G01 X0.4881 Y0.1606 F480
G01 X0.4976 Y0.1284 F480
G01 X0.5049 Y0.0955 F480
G01 X0.5101 Y0.0623 F480
G01 X0.5131 Y0.0288 F480
G01 X0.5138 Y-0.0048 F480
G01 X0.5124 Y-0.0384 F480
G01 X0.5088 Y-0.0718 F480
G01 X0.5030 Y-0.1050 F480
G01 X0.4951 Y-0.1376 F480
G01 X0.4850 Y-0.1697 F480
G01 X0.4729 Y-0.2011 F480
G01 X0.4587 Y-0.2316 F480
G01 X0.4426 Y-0.2611 F480
G01 X0.4246 Y-0.2895 F480
G01 X0.4047 Y-0.3166 F480
G01 X0.3832 Y-0.3424 F480
G01 X0.3599 Y-0.3667 F480
G01 X0.3352 Y-0.3895 F480
G01 X0.3090 Y-0.4106 F480
G01 X0.2815 Y-0.4299 F480
G01 X0.2528 Y-0.4474 F480
G01 X0.2230 Y-0.4630 F480
G01 X0.1922 Y-0.4766 F480
G01 X0.1606 Y-0.4881 F480
G01 X0.1284 Y-0.4976 F480
G01 X0.0955 Y-0.5049 F480
G01 X0.0623 Y-0.5101 F480
G01 X0.0288 Y-0.5131 F480
G01 X-0.0048 Y-0.5138 F480
G01 X-0.0384 Y-0.5124 F480
G01 X-0.0718 Y-0.5088 Z-2.0104 F210
G01 X-0.1050 Y-0.5030 Z-2.0209 F210
G01 X-0.1376 Y-0.4951 Z-2.0313 F210
G01 X-0.1697 Y-0.4850 Z-2.0418 F210
G01 X-0.2011 Y-0.4729 Z-2.0522 F210
G01 X-0.2316 Y-0.4587 Z-2.0627 F210
G01 X-0.2611 Y-0.4426 Z-2.0731 F210
G01 X-0.2895 Y-0.4246 Z-2.0836 F210
G01 X-0.3166 Y-0.4047 Z-2.0940 F210
G01 X-0.3424 Y-0.3832 Z-2.1045 F210
G01 X-0.3667 Y-0.3599 Z-2.1149 F210
G01 X-0.3895 Y-0.3352 Z-2.1254 F210
G01 X-0.4106 Y-0.3090 Z-2.1358 F210
G01 X-0.4299 Y-0.2815 Z-2.1463 F210
G01 X-0.4474 Y-0.2528 Z-2.1567 F210
G01 X-0.4630 Y-0.2230 Z-2.1672 F210
G01 X-0.4766 Y-0.1922 Z-2.1776 F210
G01 X-0.4881 Y-0.1606 Z-2.1881 F210
G01 X-0.4976 Y-0.1284 Z-2.1985 F210
G01 X-0.5049 Y-0.0955 Z-2.2090 F210
G01 X-0.5101 Y-0.0623 Z-2.2194 F210
G01 X-0.5131 Y-0.0288 Z-2.2299 F210
G01 X-0.5138 Y0.0048 Z-2.2403 F210
G01 X-0.5124 Y0.0384 Z-2.2508 F210
G01 X-0.5088 Y0.0718 Z-2.2612 F210
G01 X-0.5030 Y0.1050 Z-2.2717 F210
G01 X-0.4951 Y0.1376 Z-2.2821 F210
G01 X-0.4850 Y0.1697 Z-2.2926 F210
G01 X-0.4729 Y0.2011 Z-2.3030 F210
G01 X-0.4587 Y0.2316 Z-2.3135 F210
G01 X-0.4426 Y0.2611 Z-2.3239 F210
G01 X-0.4246 Y0.2895 Z-2.3344 F210
G01 X-0.4047 Y0.3166 Z-2.3448 F210
G01 X-0.3832 Y0.3424 Z-2.3553 F210
G01 X-0.3599 Y0.3667 Z-2.3657 F210
G01 X-0.3352 Y0.3895 Z-2.3762 F210
G01 X-0.3090 Y0.4106 Z-2.3866 F210
G01 X-0.2815 Y0.4299 Z-2.3971 F210
G01 X-0.2528 Y0.4474 Z-2.4075 F210
G01 X-0.2230 Y0.4630 Z-2.4180 F210
G01 X-0.1922 Y0.4766 Z-2.4284 F210
G01 X-0.1606 Y0.4881 Z-2.4389 F210
G01 X-0.1284 Y0.4976 Z-2.4493 F210
G01 X-0.0955 Y0.5049 Z-2.4598 F210
G01 X-0.0623 Y0.5101 Z-2.4702 F210
G01 X-0.0288 Y0.5131 Z-2.4807 F210
G01 X0.0048 Y0.5138 Z-2.4911 F210
G01 X0.0384 Y0.5124 Z-2.5016 F210
G01 X0.0718 Y0.5088 Z-2.5120 F210
G01 X0.1050 Y0.5030 Z-2.5225 F210
G01 X0.1376 Y0.4951 Z-2.5329 F210
G01 X0.1697 Y0.4850 Z-2.5433 F210
G01 X0.2011 Y0.4729 Z-2.5538 F210
G01 X0.2316 Y0.4587 Z-2.5642 F210
G01 X0.2611 Y0.4426 Z-2.5747 F210
G01 X0.2895 Y0.4246 Z-2.5851 F210
G01 X0.3166 Y0.4047 Z-2.5956 F210
G01 X0.3424 Y0.3832 Z-2.6060 F210
G01 X0.3667 Y0.3599 Z-2.6165 F210
G01 X0.3895 Y0.3352 Z-2.6269 F210
G01 X0.4106 Y0.3090 Z-2.6374 F210
G01 X0.4299 Y0.2815 Z-2.6478 F210
G01 X0.4474 Y0.2528 Z-2.6583 F210
G01 X0.4630 Y0.2230 Z-2.6687 F210
G01 X0.4764 Y0.1925 Z-2.6791 F210
G01 X0.4879 Y0.1612 Z-2.6894 F210
G01 X0.4973 Y0.1293 Z-2.6998 F210
G01 X0.5047 Y0.0968 Z-2.7101 F210
G01 X0.5099 Y0.0639 Z-2.7205 F210
G01 X0.5129 Y0.0307 Z-2.7308 F210
G01 X0.5139 Y-0.0026 Z-2.7412 F210
G01 X0.5126 Y-0.0359 Z-2.7516 F210
G01 X0.5092 Y-0.0690 Z-2.7619 F210
G01 X0.5037 Y-0.1019 Z-2.7723 F210
G01 X0.4960 Y-0.1343 Z-2.7826 F210
G01 X0.4863 Y-0.1662 Z-2.7930 F210
G01 X0.4745 Y-0.1973 Z-2.8033 F210
G01 X0.4607 Y-0.2277 Z-2.8137 F210
G01 X0.4450 Y-0.2570 Z-2.8240 F210
G01 X0.4274 Y-0.2853 Z-2.8344 F210
G01 X0.4080 Y-0.3124 Z-2.8447 F210
G01 X0.3869 Y-0.3382 Z-2.8551 F210
G01 X0.3642 Y-0.3626 Z-2.8654 F210
G01 X0.3399 Y-0.3854 Z-2.8758 F210
G01 X0.3142 Y-0.4066 Z-2.8861 F210
G01 X0.2872 Y-0.4261 Z-2.8965 F210
G01 X0.2590 Y-0.4438 Z-2.9068 F210
G01 X0.2297 Y-0.4597 Z-2.9172 F210
G01 X0.1994 Y-0.4736 Z-2.9275 F210
G01 X0.1683 Y-0.4855 Z-2.9379 F210
G01 X0.1365 Y-0.4954 Z-2.9482 F210
G01 X0.1041 Y-0.5032 Z-2.9586 F210
G01 X0.0713 Y-0.5089 Z-2.9689 F210
G01 X0.0382 Y-0.5124 Z-2.9793 F210
G01 X0.0049 Y-0.5138 Z-2.9896 F210
G01 X-0.0284 Y-0.5131 Z-3.0000 F210
G01 X0.0049 Y-0.5138 Z-3.0104 F210
G01 X0.0382 Y-0.5124 Z-3.0207 F210
G01 X0.0713 Y-0.5089 Z-3.0311 F210
G01 X0.1041 Y-0.5032 Z-3.0414 F210
G01 X0.1365 Y-0.4954 Z-3.0518 F210
G01 X0.1683 Y-0.4855 Z-3.0621 F210
G01 X0.1994 Y-0.4736 Z-3.0725 F210
G01 X0.2297 Y-0.4597 Z-3.0828 F210
G01 X0.2590 Y-0.4438 Z-3.0932 F210
G01 X0.2872 Y-0.4261 Z-3.1035 F210
G01 X0.3142 Y-0.4066 Z-3.1139 F210
G01 X0.3399 Y-0.3854 Z-3.1242 F210
G01 X0.3642 Y-0.3626 Z-3.1346 F210
G01 X0.3869 Y-0.3382 Z-3.1449 F210
G01 X0.4080 Y-0.3124 Z-3.1553 F210
G01 X0.4274 Y-0.2853 Z-3.1656 F210
G01 X0.4450 Y-0.2570 Z-3.1760 F210
G01 X0.4607 Y-0.2277 Z-3.1863 F210
G01 X0.4745 Y-0.1973 Z-3.1967 F210
G01 X0.4863 Y-0.1662 Z-3.2070 F210
G01 X0.4960 Y-0.1343 Z-3.2174 F210
G01 X0.5037 Y-0.1019 Z-3.2277 F210
G01 X0.5092 Y-0.0690 Z-3.2381 F210
G01 X0.5126 Y-0.0359 Z-3.2484 F210
G01 X0.5139 Y-0.0026 Z-3.2588 F210
G01 X0.5129 Y0.0307 Z-3.2692 F210
G01 X0.5099 Y0.0639 Z-3.2795 F210
G01 X0.5047 Y0.0968 Z-3.2899 F210
G01 X0.4973 Y0.1293 Z-3.3002 F210
G01 X0.4879 Y0.1612 Z-3.3106 F210
G01 X0.4764 Y0.1925 Z-3.3209 F210
G01 X0.4630 Y0.2230 Z-3.3313 F210
G01 X0.4474 Y0.2528 Z-3.3417 F210
G01 X0.4299 Y0.2815 Z-3.3522 F210
G01 X0.4106 Y0.3090 Z-3.3626 F210
G01 X0.3895 Y0.3352 Z-3.3731 F210
G01 X0.3667 Y0.3599 Z-3.3835 F210
G01 X0.3424 Y0.3832 Z-3.3940 F210
G01 X0.3166 Y0.4047 Z-3.4044 F210
G01 X0.2895 Y0.4246 Z-3.4149 F210
G01 X0.2611 Y0.4426 Z-3.4253 F210
G01 X0.2316 Y0.4587 Z-3.4358 F210
G01 X0.2011 Y0.4729 Z-3.4462 F210
G01 X0.1697 Y0.4850 Z-3.4567 F210
G01 X0.1376 Y0.4951 Z-3.4671 F210
G01 X0.1050 Y0.5030 Z-3.4775 F210
G01 X0.0718 Y0.5088 Z-3.4880 F210
G01 X0.0384 Y0.5124 Z-3.4984 F210
G01 X0.0048 Y0.5138 Z-3.5089 F210
G01 X-0.0288 Y0.5131 Z-3.5193 F210
G01 X-0.0623 Y0.5101 Z-3.5298 F210
G01 X-0.0955 Y0.5049 Z-3.5402 F210
G01 X-0.1284 Y0.4976 Z-3.5507 F210
G01 X-0.1606 Y0.4881 Z-3.5611 F210
G01 X-0.1922 Y0.4766 Z-3.5716 F210
G01 X-0.2230 Y0.4630 Z-3.5820 F210
G01 X-0.2528 Y0.4474 Z-3.5925 F210
G01 X-0.2815 Y0.4299 Z-3.6029 F210
G01 X-0.3090 Y0.4106 Z-3.6134 F210
G01 X-0.3352 Y0.3895 Z-3.6238 F210
G01 X-0.3599 Y0.3667 Z-3.6343 F210
G01 X-0.3832 Y0.3424 Z-3.6447 F210
G01 X-0.4047 Y0.3166 Z-3.6552 F210
G01 X-0.4246 Y0.2895 Z-3.6656 F210
G01 X-0.4426 Y0.2611 Z-3.6761 F210
G01 X-0.4587 Y0.2316 Z-3.6865 F210
G01 X-0.4729 Y0.2011 Z-3.6970 F210
G01 X-0.4850 Y0.1697 Z-3.7074 F210
G01 X-0.4951 Y0.1376 Z-3.7179 F210
G01 X-0.5030 Y0.1050 Z-3.7283 F210
G01 X-0.5088 Y0.0718 Z-3.7388 F210
G01 X-0.5124 Y0.0384 Z-3.7492 F210
G01 X-0.5138 Y0.0048 Z-3.7597 F210
G01 X-0.5131 Y-0.0288 Z-3.7701 F210
G01 X-0.5101 Y-0.0623 Z-3.7806 F210
G01 X-0.5049 Y-0.0955 Z-3.7910 F210
G01 X-0.4976 Y-0.1284 Z-3.8015 F210
G01 X-0.4881 Y-0.1606 Z-3.8119 F210
G01 X-0.4766 Y-0.1922 Z-3.8224 F210
G01 X-0.4630 Y-0.2230 Z-3.8328 F210
G01 X-0.4474 Y-0.2528 Z-3.8433 F210
G01 X-0.4299 Y-0.2815 Z-3.8537 F210
G01 X-0.4106 Y-0.3090 Z-3.8642 F210
G01 X-0.3895 Y-0.3352 Z-3.8746 F210
G01 X-0.3667 Y-0.3599 Z-3.8851 F210
G01 X-0.3424 Y-0.3832 Z-3.8955 F210
G01 X-0.3166 Y-0.4047 Z-3.9060 F210
G01 X-0.2895 Y-0.4246 Z-3.9164 F210
G01 X-0.2611 Y-0.4426 Z-3.9269 F210
G01 X-0.2316 Y-0.4587 Z-3.9373 F210
G01 X-0.2011 Y-0.4729 Z-3.9478 F210
G01 X-0.1697 Y-0.4850 Z-3.9582 F210
G01 X-0.1376 Y-0.4951 Z-3.9687 F210
G01 X-0.1050 Y-0.5030 Z-3.9791 F210
G01 X-0.0718 Y-0.5088 Z-3.9896 F210
G01 X-0.0384 Y-0.5124 Z-4.0000 F210
G01 X-0.0718 Y-0.5088 F480
G01 X-0.1050 Y-0.5030 F480
G01 X-0.1376 Y-0.4951 F480
G01 X-0.1697 Y-0.4850 F480
G01 X-0.2011 Y-0.4729 F480
G01 X-0.2316 Y-0.4587 F480
G01 X-0.2611 Y-0.4426 F480
G01 X-0.2895 Y-0.4246 F480
G01 X-0.3166 Y-0.4047 F480
G01 X-0.3424 Y-0.3832 F480
G01 X-0.3667 Y-0.3599 F480
G01 X-0.3895 Y-0.3352 F480
G01 X-0.4106 Y-0.3090 F480
G01 X-0.4299 Y-0.2815 F480
G01 X-0.4474 Y-0.2528 F480
G01 X-0.4630 Y-0.2230 F480
G01 X-0.4766 Y-0.1922 F480
G01 X-0.4881 Y-0.1606 F480
G01 X-0.4976 Y-0.1284 F480
G01 X-0.5049 Y-0.0955 F480
G01 X-0.5101 Y-0.0623 F480
G01 X-0.5131 Y-0.0288 F480
G01 X-0.5138 Y0.0048 F480
G01 X-0.5124 Y0.0384 F480
G01 X-0.5088 Y0.0718 F480
G01 X-0.5030 Y0.1050 F480
G01 X-0.4951 Y0.1376 F480
G01 X-0.4850 Y0.1697 F480
G01 X-0.4729 Y0.2011 F480
G01 X-0.4587 Y0.2316 F480
G01 X-0.4426 Y0.2611 F480
G01 X-0.4246 Y0.2895 F480
G01 X-0.4047 Y0.3166 F480
G01 X-0.3832 Y0.3424 F480
G01 X-0.3599 Y0.3667 F480
G01 X-0.3352 Y0.3895 F480
G01 X-0.3090 Y0.4106 F480
G01 X-0.2815 Y0.4299 F480
G01 X-0.2528 Y0.4474 F480
G01 X-0.2230 Y0.4630 F480
G01 X-0.1922 Y0.4766 F480
G01 X-0.1606 Y0.4881 F480
G01 X-0.1284 Y0.4976 F480
G01 X-0.0955 Y0.5049 F480
G01 X-0.0623 Y0.5101 F480
G01 X-0.0288 Y0.5131 F480
G01 X0.0048 Y0.5138 F480
G01 X0.0384 Y0.5124 F480
G01 X0.0718 Y0.5088 F480
G01 X0.1050 Y0.5030 F480
G01 X0.1376 Y0.4951 F480
G01 X0.1697 Y0.4850 F480
G01 X0.2011 Y0.4729 F480
G01 X0.2316 Y0.4587 F480
G01 X0.2611 Y0.4426 F480
G01 X0.2895 Y0.4246 F480
G01 X0.3166 Y0.4047 F480
G01 X0.3424 Y0.3832 F480
G01 X0.3667 Y0.3599 F480
G01 X0.3895 Y0.3352 F480
G01 X0.4106 Y0.3090 F480
G01 X0.4299 Y0.2815 F480
G01 X0.4474 Y0.2528 F480
G01 X0.4630 Y0.2230 F480
G01 X0.4766 Y0.1922 F480
G01 X0.4881 Y0.1606 F480
G01 X0.4976 Y0.1284 F480
G01 X0.5049 Y0.0955 F480
G01 X0.5101 Y0.0623 F480
G01 X0.5131 Y0.0288 F480
G01 X0.5138 Y-0.0048 F480
G01 X0.5124 Y-0.0384 F480
G01 X0.5088 Y-0.0718 F480
G01 X0.5030 Y-0.1050 F480
G01 X0.4951 Y-0.1376 F480
G01 X0.4850 Y-0.1697 F480
G01 X0.4729 Y-0.2011 F480
G01 X0.4587 Y-0.2316 F480
G01 X0.4426 Y-0.2611 F480
G01 X0.4246 Y-0.2895 F480
G01 X0.4047 Y-0.3166 F480
G01 X0.3832 Y-0.3424 F480
G01 X0.3599 Y-0.3667 F480
G01 X0.3352 Y-0.3895 F480
G01 X0.3090 Y-0.4106 F480
G01 X0.2815 Y-0.4299 F480
G01 X0.2528 Y-0.4474 F480
G01 X0.2230 Y-0.4630 F480
G01 X0.1922 Y-0.4766 F480
G01 X0.1606 Y-0.4881 F480
G01 X0.1284 Y-0.4976 F480
G01 X0.0955 Y-0.5049 F480
G01 X0.0623 Y-0.5101 F480
G01 X0.0288 Y-0.5131 F480
G01 X-0.0048 Y-0.5138 F480
G01 X-0.0384 Y-0.5124 F480
G01 X-0.0718 Y-0.5088 Z-4.0052 F210
G01 X-0.1050 Y-0.5030 Z-4.0104 F210
G01 X-0.1376 Y-0.4951 Z-4.0157 F210
G01 X-0.1697 Y-0.4850 Z-4.0209 F210
G01 X-0.2011 Y-0.4729 Z-4.0261 F210
G01 X-0.2316 Y-0.4587 Z-4.0313 F210
G01 X-0.2611 Y-0.4426 Z-4.0366 F210
G01 X-0.2895 Y-0.4246 Z-4.0418 F210
G01 X-0.3166 Y-0.4047 Z-4.0470 F210
G01 X-0.3424 Y-0.3832 Z-4.0522 F210
G01 X-0.3667 Y-0.3599 Z-4.0575 F210
G01 X-0.3895 Y-0.3352 Z-4.0627 F210
G01 X-0.4106 Y-0.3090 Z-4.0679 F210
G01 X-0.4299 Y-0.2815 Z-4.0731 F210
G01 X-0.4474 Y-0.2528 Z-4.0784 F210
G01 X-0.4630 Y-0.2230 Z-4.0836 F210
G01 X-0.4766 Y-0.1922 Z-4.0888 F210
G01 X-0.4881 Y-0.1606 Z-4.0940 F210
G01 X-0.4976 Y-0.1284 Z-4.0993 F210
G01 X-0.5049 Y-0.0955 Z-4.1045 F210
G01 X-0.5101 Y-0.0623 Z-4.1097 F210
G01 X-0.5131 Y-0.0288 Z-4.1149 F210
G01 X-0.5138 Y0.0048 Z-4.1202 F210
G01 X-0.5124 Y0.0384 Z-4.1254 F210
G01 X-0.5088 Y0.0718 Z-4.1306 F210
G01 X-0.5030 Y0.1050 Z-4.1358 F210
G01 X-0.4951 Y0.1376 Z-4.1411 F210
G01 X-0.4850 Y0.1697 Z-4.1463 F210
G01 X-0.4729 Y0.2011 Z-4.1515 F210
G01 X-0.4587 Y0.2316 Z-4.1567 F210
G01 X-0.4426 Y0.2611 Z-4.1620 F210
G01 X-0.4246 Y0.2895 Z-4.1672 F210
G01 X-0.4047 Y0.3166 Z-4.1724 F210
G01 X-0.3832 Y0.3424 Z-4.1776 F210
G01 X-0.3599 Y0.3667 Z-4.1829 F210
G01 X-0.3352 Y0.3895 Z-4.1881 F210
G01 X-0.3090 Y0.4106 Z-4.1933 F210
G01 X-0.2815 Y0.4299 Z-4.1985 F210
G01 X-0.2528 Y0.4474 Z-4.2038 F210
G01 X-0.2230 Y0.4630 Z-4.2090 F210
G01 X-0.1922 Y0.4766 Z-4.2142 F210
G01 X-0.1606 Y0.4881 Z-4.2194 F210
G01 X-0.1284 Y0.4976 Z-4.2247 F210
G01 X-0.0955 Y0.5049 Z-4.2299 F210
G01 X-0.0623 Y0.5101 Z-4.2351 F210
G01 X-0.0288 Y0.5131 Z-4.2403 F210
G01 X0.0048 Y0.5138 Z-4.2456 F210
G01 X0.0384 Y0.5124 Z-4.2508 F210
G01 X0.0718 Y0.5088 Z-4.2560 F210
G01 X0.1050 Y0.5030 Z-4.2612 F210
G01 X0.1376 Y0.4951 Z-4.2665 F210
G01 X0.1697 Y0.4850 Z-4.2717 F210
G01 X0.2011 Y0.4729 Z-4.2769 F210
G01 X0.2316 Y0.4587 Z-4.2821 F210
G01 X0.2611 Y0.4426 Z-4.2873 F210
G01 X0.2895 Y0.4246 Z-4.2926 F210
G01 X0.3166 Y0.4047 Z-4.2978 F210
G01 X0.3424 Y0.3832 Z-4.3030 F210
G01 X0.3667 Y0.3599 Z-4.3082 F210
G01 X0.3895 Y0.3352 Z-4.3135 F210
G01 X0.4106 Y0.3090 Z-4.3187 F210
G01 X0.4299 Y0.2815 Z-4.3239 F210
G01 X0.4474 Y0.2528 Z-4.3291 F210
G01 X0.4630 Y0.2230 Z-4.3344 F210
G01 X0.4764 Y0.1925 Z-4.3395 F210
G01 X0.4879 Y0.1612 Z-4.3447 F210
G01 X0.4973 Y0.1293 Z-4.3499 F210
G01 X0.5047 Y0.0968 Z-4.3551 F210
G01 X0.5099 Y0.0639 Z-4.3602 F210
G01 X0.5129 Y0.0307 Z-4.3654 F210
G01 X0.5139 Y-0.0026 Z-4.3706 F210
G01 X0.5126 Y-0.0359 Z-4.3758 F210
G01 X0.5092 Y-0.0690 Z-4.3810 F210
G01 X0.5037 Y-0.1019 Z-4.3861 F210
G01 X0.4960 Y-0.1343 Z-4.3913 F210
G01 X0.4863 Y-0.1662 Z-4.3965 F210
G01 X0.4745 Y-0.1973 Z-4.4017 F210
G01 X0.4607 Y-0.2277 Z-4.4068 F210
G01 X0.4450 Y-0.2570 Z-4.4120 F210
G01 X0.4274 Y-0.2853 Z-4.4172 F210
G01 X0.4080 Y-0.3124 Z-4.4224 F210
G01 X0.3869 Y-0.3382 Z-4.4275 F210
G01 X0.3642 Y-0.3626 Z-4.4327 F210
G01 X0.3399 Y-0.3854 Z-4.4379 F210
G01 X0.3142 Y-0.4066 Z-4.4431 F210
G01 X0.2872 Y-0.4261 Z-4.4482 F210
G01 X0.2590 Y-0.4438 Z-4.4534 F210
G01 X0.2297 Y-0.4597 Z-4.4586 F210
G01 X0.1994 Y-0.4736 Z-4.4638 F210
G01 X0.1683 Y-0.4855 Z-4.4689 F210
G01 X0.1365 Y-0.4954 Z-4.4741 F210
G01 X0.1041 Y-0.5032 Z-4.4793 F210
G01 X0.0713 Y-0.5089 Z-4.4845 F210
G01 X0.0382 Y-0.5124 Z-4.4896 F210
G01 X0.0049 Y-0.5138 Z-4.4948 F210
G01 X-0.0284 Y-0.5131 Z-4.5000 F210
G01 X0.0049 Y-0.5138 Z-4.5052 F210
G01 X0.0382 Y-0.5124 Z-4.5104 F210
G01 X0.0713 Y-0.5089 Z-4.5155 F210
G01 X0.1041 Y-0.5032 Z-4.5207 F210
G01 X0.1365 Y-0.4954 Z-4.5259 F210
G01 X0.1683 Y-0.4855 Z-4.5311 F210
G01 X0.1994 Y-0.4736 Z-4.5362 F210
G01 X0.2297 Y-0.4597 Z-4.5414 F210
G01 X0.2590 Y-0.4438 Z-4.5466 F210
G01 X0.2872 Y-0.4261 Z-4.5518 F210
G01 X0.3142 Y-0.4066 Z-4.5569 F210
G01 X0.3399 Y-0.3854 Z-4.5621 F210
G01 X0.3642 Y-0.3626 Z-4.5673 F210
G01 X0.3869 Y-0.3382 Z-4.5725 F210
G01 X0.4080 Y-0.3124 Z-4.5776 F210
G01 X0.4274 Y-0.2853 Z-4.5828 F210
G01 X0.4450 Y-0.2570 Z-4.5880 F210
G01 X0.4607 Y-0.2277 Z-4.5932 F210
G01 X0.4745 Y-0.1973 Z-4.5983 F210
G01 X0.4863 Y-0.1662 Z-4.6035 F210
G01 X0.4960 Y-0.1343 Z-4.6087 F210
G01 X0.5037 Y-0.1019 Z-4.6139 F210
G01 X0.5092 Y-0.0690 Z-4.6190 F210
G01 X0.5126 Y-0.0359 Z-4.6242 F210
G01 X0.5139 Y-0.0026 Z-4.6294 F210
G01 X0.5129 Y0.0307 Z-4.6346 F210
G01 X0.5099 Y0.0639 Z-4.6398 F210
G01 X0.5047 Y0.0968 Z-4.6449 F210
G01 X0.4973 Y0.1293 Z-4.6501 F210
G01 X0.4879 Y0.1612 Z-4.6553 F210
G01 X0.4764 Y0.1925 Z-4.6605 F210
G01 X0.4630 Y0.2230 Z-4.6656 F210
G01 X0.4474 Y0.2528 Z-4.6709 F210
G01 X0.4299 Y0.2815 Z-4.6761 F210
G01 X0.4106 Y0.3090 Z-4.6813 F210
G01 X0.3895 Y0.3352 Z-4.6865 F210
G01 X0.3667 Y0.3599 Z-4.6918 F210
G01 X0.3424 Y0.3832 Z-4.6970 F210
G01 X0.3166 Y0.4047 Z-4.7022 F210
G01 X0.2895 Y0.4246 Z-4.7074 F210
G01 X0.2611 Y0.4426 Z-4.7127 F210
G01 X0.2316 Y0.4587 Z-4.7179 F210
G01 X0.2011 Y0.4729 Z-4.7231 F210
G01 X0.1697 Y0.4850 Z-4.7283 F210
G01 X0.1376 Y0.4951 Z-4.7335 F210
G01 X0.1050 Y0.5030 Z-4.7388 F210
G01 X0.0718 Y0.5088 Z-4.7440 F210
G01 X0.0384 Y0.5124 Z-4.7492 F210
G01 X0.0048 Y0.5138 Z-4.7544 F210
G01 X-0.0288 Y0.5131 Z-4.7597 F210
G01 X-0.0623 Y0.5101 Z-4.7649 F210
G01 X-0.0955 Y0.5049 Z-4.7701 F210
G01 X-0.1284 Y0.4976 Z-4.7753 F210
G01 X-0.1606 Y0.4881 Z-4.7806 F210
G01 X-0.1922 Y0.4766 Z-4.7858 F210
G01 X-0.2230 Y0.4630 Z-4.7910 F210
G01 X-0.2528 Y0.4474 Z-4.7962 F210
G01 X-0.2815 Y0.4299 Z-4.8015 F210
G01 X-0.3090 Y0.4106 Z-4.8067 F210
G01 X-0.3352 Y0.3895 Z-4.8119 F210
G01 X-0.3599 Y0.3667 Z-4.8171 F210
G01 X-0.3832 Y0.3424 Z-4.8224 F210
G01 X-0.4047 Y0.3166 Z-4.8276 F210
G01 X-0.4246 Y0.2895 Z-4.8328 F210
G01 X-0.4426 Y0.2611 Z-4.8380 F210
G01 X-0.4587 Y0.2316 Z-4.8433 F210
G01 X-0.4729 Y0.2011 Z-4.8485 F210
G01 X-0.4850 Y0.1697 Z-4.8537 F210
G01 X-0.4951 Y0.1376 Z-4.8589 F210
G01 X-0.5030 Y0.1050 Z-4.8642 F210
G01 X-0.5088 Y0.0718 Z-4.8694 F210
G01 X-0.5124 Y0.0384 Z-4.8746 F210
G01 X-0.5138 Y0.0048 Z-4.8798 F210
G01 X-0.5131 Y-0.0288 Z-4.8851 F210
G01 X-0.5101 Y-0.0623 Z-4.8903 F210
G01 X-0.5049 Y-0.0955 Z-4.8955 F210
G01 X-0.4976 Y-0.1284 Z-4.9007 F210
G01 X-0.4881 Y-0.1606 Z-4.9060 F210
G01 X-0.4766 Y-0.1922 Z-4.9112 F210
G01 X-0.4630 Y-0.2230 Z-4.9164 F210
G01 X-0.4474 Y-0.2528 Z-4.9216 F210
G01 X-0.4299 Y-0.2815 Z-4.9269 F210
G01 X-0.4106 Y-0.3090 Z-4.9321 F210
G01 X-0.3895 Y-0.3352 Z-4.9373 F210
G01 X-0.3667 Y-0.3599 Z-4.9425 F210
G01 X-0.3424 Y-0.3832 Z-4.9478 F210
G01 X-0.3166 Y-0.4047 Z-4.9530 F210
G01 X-0.2895 Y-0.4246 Z-4.9582 F210
G01 X-0.2611 Y-0.4426 Z-4.9634 F210
G01 X-0.2316 Y-0.4587 Z-4.9687 F210
G01 X-0.2011 Y-0.4729 Z-4.9739 F210
G01 X-0.1697 Y-0.4850 Z-4.9791 F210
G01 X-0.1376 Y-0.4951 Z-4.9843 F210
G01 X-0.1050 Y-0.5030 Z-4.9896 F210
G01 X-0.0718 Y-0.5088 Z-4.9948 F210
G01 X-0.0384 Y-0.5124 Z-5.0000 F210
G01 X-0.0718 Y-0.5088 F480
G01 X-0.1050 Y-0.5030 F480
G01 X-0.1376 Y-0.4951 F480
G01 X-0.1697 Y-0.4850 F480
G01 X-0.2011 Y-0.4729 F480
G01 X-0.2316 Y-0.4587 F480
G01 X-0.2611 Y-0.4426 F480
G01 X-0.2895 Y-0.4246 F480
G01 X-0.3166 Y-0.4047 F480
G01 X-0.3424 Y-0.3832 F480
G01 X-0.3667 Y-0.3599 F480
G01 X-0.3895 Y-0.3352 F480
G01 X-0.4106 Y-0.3090 F480
G01 X-0.4299 Y-0.2815 F480
G01 X-0.4474 Y-0.2528 F480
G01 X-0.4630 Y-0.2230 F480
G01 X-0.4766 Y-0.1922 F480
G01 X-0.4881 Y-0.1606 F480
G01 X-0.4976 Y-0.1284 F480
G01 X-0.5049 Y-0.0955 F480
G01 X-0.5101 Y-0.0623 F480
G01 X-0.5131 Y-0.0288 F480
G01 X-0.5138 Y0.0048 F480
G01 X-0.5124 Y0.0384 F480
G01 X-0.5088 Y0.0718 F480
G01 X-0.5030 Y0.1050 F480
G01 X-0.4951 Y0.1376 F480
G01 X-0.4850 Y0.1697 F480
G01 X-0.4729 Y0.2011 F480
G01 X-0.4587 Y0.2316 F480
G01 X-0.4426 Y0.2611 F480
G01 X-0.4246 Y0.2895 F480
G01 X-0.4047 Y0.3166 F480
G01 X-0.3832 Y0.3424 F480
G01 X-0.3599 Y0.3667 F480
G01 X-0.3352 Y0.3895 F480
G01 X-0.3090 Y0.4106 F480
G01 X-0.2815 Y0.4299 F480
G01 X-0.2528 Y0.4474 F480
G01 X-0.2230 Y0.4630 F480
G01 X-0.1922 Y0.4766 F480
G01 X-0.1606 Y0.4881 F480
G01 X-0.1284 Y0.4976 F480
G01 X-0.0955 Y0.5049 F480
G01 X-0.0623 Y0.5101 F480
G01 X-0.0288 Y0.5131 F480
G01 X0.0048 Y0.5138 F480
G01 X0.0384 Y0.5124 F480
G01 X0.0718 Y0.5088 F480
G01 X0.1050 Y0.5030 F480
G01 X0.1376 Y0.4951 F480
G01 X0.1697 Y0.4850 F480
G01 X0.2011 Y0.4729 F480
G01 X0.2316 Y0.4587 F480
G01 X0.2611 Y0.4426 F480
G01 X0.2895 Y0.4246 F480
G01 X0.3166 Y0.4047 F480
G01 X0.3424 Y0.3832 F480
G01 X0.3667 Y0.3599 F480
G01 X0.3895 Y0.3352 F480
G01 X0.4106 Y0.3090 F480
G01 X0.4299 Y0.2815 F480
G01 X0.4474 Y0.2528 F480
G01 X0.4630 Y0.2230 F480
G01 X0.4766 Y0.1922 F480
G01 X0.4881 Y0.1606 F480
G01 X0.4976 Y0.1284 F480
G01 X0.5049 Y0.0955 F480
G01 X0.5101 Y0.0623 F480
G01 X0.5131 Y0.0288 F480
G01 X0.5138 Y-0.0048 F480
G01 X0.5124 Y-0.0384 F480
G01 X0.5088 Y-0.0718 F480
G01 X0.5030 Y-0.1050 F480
G01 X0.4951 Y-0.1376 F480
G01 X0.4850 Y-0.1697 F480
G01 X0.4729 Y-0.2011 F480
G01 X0.4587 Y-0.2316 F480
G01 X0.4426 Y-0.2611 F480
G01 X0.4246 Y-0.2895 F480
G01 X0.4047 Y-0.3166 F480
G01 X0.3832 Y-0.3424 F480
G01 X0.3599 Y-0.3667 F480
G01 X0.3352 Y-0.3895 F480
G01 X0.3090 Y-0.4106 F480
G01 X0.2815 Y-0.4299 F480
G01 X0.2528 Y-0.4474 F480
G01 X0.2230 Y-0.4630 F480
G01 X0.1922 Y-0.4766 F480
G01 X0.1606 Y-0.4881 F480
G01 X0.1284 Y-0.4976 F480
G01 X0.0955 Y-0.5049 F480
G01 X0.0623 Y-0.5101 F480
G01 X0.0288 Y-0.5131 F480
G01 X-0.0048 Y-0.5138 F480
G01 X-0.0384 Y-0.5124 F480
G00 Z3.0000 F400


;No. 2: Hole 2
G00 X129.4990 Y-0.1143 Z3.0000 F4000
G00 Z0.5000 F400
G01 Z0.0000 F210
G01 X129.4926 Y-0.0813 Z-0.0104 F210
G01 X129.4884 Y-0.0480 Z-0.0209 F210
G01 X129.4863 Y-0.0144 Z-0.0313 F210
G01 X129.4865 Y0.0192 Z-0.0418 F210
G01 X129.4888 Y0.0528 Z-0.0522 F210
G01 X129.4934 Y0.0861 Z-0.0627 F210
G01 X129.5001 Y0.1190 Z-0.0731 F210
G01 X129.5090 Y0.1515 Z-0.0836 F210
G01 X129.5199 Y0.1833 Z-0.0940 F210
G01 X129.5329 Y0.2143 Z-0.1045 F210
G01 X129.5479 Y0.2443 Z-0.1149 F210
G01 X129.5649 Y0.2734 Z-0.1254 F210
G01 X129.5837 Y0.3013 Z-0.1358 F210
G01 X129.6043 Y0.3278 Z-0.1463 F210
G01 X129.6266 Y0.3530 Z-0.1567 F210
G01 X129.6505 Y0.3767 Z-0.1672 F210
G01 X129.6759 Y0.3987 Z-0.1776 F210
G01 X129.7026 Y0.4191 Z-0.1881 F210
G01 X129.7307 Y0.4376 Z-0.1985 F210
G01 X129.7599 Y0.4543 Z-0.2090 F210
G01 X129.7901 Y0.4690 Z-0.2194 F210
G01 X129.8212 Y0.4818 Z-0.2299 F210
G01 X129.8531 Y0.4924 Z-0.2403 F210
G01 X129.8857 Y0.5010 Z-0.2508 F210
G01 X129.9187 Y0.5074 Z-0.2612 F210
G01 X129.9520 Y0.5116 Z-0.2717 F210
G01 X129.9856 Y0.5137 Z-0.2821 F210
G01 X130.0192 Y0.5135 Z-0.2926 F210
G01 X130.0528 Y0.5111 Z-0.3030 F210
G01 X130.0861 Y0.5066 Z-0.3135 F210
G01 X130.1190 Y0.4999 Z-0.3239 F210
G01 X130.1515 Y0.4910 Z-0.3344 F210
G01 X130.1833 Y0.4801 Z-0.3448 F210
G01 X130.2143 Y0.4671 Z-0.3553 F210
G01 X130.2443 Y0.4521 Z-0.3657 F210
G01 X130.2734 Y0.4351 Z-0.3762 F210
G01 X130.3013 Y0.4163 Z-0.3866 F210
G01 X130.3278 Y0.3957 Z-0.3971 F210
G01 X130.3530 Y0.3734 Z-0.4075 F210
G01 X130.3767 Y0.3495 Z-0.4180 F210
G01 X130.3987 Y0.3241 Z-0.4284 F210
G01 X130.4191 Y0.2974 Z-0.4389 F210
G01 X130.4376 Y0.2693 Z-0.4493 F210
G01 X130.4543 Y0.2401 Z-0.4598 F210
G01 X130.4690 Y0.2099 Z-0.4702 F210
G01 X130.4818 Y0.1788 Z-0.4807 F210
G01 X130.4924 Y0.1469 Z-0.4911 F210
G01 X130.5010 Y0.1143 Z-0.5016 F210
G01 X130.5074 Y0.0813 Z-0.5120 F210
G01 X130.5116 Y0.0480 Z-0.5225 F210
G01 X130.5137 Y0.0144 Z-0.5329 F210
G01 X130.5135 Y-0.0192 Z-0.5433 F210
G01 X130.5111 Y-0.0528 Z-0.5538 F210
G01 X130.5066 Y-0.0861 Z-0.5642 F210
G01 X130.4999 Y-0.1190 Z-0.5747 F210
G01 X130.4910 Y-0.1515 Z-0.5851 F210
G01 X130.4801 Y-0.1833 Z-0.5956 F210
G01 X130.4671 Y-0.2143 Z-0.6060 F210
G01 X130.4520 Y-0.2443 Z-0.6165 F210
G01 X130.4351 Y-0.2734 Z-0.6269 F210
G01 X130.4163 Y-0.3013 Z-0.6374 F210
G01 X130.3957 Y-0.3278 Z-0.6478 F210
G01 X130.3734 Y-0.3530 Z-0.6583 F210
G01 X130.3495 Y-0.3767 Z-0.6687 F210
G01 X130.3244 Y-0.3985 Z-0.6791 F210
G01 X130.2979 Y-0.4187 Z-0.6894 F210
G01 X130.2701 Y-0.4371 Z-0.6998 F210
G01 X130.2412 Y-0.4537 Z-0.7101 F210
G01 X130.2113 Y-0.4684 Z-0.7205 F210
G01 X130.1805 Y-0.4811 Z-0.7308 F210
G01 X130.1490 Y-0.4918 Z-0.7412 F210
G01 X130.1168 Y-0.5004 Z-0.7516 F210
G01 X130.0841 Y-0.5069 Z-0.7619 F210
G01 X130.0511 Y-0.5113 Z-0.7723 F210
G01 X130.0178 Y-0.5136 Z-0.7826 F210
G01 X129.9845 Z-0.7930 F210
G01 X129.9513 Y-0.5115 Z-0.8033 F210
G01 X129.9182 Y-0.5073 Z-0.8137 F210
G01 X129.8855 Y-0.5010 Z-0.8240 F210
G01 X129.8533 Y-0.4925 Z-0.8344 F210
G01 X129.8217 Y-0.4819 Z-0.8447 F210
G01 X129.7909 Y-0.4694 Z-0.8551 F210
G01 X129.7609 Y-0.4548 Z-0.8654 F210
G01 X129.7319 Y-0.4384 Z-0.8758 F210
G01 X129.7041 Y-0.4201 Z-0.8861 F210
G01 X129.6775 Y-0.4000 Z-0.8965 F210
G01 X129.6522 Y-0.3783 Z-0.9068 F210
G01 X129.6284 Y-0.3550 Z-0.9172 F210
G01 X129.6062 Y-0.3302 Z-0.9275 F210
G01 X129.5857 Y-0.3039 Z-0.9379 F210
G01 X129.5668 Y-0.2765 Z-0.9482 F210
G01 X129.5498 Y-0.2478 Z-0.9586 F210
G01 X129.5347 Y-0.2181 Z-0.9689 F210
G01 X129.5216 Y-0.1875 Z-0.9793 F210
G01 X129.5104 Y-0.1561 Z-0.9896 F210
G01 X129.5013 Y-0.1241 Z-1.0000 F210
G01 X129.5104 Y-0.1561 Z-1.0104 F210
G01 X129.5216 Y-0.1875 Z-1.0207 F210
G01 X129.5347 Y-0.2181 Z-1.0311 F210
G01 X129.5498 Y-0.2478 Z-1.0414 F210
G01 X129.5668 Y-0.2765 Z-1.0518 F210
G01 X129.5857 Y-0.3039 Z-1.0621 F210
G01 X129.6062 Y-0.3302 Z-1.0725 F210
G01 X129.6284 Y-0.3550 Z-1.0828 F210
G01 X129.6522 Y-0.3783 Z-1.0932 F210
G01 X129.6775 Y-0.4000 Z-1.1035 F210
G01 X129.7041 Y-0.4201 Z-1.1139 F210
G01 X129.7319 Y-0.4384 Z-1.1242 F210
G01 X129.7609 Y-0.4548 Z-1.1346 F210
G01 X129.7909 Y-0.4694 Z-1.1449 F210
G01 X129.8217 Y-0.4819 Z-1.1553 F210
G01 X129.8533 Y-0.4925 Z-1.1656 F210
G01 X129.8855 Y-0.5010 Z-1.1760 F210
G01 X129.9182 Y-0.5073 Z-1.1863 F210
G01 X129.9513 Y-0.5115 Z-1.1967 F210
G01 X129.9845 Y-0.5136 Z-1.2070 F210
G01 X130.0178 Z-1.2174 F210
G01 X130.0511 Y-0.5113 Z-1.2277 F210
G01 X130.0841 Y-0.5069 Z-1.2381 F210
G01 X130.1168 Y-0.5004 Z-1.2484 F210
G01 X130.1490 Y-0.4918 Z-1.2588 F210
G01 X130.1805 Y-0.4811 Z-1.2692 F210
G01 X130.2113 Y-0.4684 Z-1.2795 F210
G01 X130.2412 Y-0.4537 Z-1.2899 F210
G01 X130.2701 Y-0.4371 Z-1.3002 F210
G01 X130.2979 Y-0.4187 Z-1.3106 F210
G01 X130.3244 Y-0.3985 Z-1.3209 F210
G01 X130.3495 Y-0.3767 Z-1.3313 F210
G01 X130.3734 Y-0.3530 Z-1.3417 F210
G01 X130.3957 Y-0.3278 Z-1.3522 F210
G01 X130.4163 Y-0.3013 Z-1.3626 F210
G01 X130.4351 Y-0.2734 Z-1.3731 F210
G01 X130.4520 Y-0.2443 Z-1.3835 F210
G01 X130.4671 Y-0.2143 Z-1.3940 F210
G01 X130.4801 Y-0.1833 Z-1.4044 F210
G01 X130.4910 Y-0.1515 Z-1.4149 F210
G01 X130.4999 Y-0.1190 Z-1.4253 F210
G01 X130.5066 Y-0.0861 Z-1.4358 F210
G01 X130.5111 Y-0.0528 Z-1.4462 F210
G01 X130.5135 Y-0.0192 Z-1.4567 F210
G01 X130.5137 Y0.0144 Z-1.4671 F210
G01 X130.5116 Y0.0480 Z-1.4775 F210
G01 X130.5074 Y0.0813 Z-1.4880 F210
G01 X130.5010 Y0.1143 Z-1.4984 F210
G01 X130.4924 Y0.1469 Z-1.5089 F210
G01 X130.4818 Y0.1788 Z-1.5193 F210
G01 X130.4690 Y0.2099 Z-1.5298 F210
G01 X130.4543 Y0.2401 Z-1.5402 F210
G01 X130.4376 Y0.2693 Z-1.5507 F210
G01 X130.4191 Y0.2974 Z-1.5611 F210
G01 X130.3987 Y0.3241 Z-1.5716 F210
G01 X130.3767 Y0.3495 Z-1.5820 F210
G01 X130.3530 Y0.3734 Z-1.5925 F210
G01 X130.3278 Y0.3957 Z-1.6029 F210
G01 X130.3013 Y0.4163 Z-1.6134 F210
G01 X130.2734 Y0.4351 Z-1.6238 F210
G01 X130.2443 Y0.4521 Z-1.6343 F210
G01 X130.2143 Y0.4671 Z-1.6447 F210
G01 X130.1833 Y0.4801 Z-1.6552 F210
G01 X130.1515 Y0.4910 Z-1.6656 F210
G01 X130.1190 Y0.4999 Z-1.6761 F210
G01 X130.0861 Y0.5066 Z-1.6865 F210
G01 X130.0528 Y0.5111 Z-1.6970 F210
G01 X130.0192 Y0.5135 Z-1.7074 F210
G01 X129.9856 Y0.5137 Z-1.7179 F210
G01 X129.9520 Y0.5116 Z-1.7283 F210
G01 X129.9187 Y0.5074 Z-1.7388 F210
G01 X129.8857 Y0.5010 Z-1.7492 F210
G01 X129.8531 Y0.4924 Z-1.7597 F210
G01 X129.8212 Y0.4818 Z-1.7701 F210
G01 X129.7901 Y0.4690 Z-1.7806 F210
G01 X129.7599 Y0.4543 Z-1.7910 F210
G01 X129.7307 Y0.4376 Z-1.8015 F210
G01 X129.7026 Y0.4191 Z-1.8119 F210
G01 X129.6759 Y0.3987 Z-1.8224 F210
G01 X129.6505 Y0.3767 Z-1.8328 F210
G01 X129.6266 Y0.3530 Z-1.8433 F210
G01 X129.6043 Y0.3278 Z-1.8537 F210
G01 X129.5837 Y0.3013 Z-1.8642 F210
G01 X129.5649 Y0.2734 Z-1.8746 F210
G01 X129.5479 Y0.2443 Z-1.8851 F210
G01 X129.5329 Y0.2143 Z-1.8955 F210
G01 X129.5199 Y0.1833 Z-1.9060 F210
G01 X129.5090 Y0.1515 Z-1.9164 F210
G01 X129.5001 Y0.1190 Z-1.9269 F210
G01 X129.4934 Y0.0861 Z-1.9373 F210
G01 X129.4888 Y0.0528 Z-1.9478 F210
G01 X129.4865 Y0.0192 Z-1.9582 F210
G01 X129.4863 Y-0.0144 Z-1.9687 F210
G01 X129.4884 Y-0.0480 Z-1.9791 F210
G01 X129.4926 Y-0.0813 Z-1.9896 F210
G01 X129.4990 Y-0.1143 Z-2.0000 F210
G01 X129.4926 Y-0.0813 F480
G01 X129.4884 Y-0.0480 F480
G01 X129.4863 Y-0.0144 F480
G01 X129.4865 Y0.0192 F480
G01 X129.4888 Y0.0528 F480
G01 X129.4934 Y0.0861 F480
G01 X129.5001 Y0.1190 F480
G01 X129.5090 Y0.1515 F480
G01 X129.5199 Y0.1833 F480
G01 X129.5329 Y0.2143 F480
G01 X129.5479 Y0.2443 F480
G01 X129.5649 Y0.2734 F480
G01 X129.5837 Y0.3013 F480
G01 X129.6043 Y0.3278 F480
G01 X129.6266 Y0.3530 F480
G01 X129.6505 Y0.3767 F480
G01 X129.6759 Y0.3987 F480
G01 X129.7026 Y0.4191 F480
G01 X129.7307 Y0.4376 F480
G01 X129.7599 Y0.4543 F480
G01 X129.7901 Y0.4690 F480
G01 X129.8212 Y0.4818 F480
G01 X129.8531 Y0.4924 F480
G01 X129.8857 Y0.5010 F480
G01 X129.9187 Y0.5074 F480
G01 X129.9520 Y0.5116 F480
G01 X129.9856 Y0.5137 F480
G01 X130.0192 Y0.5135 F480
G01 X130.0528 Y0.5111 F480
G01 X130.0861 Y0.5066 F480
G01 X130.1190 Y0.4999 F480
G01 X130.1515 Y0.4910 F480
G01 X130.1833 Y0.4801 F480
G01 X130.2143 Y0.4671 F480
G01 X130.2443 Y0.4521 F480
G01 X130.2734 Y0.4351 F480
G01 X130.3013 Y0.4163 F480
G01 X130.3278 Y0.3957 F480
G01 X130.3530 Y0.3734 F480
G01 X130.3767 Y0.3495 F480
G01 X130.3987 Y0.3241 F480
G01 X130.4191 Y0.2974 F480
G01 X130.4376 Y0.2693 F480
G01 X130.4543 Y0.2401 F480
G01 X130.4690 Y0.2099 F480
G01 X130.4818 Y0.1788 F480
G01 X130.4924 Y0.1469 F480
G01 X130.5010 Y0.1143 F480
G01 X130.5074 Y0.0813 F480
G01 X130.5116 Y0.0480 F480
G01 X130.5137 Y0.0144 F480
G01 X130.5135 Y-0.0192 F480
G01 X130.5111 Y-0.0528 F480
G01 X130.5066 Y-0.0861 F480
G01 X130.4999 Y-0.1190 F480
G01 X130.4910 Y-0.1515 F480
G01 X130.4801 Y-0.1833 F480
G01 X130.4671 Y-0.2143 F480
G01 X130.4520 Y-0.2443 F480
G01 X130.4351 Y-0.2734 F480
G01 X130.4163 Y-0.3013 F480
G01 X130.3957 Y-0.3278 F480
G01 X130.3734 Y-0.3530 F480
G01 X130.3495 Y-0.3767 F480
G01 X130.3241 Y-0.3987 F480
G01 X130.2974 Y-0.4191 F480
G01 X130.2693 Y-0.4376 F480
G01 X130.2401 Y-0.4543 F480
G01 X130.2099 Y-0.4690 F480
G01 X130.1788 Y-0.4818 F480
G01 X130.1469 Y-0.4924 F480
G01 X130.1143 Y-0.5010 F480
G01 X130.0813 Y-0.5074 F480
G01 X130.0480 Y-0.5116 F480
G01 X130.0144 Y-0.5137 F480
G01 X129.9808 Y-0.5135 F480
G01 X129.9472 Y-0.5111 F480
G01 X129.9139 Y-0.5066 F480
G01 X129.8810 Y-0.4999 F480
G01 X129.8485 Y-0.4910 F480
G01 X129.8167 Y-0.4801 F480
G01 X129.7857 Y-0.4671 F480
G01 X129.7556 Y-0.4521 F480
G01 X129.7266 Y-0.4351 F480
G01 X129.6987 Y-0.4163 F480
G01 X129.6722 Y-0.3957 F480
G01 X129.6470 Y-0.3734 F480
G01 X129.6233 Y-0.3495 F480
G01 X129.6013 Y-0.3241 F480
G01 X129.5809 Y-0.2974 F480
G01 X129.5624 Y-0.2693 F480
G01 X129.5457 Y-0.2401 F480
G01 X129.5309 Y-0.2099 F480
G01 X129.5182 Y-0.1788 F480
G01 X129.5076 Y-0.1469 F480
G01 X129.4990 Y-0.1143 F480
G01 X129.4926 Y-0.0813 Z-2.0104 F210
G01 X129.4884 Y-0.0480 Z-2.0209 F210
G01 X129.4863 Y-0.0144 Z-2.0313 F210
G01 X129.4865 Y0.0192 Z-2.0418 F210
G01 X129.4888 Y0.0528 Z-2.0522 F210
G01 X129.4934 Y0.0861 Z-2.0627 F210
G01 X129.5001 Y0.1190 Z-2.0731 F210
G01 X129.5090 Y0.1515 Z-2.0836 F210
G01 X129.5199 Y0.1833 Z-2.0940 F210
G01 X129.5329 Y0.2143 Z-2.1045 F210
G01 X129.5479 Y0.2443 Z-2.1149 F210
G01 X129.5649 Y0.2734 Z-2.1254 F210
G01 X129.5837 Y0.3013 Z-2.1358 F210
G01 X129.6043 Y0.3278 Z-2.1463 F210
G01 X129.6266 Y0.3530 Z-2.1567 F210
G01 X129.6505 Y0.3767 Z-2.1672 F210
G01 X129.6759 Y0.3987 Z-2.1776 F210
G01 X129.7026 Y0.4191 Z-2.1881 F210
G01 X129.7307 Y0.4376 Z-2.1985 F210
G01 X129.7599 Y0.4543 Z-2.2090 F210
G01 X129.7901 Y0.4690 Z-2.2194 F210
G01 X129.8212 Y0.4818 Z-2.2299 F210
G01 X129.8531 Y0.4924 Z-2.2403 F210
G01 X129.8857 Y0.5010 Z-2.2508 F210
G01 X129.9187 Y0.5074 Z-2.2612 F210
G01 X129.9520 Y0.5116 Z-2.2717 F210
G01 X129.9856 Y0.5137 Z-2.2821 F210
G01 X130.0192 Y0.5135 Z-2.2926 F210
G01 X130.0528 Y0.5111 Z-2.3030 F210
G01 X130.0861 Y0.5066 Z-2.3135 F210
G01 X130.1190 Y0.4999 Z-2.3239 F210
G01 X130.1515 Y0.4910 Z-2.3344 F210
G01 X130.1833 Y0.4801 Z-2.3448 F210
G01 X130.2143 Y0.4671 Z-2.3553 F210
G01 X130.2443 Y0.4521 Z-2.3657 F210
G01 X130.2734 Y0.4351 Z-2.3762 F210
G01 X130.3013 Y0.4163 Z-2.3866 F210
G01 X130.3278 Y0.3957 Z-2.3971 F210
G01 X130.3530 Y0.3734 Z-2.4075 F210
G01 X130.3767 Y0.3495 Z-2.4180 F210
G01 X130.3987 Y0.3241 Z-2.4284 F210
G01 X130.4191 Y0.2974 Z-2.4389 F210
G01 X130.4376 Y0.2693 Z-2.4493 F210
G01 X130.4543 Y0.2401 Z-2.4598 F210
G01 X130.4690 Y0.2099 Z-2.4702 F210
G01 X130.4818 Y0.1788 Z-2.4807 F210
G01 X130.4924 Y0.1469 Z-2.4911 F210
G01 X130.5010 Y0.1143 Z-2.5016 F210
G01 X130.5074 Y0.0813 Z-2.5120 F210
G01 X130.5116 Y0.0480 Z-2.5225 F210
G01 X130.5137 Y0.0144 Z-2.5329 F210
G01 X130.5135 Y-0.0192 Z-2.5433 F210
G01 X130.5111 Y-0.0528 Z-2.5538 F210
G01 X130.5066 Y-0.0861 Z-2.5642 F210
G01 X130.4999 Y-0.1190 Z-2.5747 F210
G01 X130.4910 Y-0.1515 Z-2.5851 F210
G01 X130.4801 Y-0.1833 Z-2.5956 F210
G01 X130.4671 Y-0.2143 Z-2.6060 F210
G01 X130.4520 Y-0.2443 Z-2.6165 F210
G01 X130.4351 Y-0.2734 Z-2.6269 F210
G01 X130.4163 Y-0.3013 Z-2.6374 F210
G01 X130.3957 Y-0.3278 Z-2.6478 F210
G01 X130.3734 Y-0.3530 Z-2.6583 F210
G01 X130.3495 Y-0.3767 Z-2.6687 F210
G01 X130.3244 Y-0.3985 Z-2.6791 F210
G01 X130.2979 Y-0.4187 Z-2.6894 F210
G01 X130.2701 Y-0.4371 Z-2.6998 F210
G01 X130.2412 Y-0.4537 Z-2.7101 F210
G01 X130.2113 Y-0.4684 Z-2.7205 F210
G01 X130.1805 Y-0.4811 Z-2.7308 F210
G01 X130.1490 Y-0.4918 Z-2.7412 F210
G01 X130.1168 Y-0.5004 Z-2.7516 F210
G01 X130.0841 Y-0.5069 Z-2.7619 F210
G01 X130.0511 Y-0.5113 Z-2.7723 F210
G01 X130.0178 Y-0.5136 Z-2.7826 F210
G01 X129.9845 Z-2.7930 F210
G01 X129.9513 Y-0.5115 Z-2.8033 F210
G01 X129.9182 Y-0.5073 Z-2.8137 F210
G01 X129.8855 Y-0.5010 Z-2.8240 F210
G01 X129.8533 Y-0.4925 Z-2.8344 F210
G01 X129.8217 Y-0.4819 Z-2.8447 F210
G01 X129.7909 Y-0.4694 Z-2.8551 F210
G01 X129.7609 Y-0.4548 Z-2.8654 F210
G01 X129.7319 Y-0.4384 Z-2.8758 F210
G01 X129.7041 Y-0.4201 Z-2.8861 F210
G01 X129.6775 Y-0.4000 Z-2.8965 F210
G01 X129.6522 Y-0.3783 Z-2.9068 F210
G01 X129.6284 Y-0.3550 Z-2.9172 F210
G01 X129.6062 Y-0.3302 Z-2.9275 F210
G01 X129.5857 Y-0.3039 Z-2.9379 F210
G01 X129.5668 Y-0.2765 Z-2.9482 F210
G01 X129.5498 Y-0.2478 Z-2.9586 F210
G01 X129.5347 Y-0.2181 Z-2.9689 F210
G01 X129.5216 Y-0.1875 Z-2.9793 F210
G01 X129.5104 Y-0.1561 Z-2.9896 F210
G01 X129.5013 Y-0.1241 Z-3.0000 F210
G01 X129.5104 Y-0.1561 Z-3.0104 F210
G01 X129.5216 Y-0.1875 Z-3.0207 F210
G01 X129.5347 Y-0.2181 Z-3.0311 F210
G01 X129.5498 Y-0.2478 Z-3.0414 F210
G01 X129.5668 Y-0.2765 Z-3.0518 F210
G01 X129.5857 Y-0.3039 Z-3.0621 F210
G01 X129.6062 Y-0.3302 Z-3.0725 F210
G01 X129.6284 Y-0.3550 Z-3.0828 F210
G01 X129.6522 Y-0.3783 Z-3.0932 F210
G01 X129.6775 Y-0.4000 Z-3.1035 F210
G01 X129.7041 Y-0.4201 Z-3.1139 F210
G01 X129.7319 Y-0.4384 Z-3.1242 F210
G01 X129.7609 Y-0.4548 Z-3.1346 F210
G01 X129.7909 Y-0.4694 Z-3.1449 F210
G01 X129.8217 Y-0.4819 Z-3.1553 F210
G01 X129.8533 Y-0.4925 Z-3.1656 F210
G01 X129.8855 Y-0.5010 Z-3.1760 F210
G01 X129.9182 Y-0.5073 Z-3.1863 F210
G01 X129.9513 Y-0.5115 Z-3.1967 F210
G01 X129.9845 Y-0.5136 Z-3.2070 F210
G01 X130.0178 Z-3.2174 F210
G01 X130.0511 Y-0.5113 Z-3.2277 F210
G01 X130.0841 Y-0.5069 Z-3.2381 F210
G01 X130.1168 Y-0.5004 Z-3.2484 F210
G01 X130.1490 Y-0.4918 Z-3.2588 F210
G01 X130.1805 Y-0.4811 Z-3.2692 F210
G01 X130.2113 Y-0.4684 Z-3.2795 F210
G01 X130.2412 Y-0.4537 Z-3.2899 F210
G01 X130.2701 Y-0.4371 Z-3.3002 F210
G01 X130.2979 Y-0.4187 Z-3.3106 F210
G01 X130.3244 Y-0.3985 Z-3.3209 F210
G01 X130.3495 Y-0.3767 Z-3.3313 F210
G01 X130.3734 Y-0.3530 Z-3.3417 F210
G01 X130.3957 Y-0.3278 Z-3.3522 F210
G01 X130.4163 Y-0.3013 Z-3.3626 F210
G01 X130.4351 Y-0.2734 Z-3.3731 F210
G01 X130.4520 Y-0.2443 Z-3.3835 F210
G01 X130.4671 Y-0.2143 Z-3.3940 F210
G01 X130.4801 Y-0.1833 Z-3.4044 F210
G01 X130.4910 Y-0.1515 Z-3.4149 F210
G01 X130.4999 Y-0.1190 Z-3.4253 F210
G01 X130.5066 Y-0.0861 Z-3.4358 F210
G01 X130.5111 Y-0.0528 Z-3.4462 F210
G01 X130.5135 Y-0.0192 Z-3.4567 F210
G01 X130.5137 Y0.0144 Z-3.4671 F210
G01 X130.5116 Y0.0480 Z-3.4775 F210
G01 X130.5074 Y0.0813 Z-3.4880 F210
G01 X130.5010 Y0.1143 Z-3.4984 F210
G01 X130.4924 Y0.1469 Z-3.5089 F210
G01 X130.4818 Y0.1788 Z-3.5193 F210
G01 X130.4690 Y0.2099 Z-3.5298 F210
G01 X130.4543 Y0.2401 Z-3.5402 F210
G01 X130.4376 Y0.2693 Z-3.5507 F210
G01 X130.4191 Y0.2974 Z-3.5611 F210
G01 X130.3987 Y0.3241 Z-3.5716 F210
G01 X130.3767 Y0.3495 Z-3.5820 F210
G01 X130.3530 Y0.3734 Z-3.5925 F210
G01 X130.3278 Y0.3957 Z-3.6029 F210
G01 X130.3013 Y0.4163 Z-3.6134 F210
G01 X130.2734 Y0.4351 Z-3.6238 F210
G01 X130.2443 Y0.4521 Z-3.6343 F210
G01 X130.2143 Y0.4671 Z-3.6447 F210
G01 X130.1833 Y0.4801 Z-3.6552 F210
G01 X130.1515 Y0.4910 Z-3.6656 F210
G01 X130.1190 Y0.4999 Z-3.6761 F210
G01 X130.0861 Y0.5066 Z-3.6865 F210
G01 X130.0528 Y0.5111 Z-3.6970 F210
G01 X130.0192 Y0.5135 Z-3.7074 F210
G01 X129.9856 Y0.5137 Z-3.7179 F210
G01 X129.9520 Y0.5116 Z-3.7283 F210
G01 X129.9187 Y0.5074 Z-3.7388 F210
G01 X129.8857 Y0.5010 Z-3.7492 F210
G01 X129.8531 Y0.4924 Z-3.7597 F210
G01 X129.8212 Y0.4818 Z-3.7701 F210
G01 X129.7901 Y0.4690 Z-3.7806 F210
G01 X129.7599 Y0.4543 Z-3.7910 F210
G01 X129.7307 Y0.4376 Z-3.8015 F210
G01 X129.7026 Y0.4191 Z-3.8119 F210
G01 X129.6759 Y0.3987 Z-3.8224 F210
G01 X129.6505 Y0.3767 Z-3.8328 F210
G01 X129.6266 Y0.3530 Z-3.8433 F210
G01 X129.6043 Y0.3278 Z-3.8537 F210
G01 X129.5837 Y0.3013 Z-3.8642 F210
G01 X129.5649 Y0.2734 Z-3.8746 F210
G01 X129.5479 Y0.2443 Z-3.8851 F210
G01 X129.5329 Y0.2143 Z-3.8955 F210
G01 X129.5199 Y0.1833 Z-3.9060 F210
G01 X129.5090 Y0.1515 Z-3.9164 F210
G01 X129.5001 Y0.1190 Z-3.9269 F210
G01 X129.4934 Y0.0861 Z-3.9373 F210
G01 X129.4888 Y0.0528 Z-3.9478 F210
G01 X129.4865 Y0.0192 Z-3.9582 F210
G01 X129.4863 Y-0.0144 Z-3.9687 F210
G01 X129.4884 Y-0.0480 Z-3.9791 F210
G01 X129.4926 Y-0.0813 Z-3.9896 F210
G01 X129.4990 Y-0.1143 Z-4.0000 F210
G01 X129.4926 Y-0.0813 F480
G01 X129.4884 Y-0.0480 F480
G01 X129.4863 Y-0.0144 F480
G01 X129.4865 Y0.0192 F480
G01 X129.4888 Y0.0528 F480
G01 X129.4934 Y0.0861 F480
G01 X129.5001 Y0.1190 F480
G01 X129.5090 Y0.1515 F480
G01 X129.5199 Y0.1833 F480
G01 X129.5329 Y0.2143 F480
G01 X129.5479 Y0.2443 F480
G01 X129.5649 Y0.2734 F480
G01 X129.5837 Y0.3013 F480
G01 X129.6043 Y0.3278 F480
G01 X129.6266 Y0.3530 F480
G01 X129.6505 Y0.3767 F480
G01 X129.6759 Y0.3987 F480
G01 X129.7026 Y0.4191 F480
G01 X129.7307 Y0.4376 F480
G01 X129.7599 Y0.4543 F480
G01 X129.7901 Y0.4690 F480
G01 X129.8212 Y0.4818 F480
G01 X129.8531 Y0.4924 F480
G01 X129.8857 Y0.5010 F480
G01 X129.9187 Y0.5074 F480
G01 X129.9520 Y0.5116 F480
G01 X129.9856 Y0.5137 F480
G01 X130.0192 Y0.5135 F480
G01 X130.0528 Y0.5111 F480
G01 X130.0861 Y0.5066 F480
G01 X130.1190 Y0.4999 F480
G01 X130.1515 Y0.4910 F480
G01 X130.1833 Y0.4801 F480
G01 X130.2143 Y0.4671 F480
G01 X130.2443 Y0.4521 F480
G01 X130.2734 Y0.4351 F480
G01 X130.3013 Y0.4163 F480
G01 X130.3278 Y0.3957 F480
G01 X130.3530 Y0.3734 F480
G01 X130.3767 Y0.3495 F480
G01 X130.3987 Y0.3241 F480
G01 X130.4191 Y0.2974 F480
G01 X130.4376 Y0.2693 F480
G01 X130.4543 Y0.2401 F480
G01 X130.4690 Y0.2099 F480
G01 X130.4818 Y0.1788 F480
G01 X130.4924 Y0.1469 F480
G01 X130.5010 Y0.1143 F480
G01 X130.5074 Y0.0813 F480
G01 X130.5116 Y0.0480 F480
G01 X130.5137 Y0.0144 F480
G01 X130.5135 Y-0.0192 F480
G01 X130.5111 Y-0.0528 F480
G01 X130.5066 Y-0.0861 F480
G01 X130.4999 Y-0.1190 F480
G01 X130.4910 Y-0.1515 F480
G01 X130.4801 Y-0.1833 F480
G01 X130.4671 Y-0.2143 F480
G01 X130.4520 Y-0.2443 F480
G01 X130.4351 Y-0.2734 F480
G01 X130.4163 Y-0.3013 F480
G01 X130.3957 Y-0.3278 F480
G01 X130.3734 Y-0.3530 F480
G01 X130.3495 Y-0.3767 F480
G01 X130.3241 Y-0.3987 F480
G01 X130.2974 Y-0.4191 F480
G01 X130.2693 Y-0.4376 F480
G01 X130.2401 Y-0.4543 F480
G01 X130.2099 Y-0.4690 F480
G01 X130.1788 Y-0.4818 F480
G01 X130.1469 Y-0.4924 F480
G01 X130.1143 Y-0.5010 F480
G01 X130.0813 Y-0.5074 F480
G01 X130.0480 Y-0.5116 F480
G01 X130.0144 Y-0.5137 F480
G01 X129.9808 Y-0.5135 F480
G01 X129.9472 Y-0.5111 F480
G01 X129.9139 Y-0.5066 F480
G01 X129.8810 Y-0.4999 F480
G01 X129.8485 Y-0.4910 F480
G01 X129.8167 Y-0.4801 F480
G01 X129.7857 Y-0.4671 F480
G01 X129.7556 Y-0.4521 F480
G01 X129.7266 Y-0.4351 F480
G01 X129.6987 Y-0.4163 F480
G01 X129.6722 Y-0.3957 F480
G01 X129.6470 Y-0.3734 F480
G01 X129.6233 Y-0.3495 F480
G01 X129.6013 Y-0.3241 F480
G01 X129.5809 Y-0.2974 F480
G01 X129.5624 Y-0.2693 F480
G01 X129.5457 Y-0.2401 F480
G01 X129.5309 Y-0.2099 F480
G01 X129.5182 Y-0.1788 F480
G01 X129.5076 Y-0.1469 F480
G01 X129.4990 Y-0.1143 F480
G01 X129.4926 Y-0.0813 Z-4.0052 F210
G01 X129.4884 Y-0.0480 Z-4.0104 F210
G01 X129.4863 Y-0.0144 Z-4.0157 F210
G01 X129.4865 Y0.0192 Z-4.0209 F210
G01 X129.4888 Y0.0528 Z-4.0261 F210
G01 X129.4934 Y0.0861 Z-4.0313 F210
G01 X129.5001 Y0.1190 Z-4.0366 F210
G01 X129.5090 Y0.1515 Z-4.0418 F210
G01 X129.5199 Y0.1833 Z-4.0470 F210
G01 X129.5329 Y0.2143 Z-4.0522 F210
G01 X129.5479 Y0.2443 Z-4.0575 F210
G01 X129.5649 Y0.2734 Z-4.0627 F210
G01 X129.5837 Y0.3013 Z-4.0679 F210
G01 X129.6043 Y0.3278 Z-4.0731 F210
G01 X129.6266 Y0.3530 Z-4.0784 F210
G01 X129.6505 Y0.3767 Z-4.0836 F210
G01 X129.6759 Y0.3987 Z-4.0888 F210
G01 X129.7026 Y0.4191 Z-4.0940 F210
G01 X129.7307 Y0.4376 Z-4.0993 F210
G01 X129.7599 Y0.4543 Z-4.1045 F210
G01 X129.7901 Y0.4690 Z-4.1097 F210
G01 X129.8212 Y0.4818 Z-4.1149 F210
G01 X129.8531 Y0.4924 Z-4.1202 F210
G01 X129.8857 Y0.5010 Z-4.1254 F210
G01 X129.9187 Y0.5074 Z-4.1306 F210
G01 X129.9520 Y0.5116 Z-4.1358 F210
G01 X129.9856 Y0.5137 Z-4.1411 F210
G01 X130.0192 Y0.5135 Z-4.1463 F210
G01 X130.0528 Y0.5111 Z-4.1515 F210
G01 X130.0861 Y0.5066 Z-4.1567 F210
G01 X130.1190 Y0.4999 Z-4.1620 F210
G01 X130.1515 Y0.4910 Z-4.1672 F210
G01 X130.1833 Y0.4801 Z-4.1724 F210
G01 X130.2143 Y0.4671 Z-4.1776 F210
G01 X130.2443 Y0.4521 Z-4.1829 F210
G01 X130.2734 Y0.4351 Z-4.1881 F210
G01 X130.3013 Y0.4163 Z-4.1933 F210
G01 X130.3278 Y0.3957 Z-4.1985 F210
G01 X130.3530 Y0.3734 Z-4.2038 F210
G01 X130.3767 Y0.3495 Z-4.2090 F210
G01 X130.3987 Y0.3241 Z-4.2142 F210
G01 X130.4191 Y0.2974 Z-4.2194 F210
G01 X130.4376 Y0.2693 Z-4.2247 F210
G01 X130.4543 Y0.2401 Z-4.2299 F210
G01 X130.4690 Y0.2099 Z-4.2351 F210
G01 X130.4818 Y0.1788 Z-4.2403 F210
G01 X130.4924 Y0.1469 Z-4.2456 F210
G01 X130.5010 Y0.1143 Z-4.2508 F210
G01 X130.5074 Y0.0813 Z-4.2560 F210
G01 X130.5116 Y0.0480 Z-4.2612 F210
G01 X130.5137 Y0.0144 Z-4.2665 F210
G01 X130.5135 Y-0.0192 Z-4.2717 F210
G01 X130.5111 Y-0.0528 Z-4.2769 F210
G01 X130.5066 Y-0.0861 Z-4.2821 F210
G01 X130.4999 Y-0.1190 Z-4.2873 F210
G01 X130.4910 Y-0.1515 Z-4.2926 F210
G01 X130.4801 Y-0.1833 Z-4.2978 F210
G01 X130.4671 Y-0.2143 Z-4.3030 F210
G01 X130.4520 Y-0.2443 Z-4.3082 F210
G01 X130.4351 Y-0.2734 Z-4.3135 F210
G01 X130.4163 Y-0.3013 Z-4.3187 F210
G01 X130.3957 Y-0.3278 Z-4.3239 F210
G01 X130.3734 Y-0.3530 Z-4.3291 F210
G01 X130.3495 Y-0.3767 Z-4.3344 F210
G01 X130.3244 Y-0.3985 Z-4.3395 F210
G01 X130.2979 Y-0.4187 Z-4.3447 F210
G01 X130.2701 Y-0.4371 Z-4.3499 F210
G01 X130.2412 Y-0.4537 Z-4.3551 F210
G01 X130.2113 Y-0.4684 Z-4.3602 F210
G01 X130.1805 Y-0.4811 Z-4.3654 F210
G01 X130.1490 Y-0.4918 Z-4.3706 F210
G01 X130.1168 Y-0.5004 Z-4.3758 F210
G01 X130.0841 Y-0.5069 Z-4.3810 F210
G01 X130.0511 Y-0.5113 Z-4.3861 F210
G01 X130.0178 Y-0.5136 Z-4.3913 F210
G01 X129.9845 Z-4.3965 F210
G01 X129.9513 Y-0.5115 Z-4.4017 F210
G01 X129.9182 Y-0.5073 Z-4.4068 F210
G01 X129.8855 Y-0.5010 Z-4.4120 F210
G01 X129.8533 Y-0.4925 Z-4.4172 F210
G01 X129.8217 Y-0.4819 Z-4.4224 F210
G01 X129.7909 Y-0.4694 Z-4.4275 F210
G01 X129.7609 Y-0.4548 Z-4.4327 F210
G01 X129.7319 Y-0.4384 Z-4.4379 F210
G01 X129.7041 Y-0.4201 Z-4.4431 F210
G01 X129.6775 Y-0.4000 Z-4.4482 F210
G01 X129.6522 Y-0.3783 Z-4.4534 F210
G01 X129.6284 Y-0.3550 Z-4.4586 F210
G01 X129.6062 Y-0.3302 Z-4.4638 F210
G01 X129.5857 Y-0.3039 Z-4.4689 F210
G01 X129.5668 Y-0.2765 Z-4.4741 F210
G01 X129.5498 Y-0.2478 Z-4.4793 F210
G01 X129.5347 Y-0.2181 Z-4.4845 F210
G01 X129.5216 Y-0.1875 Z-4.4896 F210
G01 X129.5104 Y-0.1561 Z-4.4948 F210
G01 X129.5013 Y-0.1241 Z-4.5000 F210
G01 X129.5104 Y-0.1561 Z-4.5052 F210
G01 X129.5216 Y-0.1875 Z-4.5104 F210
G01 X129.5347 Y-0.2181 Z-4.5155 F210
G01 X129.5498 Y-0.2478 Z-4.5207 F210
G01 X129.5668 Y-0.2765 Z-4.5259 F210
G01 X129.5857 Y-0.3039 Z-4.5311 F210
G01 X129.6062 Y-0.3302 Z-4.5362 F210
G01 X129.6284 Y-0.3550 Z-4.5414 F210
G01 X129.6522 Y-0.3783 Z-4.5466 F210
G01 X129.6775 Y-0.4000 Z-4.5518 F210
G01 X129.7041 Y-0.4201 Z-4.5569 F210
G01 X129.7319 Y-0.4384 Z-4.5621 F210
G01 X129.7609 Y-0.4548 Z-4.5673 F210
G01 X129.7909 Y-0.4694 Z-4.5725 F210
G01 X129.8217 Y-0.4819 Z-4.5776 F210
G01 X129.8533 Y-0.4925 Z-4.5828 F210
G01 X129.8855 Y-0.5010 Z-4.5880 F210
G01 X129.9182 Y-0.5073 Z-4.5932 F210
G01 X129.9513 Y-0.5115 Z-4.5983 F210
G01 X129.9845 Y-0.5136 Z-4.6035 F210
G01 X130.0178 Z-4.6087 F210
G01 X130.0511 Y-0.5113 Z-4.6139 F210
G01 X130.0841 Y-0.5069 Z-4.6190 F210
G01 X130.1168 Y-0.5004 Z-4.6242 F210
G01 X130.1490 Y-0.4918 Z-4.6294 F210
G01 X130.1805 Y-0.4811 Z-4.6346 F210
G01 X130.2113 Y-0.4684 Z-4.6398 F210
G01 X130.2412 Y-0.4537 Z-4.6449 F210
G01 X130.2701 Y-0.4371 Z-4.6501 F210
G01 X130.2979 Y-0.4187 Z-4.6553 F210
G01 X130.3244 Y-0.3985 Z-4.6605 F210
G01 X130.3495 Y-0.3767 Z-4.6656 F210
G01 X130.3734 Y-0.3530 Z-4.6709 F210
G01 X130.3957 Y-0.3278 Z-4.6761 F210
G01 X130.4163 Y-0.3013 Z-4.6813 F210
G01 X130.4351 Y-0.2734 Z-4.6865 F210
G01 X130.4520 Y-0.2443 Z-4.6918 F210
G01 X130.4671 Y-0.2143 Z-4.6970 F210
G01 X130.4801 Y-0.1833 Z-4.7022 F210
G01 X130.4910 Y-0.1515 Z-4.7074 F210
G01 X130.4999 Y-0.1190 Z-4.7127 F210
G01 X130.5066 Y-0.0861 Z-4.7179 F210
G01 X130.5111 Y-0.0528 Z-4.7231 F210
G01 X130.5135 Y-0.0192 Z-4.7283 F210
G01 X130.5137 Y0.0144 Z-4.7335 F210
G01 X130.5116 Y0.0480 Z-4.7388 F210
G01 X130.5074 Y0.0813 Z-4.7440 F210
G01 X130.5010 Y0.1143 Z-4.7492 F210
G01 X130.4924 Y0.1469 Z-4.7544 F210
G01 X130.4818 Y0.1788 Z-4.7597 F210
G01 X130.4690 Y0.2099 Z-4.7649 F210
G01 X130.4543 Y0.2401 Z-4.7701 F210
G01 X130.4376 Y0.2693 Z-4.7753 F210
G01 X130.4191 Y0.2974 Z-4.7806 F210
G01 X130.3987 Y0.3241 Z-4.7858 F210
G01 X130.3767 Y0.3495 Z-4.7910 F210
G01 X130.3530 Y0.3734 Z-4.7962 F210
G01 X130.3278 Y0.3957 Z-4.8015 F210
G01 X130.3013 Y0.4163 Z-4.8067 F210
G01 X130.2734 Y0.4351 Z-4.8119 F210
G01 X130.2443 Y0.4521 Z-4.8171 F210
G01 X130.2143 Y0.4671 Z-4.8224 F210
G01 X130.1833 Y0.4801 Z-4.8276 F210
G01 X130.1515 Y0.4910 Z-4.8328 F210
G01 X130.1190 Y0.4999 Z-4.8380 F210
G01 X130.0861 Y0.5066 Z-4.8433 F210
G01 X130.0528 Y0.5111 Z-4.8485 F210
G01 X130.0192 Y0.5135 Z-4.8537 F210
G01 X129.9856 Y0.5137 Z-4.8589 F210
G01 X129.9520 Y0.5116 Z-4.8642 F210
G01 X129.9187 Y0.5074 Z-4.8694 F210
G01 X129.8857 Y0.5010 Z-4.8746 F210
G01 X129.8531 Y0.4924 Z-4.8798 F210
G01 X129.8212 Y0.4818 Z-4.8851 F210
G01 X129.7901 Y0.4690 Z-4.8903 F210
G01 X129.7599 Y0.4543 Z-4.8955 F210
G01 X129.7307 Y0.4376 Z-4.9007 F210
G01 X129.7026 Y0.4191 Z-4.9060 F210
G01 X129.6759 Y0.3987 Z-4.9112 F210
G01 X129.6505 Y0.3767 Z-4.9164 F210
G01 X129.6266 Y0.3530 Z-4.9216 F210
G01 X129.6043 Y0.3278 Z-4.9269 F210
G01 X129.5837 Y0.3013 Z-4.9321 F210
G01 X129.5649 Y0.2734 Z-4.9373 F210
G01 X129.5479 Y0.2443 Z-4.9425 F210
G01 X129.5329 Y0.2143 Z-4.9478 F210
G01 X129.5199 Y0.1833 Z-4.9530 F210
G01 X129.5090 Y0.1515 Z-4.9582 F210
G01 X129.5001 Y0.1190 Z-4.9634 F210
G01 X129.4934 Y0.0861 Z-4.9687 F210
G01 X129.4888 Y0.0528 Z-4.9739 F210
G01 X129.4865 Y0.0192 Z-4.9791 F210
G01 X129.4863 Y-0.0144 Z-4.9843 F210
G01 X129.4884 Y-0.0480 Z-4.9896 F210
G01 X129.4926 Y-0.0813 Z-4.9948 F210
G01 X129.4990 Y-0.1143 Z-5.0000 F210
G01 X129.4926 Y-0.0813 F480
G01 X129.4884 Y-0.0480 F480
G01 X129.4863 Y-0.0144 F480
G01 X129.4865 Y0.0192 F480
G01 X129.4888 Y0.0528 F480
G01 X129.4934 Y0.0861 F480
G01 X129.5001 Y0.1190 F480
G01 X129.5090 Y0.1515 F480
G01 X129.5199 Y0.1833 F480
G01 X129.5329 Y0.2143 F480
G01 X129.5479 Y0.2443 F480
G01 X129.5649 Y0.2734 F480
G01 X129.5837 Y0.3013 F480
G01 X129.6043 Y0.3278 F480
G01 X129.6266 Y0.3530 F480
G01 X129.6505 Y0.3767 F480
G01 X129.6759 Y0.3987 F480
G01 X129.7026 Y0.4191 F480
G01 X129.7307 Y0.4376 F480
G01 X129.7599 Y0.4543 F480
G01 X129.7901 Y0.4690 F480
G01 X129.8212 Y0.4818 F480
G01 X129.8531 Y0.4924 F480
G01 X129.8857 Y0.5010 F480
G01 X129.9187 Y0.5074 F480
G01 X129.9520 Y0.5116 F480
G01 X129.9856 Y0.5137 F480
G01 X130.0192 Y0.5135 F480
G01 X130.0528 Y0.5111 F480
G01 X130.0861 Y0.5066 F480
G01 X130.1190 Y0.4999 F480
G01 X130.1515 Y0.4910 F480
G01 X130.1833 Y0.4801 F480
G01 X130.2143 Y0.4671 F480
G01 X130.2443 Y0.4521 F480
G01 X130.2734 Y0.4351 F480
G01 X130.3013 Y0.4163 F480
G01 X130.3278 Y0.3957 F480
G01 X130.3530 Y0.3734 F480
G01 X130.3767 Y0.3495 F480
G01 X130.3987 Y0.3241 F480
G01 X130.4191 Y0.2974 F480
G01 X130.4376 Y0.2693 F480
G01 X130.4543 Y0.2401 F480
G01 X130.4690 Y0.2099 F480
G01 X130.4818 Y0.1788 F480
G01 X130.4924 Y0.1469 F480
G01 X130.5010 Y0.1143 F480
G01 X130.5074 Y0.0813 F480
G01 X130.5116 Y0.0480 F480
G01 X130.5137 Y0.0144 F480
G01 X130.5135 Y-0.0192 F480
G01 X130.5111 Y-0.0528 F480
G01 X130.5066 Y-0.0861 F480
G01 X130.4999 Y-0.1190 F480
G01 X130.4910 Y-0.1515 F480
G01 X130.4801 Y-0.1833 F480
G01 X130.4671 Y-0.2143 F480
G01 X130.4520 Y-0.2443 F480
G01 X130.4351 Y-0.2734 F480
G01 X130.4163 Y-0.3013 F480
G01 X130.3957 Y-0.3278 F480
G01 X130.3734 Y-0.3530 F480
G01 X130.3495 Y-0.3767 F480
G01 X130.3241 Y-0.3987 F480
G01 X130.2974 Y-0.4191 F480
G01 X130.2693 Y-0.4376 F480
G01 X130.2401 Y-0.4543 F480
G01 X130.2099 Y-0.4690 F480
G01 X130.1788 Y-0.4818 F480
G01 X130.1469 Y-0.4924 F480
G01 X130.1143 Y-0.5010 F480
G01 X130.0813 Y-0.5074 F480
G01 X130.0480 Y-0.5116 F480
G01 X130.0144 Y-0.5137 F480
G01 X129.9808 Y-0.5135 F480
G01 X129.9472 Y-0.5111 F480
G01 X129.9139 Y-0.5066 F480
G01 X129.8810 Y-0.4999 F480
G01 X129.8485 Y-0.4910 F480
G01 X129.8167 Y-0.4801 F480
G01 X129.7857 Y-0.4671 F480
G01 X129.7556 Y-0.4521 F480
G01 X129.7266 Y-0.4351 F480
G01 X129.6987 Y-0.4163 F480
G01 X129.6722 Y-0.3957 F480
G01 X129.6470 Y-0.3734 F480
G01 X129.6233 Y-0.3495 F480
G01 X129.6013 Y-0.3241 F480
G01 X129.5809 Y-0.2974 F480
G01 X129.5624 Y-0.2693 F480
G01 X129.5457 Y-0.2401 F480
G01 X129.5309 Y-0.2099 F480
G01 X129.5182 Y-0.1788 F480
G01 X129.5076 Y-0.1469 F480
G01 X129.4990 Y-0.1143 F480
G00 Z3.0000 F400


;No. 3: Hole 4
G00 X117.0419 Y1.5204 Z3.0000 F4000
G00 Z0.5000 F400
G01 Z0.0000 F210
G01 X110.0212 Z-0.3071 F210
G01 X110.1698 Y2.3204 Z-0.3427 F210
G01 X113.7654 Z-0.5000 F210
G01 X110.1698 Z-0.6573 F210
G01 X110.0212 Y1.5204 Z-0.6929 F210
G01 X117.0419 Z-1.0000 F210
G01 X110.0212 F480
G01 X110.1698 Y2.3204 F480
G01 X116.8228 F480
G01 X115.8869 Y3.1204 F480
G01 X110.3184 F480
G01 X112.0800 Y3.9204 F480
G01 X114.9510 F480
G01 X116.8933 Y0.7204 F480
G01 X109.8726 F480
G01 X109.7239 Y-0.0796 F480
G01 X116.7447 F480
G01 X116.5960 Y-0.8796 F480
G01 X109.9431 F480
G01 X110.8790 Y-1.6796 F480
G01 X116.4474 F480
G01 X114.6859 Y-2.4796 F480
G01 X111.8148 F480
G01 X111.6776 Y-2.6254 F480
G01 X109.4080 Y-0.6853 F480
G01 X110.1781 Y3.4599 F480
G01 X114.1530 Y4.8656 F480
G01 X117.3579 Y2.1261 F480
G01 X116.5878 Y-2.0191 F480
G01 X112.6128 Y-3.4248 F480
G01 X111.6776 Y-2.6254 F480
G01 X111.8148 Y-2.4796 F480
G00 Z3.0000 F400


;No. 4: Hole 5
G00 X112.3305 Y0.3204 Z3.0000 F4000
G00 Z0.5000 F400
G01 Z0.0000 F210
G01 X114.4353 Z-0.1532 F210
G01 Y1.1204 Z-0.2115 F210
G01 X112.3305 Z-0.3647 F210
G01 X112.1359 Y1.1703 Z-0.3794 F210
G01 X112.1746 Y1.2659 Z-0.3869 F210
G01 X112.2206 Y1.3581 Z-0.3944 F210
G01 X112.2736 Y1.4465 Z-0.4019 F210
G01 X112.3334 Y1.5305 Z-0.4094 F210
G01 X112.3994 Y1.6096 Z-0.4169 F210
G01 X112.4715 Y1.6834 Z-0.4244 F210
G01 X112.5490 Y1.7513 Z-0.4319 F210
G01 X112.6316 Y1.8130 Z-0.4394 F210
G01 X112.7187 Y1.8681 Z-0.4469 F210
G01 X112.8098 Y1.9163 Z-0.4544 F210
G01 X112.9044 Y1.9572 Z-0.4619 F210
G01 X113.0019 Y1.9907 Z-0.4694 F210
G01 X113.1017 Y2.0165 Z-0.4769 F210
G01 X113.2032 Y2.0345 Z-0.4845 F210
G01 X113.3058 Y2.0445 Z-0.4920 F210
G01 X113.4089 Y2.0465 Z-0.4995 F210
G01 X113.5118 Y2.0405 Z-0.5070 F210
G01 X113.6139 Y2.0266 Z-0.5145 F210
G01 X113.7146 Y2.0047 Z-0.5220 F210
G01 X113.8134 Y1.9751 Z-0.5295 F210
G01 X113.9095 Y1.9379 Z-0.5370 F210
G01 X114.0025 Y1.8934 Z-0.5445 F210
G01 X114.0917 Y1.8417 Z-0.5520 F210
G01 X114.1766 Y1.7833 Z-0.5595 F210
G01 X114.2568 Y1.7185 Z-0.5670 F210
G01 X114.3316 Y1.6476 Z-0.5745 F210
G01 X114.4008 Y1.5712 Z-0.5820 F210
G01 X114.4638 Y1.4896 Z-0.5896 F210
G01 X114.5202 Y1.4033 Z-0.5971 F210
G01 X114.5698 Y1.3130 Z-0.6046 F210
G01 X114.6122 Y1.2190 Z-0.6121 F210
G01 X114.6472 Y1.1221 Z-0.6196 F210
G01 X114.6746 Y1.0227 Z-0.6271 F210
G01 X114.6941 Y0.9215 Z-0.6346 F210
G01 X114.7057 Y0.8190 Z-0.6421 F210
G01 X114.7094 Y0.7160 Z-0.6496 F210
G01 X114.7050 Y0.6130 Z-0.6571 F210
G01 X114.6926 Y0.5107 Z-0.6646 F210
G01 X114.6724 Y0.4096 Z-0.6721 F210
G01 X114.6443 Y0.3104 Z-0.6796 F210
G01 X114.6079 Y0.2117 Z-0.6873 F210
G01 X114.5637 Y0.1162 Z-0.6950 F210
G01 X114.5122 Y0.0245 Z-0.7026 F210
G01 X114.4535 Y-0.0628 Z-0.7103 F210
G01 X114.3881 Y-0.1452 Z-0.7179 F210
G01 X114.3164 Y-0.2221 Z-0.7256 F210
G01 X114.2387 Y-0.2932 Z-0.7333 F210
G01 X114.1557 Y-0.3578 Z-0.7409 F210
G01 X114.0679 Y-0.4157 Z-0.7486 F210
G01 X113.9757 Y-0.4664 Z-0.7563 F210
G01 X113.8798 Y-0.5096 Z-0.7639 F210
G01 X113.7808 Y-0.5452 Z-0.7716 F210
G01 X113.6792 Y-0.5727 Z-0.7792 F210
G01 X113.5758 Y-0.5921 Z-0.7869 F210
G01 X113.4712 Y-0.6033 Z-0.7946 F210
G01 X113.3661 Y-0.6061 Z-0.8022 F210
G01 X113.2610 Y-0.6006 Z-0.8099 F210
G01 X113.1567 Y-0.5867 Z-0.8175 F210
G01 X113.0539 Y-0.5647 Z-0.8252 F210
G01 X112.9531 Y-0.5345 Z-0.8329 F210
G01 X112.8550 Y-0.4965 Z-0.8405 F210
G01 X112.7602 Y-0.4508 Z-0.8482 F210
G01 X112.6694 Y-0.3978 Z-0.8559 F210
G01 X112.5830 Y-0.3377 Z-0.8635 F210
G01 X112.5017 Y-0.2709 Z-0.8712 F210
G01 X112.4259 Y-0.1979 Z-0.8788 F210
G01 X112.3562 Y-0.1191 Z-0.8865 F210
G01 X112.2929 Y-0.0351 Z-0.8942 F210
G01 X112.2365 Y0.0537 Z-0.9018 F210
G01 X112.1873 Y0.1467 Z-0.9095 F210
G01 X112.1456 Y0.2433 Z-0.9171 F210
G01 X112.1117 Y0.3429 Z-0.9248 F210
G01 X112.0859 Y0.4449 Z-0.9325 F210
G01 X112.0682 Y0.5486 Z-0.9401 F210
G01 X112.0587 Y0.6533 Z-0.9478 F210
G01 X112.0576 Y0.7585 Z-0.9555 F210
G01 X112.0649 Y0.8635 Z-0.9631 F210
G01 X112.0804 Y0.9675 Z-0.9708 F210
G01 X112.1041 Y1.0700 Z-0.9784 F210
G01 X112.1359 Y1.1703 Z-0.9861 F210
G01 X112.3208 Y1.1229 Z-1.0000 F210
G01 X112.1359 Y1.1703 Z-1.0139 F210
G01 X112.1041 Y1.0700 Z-1.0216 F210
G01 X112.0804 Y0.9675 Z-1.0292 F210
G01 X112.0649 Y0.8635 Z-1.0369 F210
G01 X112.0576 Y0.7585 Z-1.0445 F210
G01 X112.0587 Y0.6533 Z-1.0522 F210
G01 X112.0682 Y0.5486 Z-1.0599 F210
G01 X112.0859 Y0.4449 Z-1.0675 F210
G01 X112.1117 Y0.3429 Z-1.0752 F210
G01 X112.1456 Y0.2433 Z-1.0829 F210
G01 X112.1873 Y0.1467 Z-1.0905 F210
G01 X112.2365 Y0.0537 Z-1.0982 F210
G01 X112.2929 Y-0.0351 Z-1.1058 F210
G01 X112.3562 Y-0.1191 Z-1.1135 F210
G01 X112.4259 Y-0.1979 Z-1.1212 F210
G01 X112.5017 Y-0.2709 Z-1.1288 F210
G01 X112.5830 Y-0.3377 Z-1.1365 F210
G01 X112.6694 Y-0.3978 Z-1.1441 F210
G01 X112.7602 Y-0.4508 Z-1.1518 F210
G01 X112.8550 Y-0.4965 Z-1.1595 F210
G01 X112.9531 Y-0.5345 Z-1.1671 F210
G01 X113.0539 Y-0.5647 Z-1.1748 F210
G01 X113.1567 Y-0.5867 Z-1.1825 F210
G01 X113.2610 Y-0.6006 Z-1.1901 F210
G01 X113.3661 Y-0.6061 Z-1.1978 F210
G01 X113.4712 Y-0.6033 Z-1.2054 F210
G01 X113.5758 Y-0.5921 Z-1.2131 F210
G01 X113.6792 Y-0.5727 Z-1.2208 F210
G01 X113.7808 Y-0.5452 Z-1.2284 F210
G01 X113.8798 Y-0.5096 Z-1.2361 F210
G01 X113.9757 Y-0.4664 Z-1.2437 F210
G01 X114.0679 Y-0.4157 Z-1.2514 F210
G01 X114.1557 Y-0.3578 Z-1.2591 F210
G01 X114.2387 Y-0.2932 Z-1.2667 F210
G01 X114.3164 Y-0.2221 Z-1.2744 F210
G01 X114.3881 Y-0.1452 Z-1.2821 F210
G01 X114.4535 Y-0.0628 Z-1.2897 F210
G01 X114.5122 Y0.0245 Z-1.2974 F210
G01 X114.5637 Y0.1162 Z-1.3050 F210
G01 X114.6079 Y0.2117 Z-1.3127 F210
G01 X114.6443 Y0.3104 Z-1.3204 F210
G01 X114.6724 Y0.4096 Z-1.3279 F210
G01 X114.6926 Y0.5107 Z-1.3354 F210
G01 X114.7050 Y0.6130 Z-1.3429 F210
G01 X114.7094 Y0.7160 Z-1.3504 F210
G01 X114.7057 Y0.8190 Z-1.3579 F210
G01 X114.6941 Y0.9215 Z-1.3654 F210
G01 X114.6746 Y1.0227 Z-1.3729 F210
G01 X114.6472 Y1.1221 Z-1.3804 F210
G01 X114.6122 Y1.2190 Z-1.3879 F210
G01 X114.5698 Y1.3130 Z-1.3954 F210
G01 X114.5202 Y1.4033 Z-1.4029 F210
G01 X114.4638 Y1.4896 Z-1.4104 F210
G01 X114.4008 Y1.5712 Z-1.4180 F210
G01 X114.3316 Y1.6476 Z-1.4255 F210
G01 X114.2568 Y1.7185 Z-1.4330 F210
G01 X114.1766 Y1.7833 Z-1.4405 F210
G01 X114.0917 Y1.8417 Z-1.4480 F210
G01 X114.0025 Y1.8934 Z-1.4555 F210
G01 X113.9095 Y1.9379 Z-1.4630 F210
G01 X113.8134 Y1.9751 Z-1.4705 F210
G01 X113.7146 Y2.0047 Z-1.4780 F210
G01 X113.6139 Y2.0266 Z-1.4855 F210
G01 X113.5118 Y2.0405 Z-1.4930 F210
G01 X113.4089 Y2.0465 Z-1.5005 F210
G01 X113.3058 Y2.0445 Z-1.5080 F210
G01 X113.2032 Y2.0345 Z-1.5155 F210
G01 X113.1017 Y2.0165 Z-1.5231 F210
G01 X113.0019 Y1.9907 Z-1.5306 F210
G01 X112.9044 Y1.9572 Z-1.5381 F210
G01 X112.8098 Y1.9163 Z-1.5456 F210
G01 X112.7187 Y1.8681 Z-1.5531 F210
G01 X112.6316 Y1.8130 Z-1.5606 F210
G01 X112.5490 Y1.7513 Z-1.5681 F210
G01 X112.4715 Y1.6834 Z-1.5756 F210
G01 X112.3994 Y1.6096 Z-1.5831 F210
G01 X112.3334 Y1.5305 Z-1.5906 F210
G01 X112.2736 Y1.4465 Z-1.5981 F210
G01 X112.2206 Y1.3581 Z-1.6056 F210
G01 X112.1746 Y1.2659 Z-1.6131 F210
G01 X112.1359 Y1.1703 Z-1.6206 F210
G01 X112.3305 Y1.1204 Z-1.6353 F210
G01 X114.4353 Z-1.7885 F210
G01 Y0.3204 Z-1.8468 F210
G01 X112.3305 Z-2.0000 F210
G01 X114.4353 F480
G01 Y1.1204 F480
G01 X112.3305 F480
G01 X112.1359 Y1.1703 F480
G01 X112.1746 Y1.2659 F480
G01 X112.2206 Y1.3581 F480
G01 X112.2736 Y1.4465 F480
G01 X112.3334 Y1.5305 F480
G01 X112.3994 Y1.6096 F480
G01 X112.4715 Y1.6834 F480
G01 X112.5490 Y1.7513 F480
G01 X112.6316 Y1.8130 F480
G01 X112.7187 Y1.8681 F480
G01 X112.8098 Y1.9163 F480
G01 X112.9044 Y1.9572 F480
G01 X113.0019 Y1.9907 F480
G01 X113.1017 Y2.0165 F480
G01 X113.2032 Y2.0345 F480
G01 X113.3058 Y2.0445 F480
G01 X113.4089 Y2.0465 F480
G01 X113.5118 Y2.0405 F480
G01 X113.6139 Y2.0266 F480
G01 X113.7146 Y2.0047 F480
G01 X113.8134 Y1.9751 F480
G01 X113.9095 Y1.9379 F480
G01 X114.0025 Y1.8934 F480
G01 X114.0917 Y1.8417 F480
G01 X114.1766 Y1.7833 F480
G01 X114.2568 Y1.7185 F480
G01 X114.3316 Y1.6476 F480
G01 X114.4008 Y1.5712 F480
G01 X114.4638 Y1.4896 F480
G01 X114.5202 Y1.4033 F480
G01 X114.5698 Y1.3130 F480
G01 X114.6122 Y1.2190 F480
G01 X114.6472 Y1.1221 F480
G01 X114.6746 Y1.0227 F480
G01 X114.6941 Y0.9215 F480
G01 X114.7057 Y0.8190 F480
G01 X114.7094 Y0.7160 F480
G01 X114.7050 Y0.6130 F480
G01 X114.6926 Y0.5107 F480
G01 X114.6724 Y0.4096 F480
G01 X114.6443 Y0.3104 F480
G01 X114.6079 Y0.2117 F480
G01 X114.5637 Y0.1162 F480
G01 X114.5122 Y0.0245 F480
G01 X114.4535 Y-0.0628 F480
G01 X114.3881 Y-0.1452 F480
G01 X114.3164 Y-0.2221 F480
G01 X114.2387 Y-0.2932 F480
G01 X114.1557 Y-0.3578 F480
G01 X114.0679 Y-0.4157 F480
G01 X113.9757 Y-0.4664 F480
G01 X113.8798 Y-0.5096 F480
G01 X113.7808 Y-0.5452 F480
G01 X113.6792 Y-0.5727 F480
G01 X113.5758 Y-0.5921 F480
G01 X113.4712 Y-0.6033 F480
G01 X113.3661 Y-0.6061 F480
G01 X113.2610 Y-0.6006 F480
G01 X113.1567 Y-0.5867 F480
G01 X113.0539 Y-0.5647 F480
G01 X112.9531 Y-0.5345 F480
G01 X112.8550 Y-0.4965 F480
G01 X112.7602 Y-0.4508 F480
G01 X112.6694 Y-0.3978 F480
G01 X112.5830 Y-0.3377 F480
G01 X112.5017 Y-0.2709 F480
G01 X112.4259 Y-0.1979 F480
G01 X112.3562 Y-0.1191 F480
G01 X112.2929 Y-0.0351 F480
G01 X112.2365 Y0.0537 F480
G01 X112.1873 Y0.1467 F480
G01 X112.1456 Y0.2433 F480
G01 X112.1117 Y0.3429 F480
G01 X112.0859 Y0.4449 F480
G01 X112.0682 Y0.5486 F480
G01 X112.0587 Y0.6533 F480
G01 X112.0576 Y0.7585 F480
G01 X112.0649 Y0.8635 F480
G01 X112.0804 Y0.9675 F480
G01 X112.1041 Y1.0700 F480
G01 X112.1359 Y1.1703 F480
G01 X112.3305 Y1.1204 F480
G01 X114.4353 Z-2.1532 F210
G01 Y0.3204 Z-2.2115 F210
G01 X112.3305 Z-2.3647 F210
G01 X112.1359 Y0.2705 Z-2.3794 F210
G01 X112.1047 Y0.3687 Z-2.3869 F210
G01 X112.0812 Y0.4692 Z-2.3944 F210
G01 X112.0656 Y0.5711 Z-2.4019 F210
G01 X112.0579 Y0.6739 Z-2.4094 F210
G01 X112.0582 Y0.7770 Z-2.4169 F210
G01 X112.0666 Y0.8798 Z-2.4244 F210
G01 X112.0829 Y0.9816 Z-2.4319 F210
G01 X112.1071 Y1.0819 Z-2.4394 F210
G01 X112.1390 Y1.1800 Z-2.4469 F210
G01 X112.1784 Y1.2752 Z-2.4545 F210
G01 X112.2252 Y1.3672 Z-2.4620 F210
G01 X112.2789 Y1.4552 Z-2.4695 F210
G01 X112.3393 Y1.5388 Z-2.4770 F210
G01 X112.4060 Y1.6174 Z-2.4845 F210
G01 X112.4786 Y1.6906 Z-2.4920 F210
G01 X112.5567 Y1.7580 Z-2.4995 F210
G01 X112.6398 Y1.8191 Z-2.5070 F210
G01 X112.7273 Y1.8735 Z-2.5145 F210
G01 X112.8189 Y1.9210 Z-2.5220 F210
G01 X112.9138 Y1.9612 Z-2.5296 F210
G01 X113.0116 Y1.9939 Z-2.5371 F210
G01 X113.1117 Y2.0189 Z-2.5446 F210
G01 X113.2134 Y2.0361 Z-2.5521 F210
G01 X113.3161 Y2.0453 Z-2.5596 F210
G01 X113.4192 Y2.0465 Z-2.5671 F210
G01 X113.5221 Y2.0397 Z-2.5746 F210
G01 X113.6241 Y2.0249 Z-2.5821 F210
G01 X113.7247 Y2.0022 Z-2.5896 F210
G01 X113.8233 Y1.9718 Z-2.5971 F210
G01 X113.9191 Y1.9338 Z-2.6047 F210
G01 X114.0118 Y1.8885 Z-2.6122 F210
G01 X114.1006 Y1.8361 Z-2.6197 F210
G01 X114.1851 Y1.7769 Z-2.6272 F210
G01 X114.2647 Y1.7114 Z-2.6347 F210
G01 X114.3390 Y1.6399 Z-2.6422 F210
G01 X114.4075 Y1.5628 Z-2.6497 F210
G01 X114.4698 Y1.4807 Z-2.6572 F210
G01 X114.5256 Y1.3939 Z-2.6647 F210
G01 X114.5744 Y1.3031 Z-2.6722 F210
G01 X114.6161 Y1.2088 Z-2.6798 F210
G01 X114.6509 Y1.1095 Z-2.6874 F210
G01 X114.6778 Y1.0079 Z-2.6951 F210
G01 X114.6965 Y0.9044 Z-2.7027 F210
G01 X114.7070 Y0.7998 Z-2.7104 F210
G01 X114.7092 Y0.6946 Z-2.7180 F210
G01 X114.7030 Y0.5896 Z-2.7257 F210
G01 X114.6885 Y0.4855 Z-2.7334 F210
G01 X114.6658 Y0.3828 Z-2.7410 F210
G01 X114.6351 Y0.2822 Z-2.7487 F210
G01 X114.5964 Y0.1844 Z-2.7563 F210
G01 X114.5502 Y0.0900 Z-2.7640 F210
G01 X114.4966 Y-0.0005 Z-2.7717 F210
G01 X114.4360 Y-0.0865 Z-2.7793 F210
G01 X114.3687 Y-0.1673 Z-2.7870 F210
G01 X114.2953 Y-0.2426 Z-2.7946 F210
G01 X114.2162 Y-0.3119 Z-2.8023 F210
G01 X114.1318 Y-0.3746 Z-2.8100 F210
G01 X114.0427 Y-0.4305 Z-2.8176 F210
G01 X113.9494 Y-0.4791 Z-2.8253 F210
G01 X113.8526 Y-0.5202 Z-2.8329 F210
G01 X113.7529 Y-0.5535 Z-2.8406 F210
G01 X113.6508 Y-0.5788 Z-2.8482 F210
G01 X113.5470 Y-0.5959 Z-2.8559 F210
G01 X113.4422 Y-0.6047 Z-2.8636 F210
G01 X113.3371 Y-0.6052 Z-2.8712 F210
G01 X113.2322 Y-0.5973 Z-2.8789 F210
G01 X113.1283 Y-0.5812 Z-2.8865 F210
G01 X113.0259 Y-0.5569 Z-2.8942 F210
G01 X112.9259 Y-0.5246 Z-2.9019 F210
G01 X112.8287 Y-0.4844 Z-2.9095 F210
G01 X112.7350 Y-0.4366 Z-2.9172 F210
G01 X112.6454 Y-0.3816 Z-2.9248 F210
G01 X112.5604 Y-0.3197 Z-2.9325 F210
G01 X112.4806 Y-0.2512 Z-2.9401 F210
G01 X112.4065 Y-0.1766 Z-2.9478 F210
G01 X112.3385 Y-0.0963 Z-2.9555 F210
G01 X112.2771 Y-0.0109 Z-2.9631 F210
G01 X112.2226 Y0.0790 Z-2.9708 F210
G01 X112.1755 Y0.1730 Z-2.9784 F210
G01 X112.1359 Y0.2705 Z-2.9861 F210
G01 X112.3208 Y0.3179 Z-3.0000 F210
G01 X112.1359 Y0.2705 Z-3.0139 F210
G01 X112.1755 Y0.1730 Z-3.0216 F210
G01 X112.2226 Y0.0790 Z-3.0292 F210
G01 X112.2771 Y-0.0109 Z-3.0369 F210
G01 X112.3385 Y-0.0963 Z-3.0445 F210
G01 X112.4065 Y-0.1766 Z-3.0522 F210
G01 X112.4806 Y-0.2512 Z-3.0599 F210
G01 X112.5604 Y-0.3197 Z-3.0675 F210
G01 X112.6454 Y-0.3816 Z-3.0752 F210
G01 X112.7350 Y-0.4366 Z-3.0828 F210
G01 X112.8287 Y-0.4844 Z-3.0905 F210
G01 X112.9259 Y-0.5246 Z-3.0981 F210
G01 X113.0259 Y-0.5569 Z-3.1058 F210
G01 X113.1283 Y-0.5812 Z-3.1135 F210
G01 X113.2322 Y-0.5973 Z-3.1211 F210
G01 X113.3371 Y-0.6052 Z-3.1288 F210
G01 X113.4422 Y-0.6047 Z-3.1364 F210
G01 X113.5470 Y-0.5959 Z-3.1441 F210
G01 X113.6508 Y-0.5788 Z-3.1518 F210
G01 X113.7529 Y-0.5535 Z-3.1594 F210
G01 X113.8526 Y-0.5202 Z-3.1671 F210
G01 X113.9494 Y-0.4791 Z-3.1747 F210
G01 X114.0427 Y-0.4305 Z-3.1824 F210
G01 X114.1318 Y-0.3746 Z-3.1900 F210
G01 X114.2162 Y-0.3119 Z-3.1977 F210
G01 X114.2953 Y-0.2426 Z-3.2054 F210
G01 X114.3687 Y-0.1673 Z-3.2130 F210
G01 X114.4360 Y-0.0865 Z-3.2207 F210
G01 X114.4966 Y-0.0005 Z-3.2283 F210
G01 X114.5502 Y0.0900 Z-3.2360 F210
G01 X114.5964 Y0.1844 Z-3.2437 F210
G01 X114.6351 Y0.2822 Z-3.2513 F210
G01 X114.6658 Y0.3828 Z-3.2590 F210
G01 X114.6885 Y0.4855 Z-3.2666 F210
G01 X114.7030 Y0.5896 Z-3.2743 F210
G01 X114.7092 Y0.6946 Z-3.2820 F210
G01 X114.7070 Y0.7998 Z-3.2896 F210
G01 X114.6965 Y0.9044 Z-3.2973 F210
G01 X114.6778 Y1.0079 Z-3.3049 F210
G01 X114.6509 Y1.1095 Z-3.3126 F210
G01 X114.6161 Y1.2088 Z-3.3202 F210
G01 X114.5744 Y1.3031 Z-3.3278 F210
G01 X114.5256 Y1.3939 Z-3.3353 F210
G01 X114.4698 Y1.4807 Z-3.3428 F210
G01 X114.4075 Y1.5628 Z-3.3503 F210
G01 X114.3390 Y1.6399 Z-3.3578 F210
G01 X114.2647 Y1.7114 Z-3.3653 F210
G01 X114.1851 Y1.7769 Z-3.3728 F210
G01 X114.1006 Y1.8361 Z-3.3803 F210
G01 X114.0118 Y1.8885 Z-3.3878 F210
G01 X113.9191 Y1.9338 Z-3.3953 F210
G01 X113.8233 Y1.9718 Z-3.4029 F210
G01 X113.7247 Y2.0022 Z-3.4104 F210
G01 X113.6241 Y2.0249 Z-3.4179 F210
G01 X113.5221 Y2.0397 Z-3.4254 F210
G01 X113.4192 Y2.0465 Z-3.4329 F210
G01 X113.3161 Y2.0453 Z-3.4404 F210
G01 X113.2134 Y2.0361 Z-3.4479 F210
G01 X113.1117 Y2.0189 Z-3.4554 F210
G01 X113.0116 Y1.9939 Z-3.4629 F210
G01 X112.9138 Y1.9612 Z-3.4704 F210
G01 X112.8189 Y1.9210 Z-3.4780 F210
G01 X112.7273 Y1.8735 Z-3.4855 F210
G01 X112.6398 Y1.8191 Z-3.4930 F210
G01 X112.5567 Y1.7580 Z-3.5005 F210
G01 X112.4786 Y1.6906 Z-3.5080 F210
G01 X112.4060 Y1.6174 Z-3.5155 F210
G01 X112.3393 Y1.5388 Z-3.5230 F210
G01 X112.2789 Y1.4552 Z-3.5305 F210
G01 X112.2252 Y1.3672 Z-3.5380 F210
G01 X112.1784 Y1.2752 Z-3.5455 F210
G01 X112.1390 Y1.1800 Z-3.5531 F210
G01 X112.1071 Y1.0819 Z-3.5606 F210
G01 X112.0829 Y0.9816 Z-3.5681 F210
G01 X112.0666 Y0.8798 Z-3.5756 F210
G01 X112.0582 Y0.7770 Z-3.5831 F210
G01 X112.0579 Y0.6739 Z-3.5906 F210
G01 X112.0656 Y0.5711 Z-3.5981 F210
G01 X112.0812 Y0.4692 Z-3.6056 F210
G01 X112.1047 Y0.3687 Z-3.6131 F210
G01 X112.1359 Y0.2705 Z-3.6206 F210
G01 X112.3305 Y0.3204 Z-3.6353 F210
G01 X114.4353 Z-3.7885 F210
G01 Y1.1204 Z-3.8468 F210
G01 X112.3305 Z-4.0000 F210
G01 X114.4353 F480
G01 Y0.3204 F480
G01 X112.3305 F480
G01 X112.1359 Y0.2705 F480
G01 X112.1047 Y0.3687 F480
G01 X112.0812 Y0.4692 F480
G01 X112.0656 Y0.5711 F480
G01 X112.0579 Y0.6739 F480
G01 X112.0582 Y0.7770 F480
G01 X112.0666 Y0.8798 F480
G01 X112.0829 Y0.9816 F480
G01 X112.1071 Y1.0819 F480
G01 X112.1390 Y1.1800 F480
G01 X112.1784 Y1.2752 F480
G01 X112.2252 Y1.3672 F480
G01 X112.2789 Y1.4552 F480
G01 X112.3393 Y1.5388 F480
G01 X112.4060 Y1.6174 F480
G01 X112.4786 Y1.6906 F480
G01 X112.5567 Y1.7580 F480
G01 X112.6398 Y1.8191 F480
G01 X112.7273 Y1.8735 F480
G01 X112.8189 Y1.9210 F480
G01 X112.9138 Y1.9612 F480
G01 X113.0116 Y1.9939 F480
G01 X113.1117 Y2.0189 F480
G01 X113.2134 Y2.0361 F480
G01 X113.3161 Y2.0453 F480
G01 X113.4192 Y2.0465 F480
G01 X113.5221 Y2.0397 F480
G01 X113.6241 Y2.0249 F480
G01 X113.7247 Y2.0022 F480
G01 X113.8233 Y1.9718 F480
G01 X113.9191 Y1.9338 F480
G01 X114.0118 Y1.8885 F480
G01 X114.1006 Y1.8361 F480
G01 X114.1851 Y1.7769 F480
G01 X114.2647 Y1.7114 F480
G01 X114.3390 Y1.6399 F480
G01 X114.4075 Y1.5628 F480
G01 X114.4698 Y1.4807 F480
G01 X114.5256 Y1.3939 F480
G01 X114.5744 Y1.3031 F480
G01 X114.6161 Y1.2088 F480
G01 X114.6509 Y1.1095 F480
G01 X114.6778 Y1.0079 F480
G01 X114.6965 Y0.9044 F480
G01 X114.7070 Y0.7998 F480
G01 X114.7092 Y0.6946 F480
G01 X114.7030 Y0.5896 F480
G01 X114.6885 Y0.4855 F480
G01 X114.6658 Y0.3828 F480
G01 X114.6351 Y0.2822 F480
G01 X114.5964 Y0.1844 F480
G01 X114.5502 Y0.0900 F480
G01 X114.4966 Y-0.0005 F480
G01 X114.4360 Y-0.0865 F480
G01 X114.3687 Y-0.1673 F480
G01 X114.2953 Y-0.2426 F480
G01 X114.2162 Y-0.3119 F480
G01 X114.1318 Y-0.3746 F480
G01 X114.0427 Y-0.4305 F480
G01 X113.9494 Y-0.4791 F480
G01 X113.8526 Y-0.5202 F480
G01 X113.7529 Y-0.5535 F480
G01 X113.6508 Y-0.5788 F480
G01 X113.5470 Y-0.5959 F480
G01 X113.4422 Y-0.6047 F480
G01 X113.3371 Y-0.6052 F480
G01 X113.2322 Y-0.5973 F480
G01 X113.1283 Y-0.5812 F480
G01 X113.0259 Y-0.5569 F480
G01 X112.9259 Y-0.5246 F480
G01 X112.8287 Y-0.4844 F480
G01 X112.7350 Y-0.4366 F480
G01 X112.6454 Y-0.3816 F480
G01 X112.5604 Y-0.3197 F480
G01 X112.4806 Y-0.2512 F480
G01 X112.4065 Y-0.1766 F480
G01 X112.3385 Y-0.0963 F480
G01 X112.2771 Y-0.0109 F480
G01 X112.2226 Y0.0790 F480
G01 X112.1755 Y0.1730 F480
G01 X112.1359 Y0.2705 F480
G01 X112.3305 Y0.3204 F480
G01 X114.4353 Z-4.0921 F210
G01 Y1.1204 Z-4.1271 F210
G01 X112.3305 Z-4.2191 F210
G01 X112.1359 Y1.1703 Z-4.2279 F210
G01 X112.1746 Y1.2659 Z-4.2324 F210
G01 X112.2206 Y1.3581 Z-4.2369 F210
G01 X112.2736 Y1.4465 Z-4.2415 F210
G01 X112.3334 Y1.5305 Z-4.2460 F210
G01 X112.3994 Y1.6096 Z-4.2505 F210
G01 X112.4715 Y1.6834 Z-4.2550 F210
G01 X112.5490 Y1.7513 Z-4.2595 F210
G01 X112.6316 Y1.8130 Z-4.2640 F210
G01 X112.7187 Y1.8681 Z-4.2685 F210
G01 X112.8098 Y1.9163 Z-4.2730 F210
G01 X112.9044 Y1.9572 Z-4.2775 F210
G01 X113.0019 Y1.9907 Z-4.2821 F210
G01 X113.1017 Y2.0165 Z-4.2866 F210
G01 X113.2032 Y2.0345 Z-4.2911 F210
G01 X113.3058 Y2.0445 Z-4.2956 F210
G01 X113.4089 Y2.0465 Z-4.3001 F210
G01 X113.5118 Y2.0405 Z-4.3046 F210
G01 X113.6139 Y2.0266 Z-4.3091 F210
G01 X113.7146 Y2.0047 Z-4.3136 F210
G01 X113.8134 Y1.9751 Z-4.3181 F210
G01 X113.9095 Y1.9379 Z-4.3226 F210
G01 X114.0025 Y1.8934 Z-4.3272 F210
G01 X114.0917 Y1.8417 Z-4.3317 F210
G01 X114.1766 Y1.7833 Z-4.3362 F210
G01 X114.2568 Y1.7185 Z-4.3407 F210
G01 X114.3316 Y1.6476 Z-4.3452 F210
G01 X114.4008 Y1.5712 Z-4.3497 F210
G01 X114.4638 Y1.4896 Z-4.3542 F210
G01 X114.5202 Y1.4033 Z-4.3587 F210
G01 X114.5698 Y1.3130 Z-4.3632 F210
G01 X114.6122 Y1.2190 Z-4.3677 F210
G01 X114.6472 Y1.1221 Z-4.3723 F210
G01 X114.6746 Y1.0227 Z-4.3768 F210
G01 X114.6941 Y0.9215 Z-4.3813 F210
G01 X114.7057 Y0.8190 Z-4.3858 F210
G01 X114.7094 Y0.7160 Z-4.3903 F210
G01 X114.7050 Y0.6130 Z-4.3948 F210
G01 X114.6926 Y0.5107 Z-4.3993 F210
G01 X114.6724 Y0.4096 Z-4.4038 F210
G01 X114.6443 Y0.3104 Z-4.4083 F210
G01 X114.6080 Y0.2122 Z-4.4129 F210
G01 X114.5642 Y0.1171 Z-4.4175 F210
G01 X114.5129 Y0.0257 Z-4.4221 F210
G01 X114.4546 Y-0.0613 Z-4.4267 F210
G01 X114.3896 Y-0.1434 Z-4.4313 F210
G01 X114.3183 Y-0.2202 Z-4.4358 F210
G01 X114.2412 Y-0.2911 Z-4.4404 F210
G01 X114.1588 Y-0.3556 Z-4.4450 F210
G01 X114.0715 Y-0.4135 Z-4.4496 F210
G01 X113.9799 Y-0.4643 Z-4.4542 F210
G01 X113.8845 Y-0.5077 Z-4.4588 F210
G01 X113.7861 Y-0.5435 Z-4.4633 F210
G01 X113.6851 Y-0.5713 Z-4.4679 F210
G01 X113.5823 Y-0.5912 Z-4.4725 F210
G01 X113.4782 Y-0.6028 Z-4.4771 F210
G01 X113.3735 Y-0.6062 Z-4.4817 F210
G01 X113.2689 Y-0.6013 Z-4.4863 F210
G01 X113.1650 Y-0.5881 Z-4.4908 F210
G01 X113.0624 Y-0.5668 Z-4.4954 F210
G01 X112.9619 Y-0.5375 Z-4.5000 F210
G01 X113.0624 Y-0.5668 Z-4.5046 F210
G01 X113.1650 Y-0.5881 Z-4.5092 F210
G01 X113.2689 Y-0.6013 Z-4.5137 F210
G01 X113.3735 Y-0.6062 Z-4.5183 F210
G01 X113.4782 Y-0.6028 Z-4.5229 F210
G01 X113.5823 Y-0.5912 Z-4.5275 F210
G01 X113.6851 Y-0.5713 Z-4.5321 F210
G01 X113.7861 Y-0.5435 Z-4.5367 F210
G01 X113.8845 Y-0.5077 Z-4.5412 F210
G01 X113.9799 Y-0.4643 Z-4.5458 F210
G01 X114.0715 Y-0.4135 Z-4.5504 F210
G01 X114.1588 Y-0.3556 Z-4.5550 F210
G01 X114.2412 Y-0.2911 Z-4.5596 F210
G01 X114.3183 Y-0.2202 Z-4.5642 F210
G01 X114.3896 Y-0.1434 Z-4.5687 F210
G01 X114.4546 Y-0.0613 Z-4.5733 F210
G01 X114.5129 Y0.0257 Z-4.5779 F210
G01 X114.5642 Y0.1171 Z-4.5825 F210
G01 X114.6080 Y0.2122 Z-4.5871 F210
G01 X114.6443 Y0.3104 Z-4.5917 F210
G01 X114.6724 Y0.4096 Z-4.5962 F210
G01 X114.6926 Y0.5107 Z-4.6007 F210
G01 X114.7050 Y0.6130 Z-4.6052 F210
G01 X114.7094 Y0.7160 Z-4.6097 F210
G01 X114.7057 Y0.8190 Z-4.6142 F210
G01 X114.6941 Y0.9215 Z-4.6187 F210
G01 X114.6746 Y1.0227 Z-4.6232 F210
G01 X114.6472 Y1.1221 Z-4.6277 F210
G01 X114.6122 Y1.2190 Z-4.6323 F210
G01 X114.5698 Y1.3130 Z-4.6368 F210
G01 X114.5202 Y1.4033 Z-4.6413 F210
G01 X114.4638 Y1.4896 Z-4.6458 F210
G01 X114.4008 Y1.5712 Z-4.6503 F210
G01 X114.3316 Y1.6476 Z-4.6548 F210
G01 X114.2568 Y1.7185 Z-4.6593 F210
G01 X114.1766 Y1.7833 Z-4.6638 F210
G01 X114.0917 Y1.8417 Z-4.6683 F210
G01 X114.0025 Y1.8934 Z-4.6728 F210
G01 X113.9095 Y1.9379 Z-4.6774 F210
G01 X113.8134 Y1.9751 Z-4.6819 F210
G01 X113.7146 Y2.0047 Z-4.6864 F210
G01 X113.6139 Y2.0266 Z-4.6909 F210
G01 X113.5118 Y2.0405 Z-4.6954 F210
G01 X113.4089 Y2.0465 Z-4.6999 F210
G01 X113.3058 Y2.0445 Z-4.7044 F210
G01 X113.2032 Y2.0345 Z-4.7089 F210
G01 X113.1017 Y2.0165 Z-4.7134 F210
G01 X113.0019 Y1.9907 Z-4.7179 F210
G01 X112.9044 Y1.9572 Z-4.7225 F210
G01 X112.8098 Y1.9163 Z-4.7270 F210
G01 X112.7187 Y1.8681 Z-4.7315 F210
G01 X112.6316 Y1.8130 Z-4.7360 F210
G01 X112.5490 Y1.7513 Z-4.7405 F210
G01 X112.4715 Y1.6834 Z-4.7450 F210
G01 X112.3994 Y1.6096 Z-4.7495 F210
G01 X112.3334 Y1.5305 Z-4.7540 F210
G01 X112.2736 Y1.4465 Z-4.7585 F210
G01 X112.2206 Y1.3581 Z-4.7631 F210
G01 X112.1746 Y1.2659 Z-4.7676 F210
G01 X112.1359 Y1.1703 Z-4.7721 F210
G01 X112.3305 Y1.1204 Z-4.7809 F210
G01 X114.4353 Z-4.8729 F210
G01 Y0.3204 Z-4.9079 F210
G01 X112.3305 Z-5.0000 F210
G01 X114.4353 F480
G01 Y1.1204 F480
G01 X112.3305 F480
G01 X112.1359 Y1.1703 F480
G01 X112.1746 Y1.2659 F480
G01 X112.2206 Y1.3581 F480
G01 X112.2736 Y1.4465 F480
G01 X112.3334 Y1.5305 F480
G01 X112.3994 Y1.6096 F480
G01 X112.4715 Y1.6834 F480
G01 X112.5490 Y1.7513 F480
G01 X112.6316 Y1.8130 F480
G01 X112.7187 Y1.8681 F480
G01 X112.8098 Y1.9163 F480
G01 X112.9044 Y1.9572 F480
G01 X113.0019 Y1.9907 F480
G01 X113.1017 Y2.0165 F480
G01 X113.2032 Y2.0345 F480
G01 X113.3058 Y2.0445 F480
G01 X113.4089 Y2.0465 F480
G01 X113.5118 Y2.0405 F480
G01 X113.6139 Y2.0266 F480
G01 X113.7146 Y2.0047 F480
G01 X113.8134 Y1.9751 F480
G01 X113.9095 Y1.9379 F480
G01 X114.0025 Y1.8934 F480
G01 X114.0917 Y1.8417 F480
G01 X114.1766 Y1.7833 F480
G01 X114.2568 Y1.7185 F480
G01 X114.3316 Y1.6476 F480
G01 X114.4008 Y1.5712 F480
G01 X114.4638 Y1.4896 F480
G01 X114.5202 Y1.4033 F480
G01 X114.5698 Y1.3130 F480
G01 X114.6122 Y1.2190 F480
G01 X114.6472 Y1.1221 F480
G01 X114.6746 Y1.0227 F480
G01 X114.6941 Y0.9215 F480
G01 X114.7057 Y0.8190 F480
G01 X114.7094 Y0.7160 F480
G01 X114.7050 Y0.6130 F480
G01 X114.6926 Y0.5107 F480
G01 X114.6724 Y0.4096 F480
G01 X114.6443 Y0.3104 F480
G01 X114.6079 Y0.2117 F480
G01 X114.5637 Y0.1162 F480
G01 X114.5122 Y0.0245 F480
G01 X114.4535 Y-0.0628 F480
G01 X114.3881 Y-0.1452 F480
G01 X114.3164 Y-0.2221 F480
G01 X114.2387 Y-0.2932 F480
G01 X114.1557 Y-0.3578 F480
G01 X114.0679 Y-0.4157 F480
G01 X113.9757 Y-0.4664 F480
G01 X113.8798 Y-0.5096 F480
G01 X113.7808 Y-0.5452 F480
G01 X113.6792 Y-0.5727 F480
G01 X113.5758 Y-0.5921 F480
G01 X113.4712 Y-0.6033 F480
G01 X113.3661 Y-0.6061 F480
G01 X113.2610 Y-0.6006 F480
G01 X113.1567 Y-0.5867 F480
G01 X113.0539 Y-0.5647 F480
G01 X112.9531 Y-0.5345 F480
G01 X112.8550 Y-0.4965 F480
G01 X112.7602 Y-0.4508 F480
G01 X112.6694 Y-0.3978 F480
G01 X112.5830 Y-0.3377 F480
G01 X112.5017 Y-0.2709 F480
G01 X112.4259 Y-0.1979 F480
G01 X112.3562 Y-0.1191 F480
G01 X112.2929 Y-0.0351 F480
G01 X112.2365 Y0.0537 F480
G01 X112.1873 Y0.1467 F480
G01 X112.1456 Y0.2433 F480
G01 X112.1117 Y0.3429 F480
G01 X112.0859 Y0.4449 F480
G01 X112.0682 Y0.5486 F480
G01 X112.0587 Y0.6533 F480
G01 X112.0576 Y0.7585 F480
G01 X112.0649 Y0.8635 F480
G01 X112.0804 Y0.9675 F480
G01 X112.1041 Y1.0700 F480
G01 X112.1359 Y1.1703 F480
G01 X112.3305 Y1.1204 F480
G00 Z3.0000 F400


;No. 5: Hole 3
G00 X106.2957 Y3.0275 Z3.0000 F4000
G00 Z0.5000 F400
G01 Z0.0000 F210
G01 X100.5807 Z-0.2500 F210
G01 X106.2957 Z-0.5000 F210
G01 X54.4002 F480
G01 X54.3640 Y3.8275 F480
G01 X106.5523 F480
G01 X106.6787 Y4.6275 F480
G01 X54.3523 F480
G01 X54.3406 Y5.4275 F480
G01 X106.6931 F480
G01 X106.6506 Y6.2275 F480
G01 X54.3290 F480
G01 X54.3099 Y7.0275 F480
G01 X106.6081 F480
G01 X106.5656 Y7.8275 F480
G01 X54.1665 F480
G01 X53.8724 Y8.6275 F480
G01 X106.5069 F480
G01 X106.5749 Y9.4275 F480
G01 X53.3377 F480
G01 X52.3870 Y10.2275 F480
G01 X106.8521 F480
G00 Z3.0000 F400
G00 X105.8477 Y3.0275 F4000
G00 Z0.5000 F400
G01 Z-0.5000 F210
G01 Y2.2275 F480
G01 X54.5058 F480
G01 X54.7350 Y1.4275 F480
G01 X105.1251 F480
G01 X103.9171 Y0.6275 F480
G01 X94.4321 F480
G00 Z3.0000 F400
G00 X75.7947 Y1.4275 F4000
G00 Z0.5000 F400
G01 Z-0.5000 F210
G01 Y0.6275 F480
G01 X55.2043 F480
G01 X55.0076 Y0.5534 F480
G01 X54.8471 Y0.7871 F480
G01 X54.7034 Y1.0315 F480
G01 X54.5773 Y1.2855 F480
G01 X54.4694 Y1.5476 F480
G01 X54.3802 Y1.8168 F480
G01 X54.3102 Y2.0915 F480
G01 X54.2597 Y2.3705 F480
G01 X54.2290 Y2.6524 F480
G01 X54.1701 Y3.4101 F480
G01 X54.1702 Y3.3986 F480
G01 X54.1181 Y6.9665 F480
G01 X54.0875 Y7.2918 F480
G01 X54.0296 Y7.6133 F480
G01 X53.9449 Y7.9288 F480
G01 X53.8340 Y8.2360 F480
G01 X53.6977 Y8.5329 F480
G01 X53.5370 Y8.8173 F480
G01 X53.3530 Y9.0872 F480
G01 X53.1469 Y9.3407 F480
G01 X53.0470 Y9.4421 F480
G01 X52.9421 Y9.5382 F480
G01 X52.8322 Y9.6288 F480
G01 X52.7178 Y9.7135 F480
G01 X52.5992 Y9.7921 F480
G01 X52.4766 Y9.8645 F480
G01 X52.3505 Y9.9304 F480
G01 X52.2210 Y9.9897 F480
G01 X52.1820 Y10.2342 F480
G01 X52.1671 Y10.5693 F480
G01 X107.5983 Y11.1773 F480
G01 X107.6018 Y10.9308 F480
G01 X107.5996 Y10.8670 F480
G01 X107.5008 Y10.7686 F480
G01 X107.4068 Y10.6656 F480
G01 X107.3179 Y10.5582 F480
G01 X107.2342 Y10.4467 F480
G01 X107.1559 Y10.3313 F480
G01 X107.0833 Y10.2123 F480
G01 X107.0165 Y10.0899 F480
G01 X106.9556 Y9.9645 F480
G01 X106.9008 Y9.8363 F480
G01 X106.8523 Y9.7056 F480
G01 X106.8100 Y9.5727 F480
G01 X106.7742 Y9.4380 F480
G01 X106.7449 Y9.3016 F480
G01 X106.7221 Y9.1641 F480
G01 X106.7060 Y9.0256 F480
G01 X106.6966 Y8.8865 F480
G01 X106.6938 Y8.7471 F480
G01 X106.6978 Y8.6077 F480
G01 X106.7084 Y8.4687 F480
G01 X106.7256 Y8.3303 F480
G01 X106.7373 Y8.2341 F480
G01 X106.7487 Y8.1520 F480
G01 X106.9003 Y5.2970 F480
G01 X106.9068 Y4.9216 F480
G01 X106.8864 Y4.5467 F480
G01 X106.8391 Y4.1743 F480
G01 X106.7653 Y3.8062 F480
G01 X106.6652 Y3.4444 F480
G01 X106.5394 Y3.0907 F480
G01 X106.3886 Y2.7469 F480
G01 X106.2135 Y2.4148 F480
G01 X105.9648 Y2.0545 F480
G01 X105.6879 Y1.7153 F480
G01 X105.3846 Y1.3996 F480
G01 X105.0569 Y1.1092 F480
G01 X104.7069 Y0.8462 F480
G01 X104.3369 Y0.6122 F480
G01 X103.9492 Y0.4087 F480
G01 X103.5464 Y0.2371 F480
G01 X103.2291 Y0.1140 F480
G01 X102.9057 Y0.0074 F480
G01 X102.5773 Y-0.0823 F480
G01 X102.2447 Y-0.1548 F480
G01 X98.9813 Y-0.2284 F480
G01 X98.5147 Y-0.2897 F480
G01 X98.0453 Y-0.3240 F480
G01 X97.5748 Y-0.3312 F480
G01 X97.1046 Y-0.3111 F480
G01 X96.6364 Y-0.2640 F480
G01 X96.1717 Y-0.1898 F480
G01 X95.7120 Y-0.0890 F480
G01 X95.2590 Y0.0382 F480
G01 X94.8481 Y0.2011 F480
G01 X94.4521 Y0.3975 F480
G01 X94.0739 Y0.6262 F480
G01 X93.7160 Y0.8855 F480
G01 X93.6563 Y0.9147 F480
G01 X93.5949 Y0.9399 F480
G01 X93.5319 Y0.9609 F480
G01 X93.4676 Y0.9777 F480
G01 X93.4024 Y0.9903 F480
G01 X93.3365 Y0.9984 F480
G01 X93.2702 Y1.0022 F480
G01 X93.2038 Y1.0016 F480
G01 X58.1900 Y-0.1533 F480
G01 X57.8011 Y-0.2311 F480
G01 X57.4072 Y-0.2780 F480
G01 X57.0109 Y-0.2938 F480
G01 X56.6145 Y-0.2783 F480
G01 X56.4987 Y-0.2675 F480
G01 X56.3836 Y-0.2508 F480
G01 X56.2695 Y-0.2282 F480
G01 X56.1567 Y-0.1998 F480
G01 X56.0456 Y-0.1656 F480
G01 X55.9363 Y-0.1258 F480
G01 X55.8292 Y-0.0805 F480
G01 X55.7245 Y-0.0297 F480
G01 X55.6226 Y0.0264 F480
G01 X55.5238 Y0.0877 F480
G01 X55.4282 Y0.1539 F480
G01 X55.3361 Y0.2250 F480
G01 X55.2477 Y0.3006 F480
G01 X55.1634 Y0.3807 F480
G01 X55.0833 Y0.4651 F480
G01 X55.0076 Y0.5534 F480
G01 X55.2043 Y0.6275 F480
G00 Z3.0000 F400
G1 Z10 F150          ; lift tool up a bit
M05
