;Project zt640
;Created by Estlcam version 11 build 11.245
;Machining time about 00:03:34 hours

G90                      ; use absolute cords
G10 P0 L20 X 0 Y 0         ; set x and y home to here

M0 (MSG Place Z Probe)
G38.2 G91 Z-20 F40               ; home Z
G10 P0 L20 Z 2.1                    ; SET Z TO WIDTH OF PROBE
G1 Z3 F150          ; lift tool up a bit
G90
M00 (MSG Remove Z Probe and turn on spindle)
M03 S11500

G00 X0.0000 Y0.0000 Z0.0000 F4000
G00 Z3.0000 F400


;No. 1: Hole 8
G00 X17.6111 Y18.9686 F4000
G00 Z0.5000 F400
G01 Z0.0000 F210 S11500
G01 X19.7205 Z-0.0923 F210
G01 Y19.7686 Z-0.1273 F210
G01 X17.6111 Z-0.2195 F210
G01 X17.4168 Y19.8191 Z-0.2283 F210
G01 X17.4555 Y19.9148 Z-0.2328 F210
G01 X17.5016 Y20.0072 Z-0.2374 F210
G01 X17.5547 Y20.0957 Z-0.2419 F210
G01 X17.6145 Y20.1799 Z-0.2464 F210
G01 X17.6807 Y20.2591 Z-0.2509 F210
G01 X17.7528 Y20.3330 Z-0.2554 F210
G01 X17.8305 Y20.4010 Z-0.2599 F210
G01 X17.9132 Y20.4628 Z-0.2645 F210
G01 X18.0004 Y20.5180 Z-0.2690 F210
G01 X18.0917 Y20.5662 Z-0.2735 F210
G01 X18.1864 Y20.6072 Z-0.2780 F210
G01 X18.2841 Y20.6408 Z-0.2825 F210
G01 X18.3840 Y20.6666 Z-0.2871 F210
G01 X18.4857 Y20.6846 Z-0.2916 F210
G01 X18.5885 Y20.6947 Z-0.2961 F210
G01 X18.6917 Y20.6967 Z-0.3006 F210
G01 X18.7947 Y20.6907 Z-0.3051 F210
G01 X18.8970 Y20.6767 Z-0.3096 F210
G01 X18.9979 Y20.6548 Z-0.3142 F210
G01 X19.0968 Y20.6252 Z-0.3187 F210
G01 X19.1931 Y20.5880 Z-0.3232 F210
G01 X19.2862 Y20.5433 Z-0.3277 F210
G01 X19.3756 Y20.4916 Z-0.3322 F210
G01 X19.4607 Y20.4332 Z-0.3367 F210
G01 X19.5409 Y20.3682 Z-0.3413 F210
G01 X19.6159 Y20.2973 Z-0.3458 F210
G01 X19.6852 Y20.2207 Z-0.3503 F210
G01 X19.7483 Y20.1390 Z-0.3548 F210
G01 X19.8048 Y20.0526 Z-0.3593 F210
G01 X19.8545 Y19.9621 Z-0.3638 F210
G01 X19.8970 Y19.8680 Z-0.3684 F210
G01 X19.9321 Y19.7709 Z-0.3729 F210
G01 X19.9595 Y19.6714 Z-0.3774 F210
G01 X19.9791 Y19.5700 Z-0.3819 F210
G01 X19.9907 Y19.4674 Z-0.3864 F210
G01 X19.9944 Y19.3643 Z-0.3910 F210
G01 X19.9900 Y19.2611 Z-0.3955 F210
G01 X19.9777 Y19.1586 Z-0.4000 F210
G01 X19.9574 Y19.0574 Z-0.4045 F210
G01 X19.9293 Y18.9580 Z-0.4090 F210
G01 X19.8934 Y18.8605 Z-0.4136 F210
G01 X19.8499 Y18.7661 Z-0.4181 F210
G01 X19.7992 Y18.6753 Z-0.4227 F210
G01 X19.7415 Y18.5888 Z-0.4272 F210
G01 X19.6773 Y18.5071 Z-0.4318 F210
G01 X19.6068 Y18.4306 Z-0.4363 F210
G01 X19.5306 Y18.3599 Z-0.4409 F210
G01 X19.4491 Y18.2954 Z-0.4454 F210
G01 X19.3628 Y18.2374 Z-0.4500 F210
G01 X19.2722 Y18.1864 Z-0.4545 F210
G01 X19.1779 Y18.1426 Z-0.4591 F210
G01 X19.0805 Y18.1063 Z-0.4636 F210
G01 X18.9805 Y18.0778 Z-0.4682 F210
G01 X18.8786 Y18.0571 Z-0.4727 F210
G01 X18.7754 Y18.0445 Z-0.4773 F210
G01 X18.6716 Y18.0400 Z-0.4818 F210
G01 X18.5677 Y18.0436 Z-0.4864 F210
G01 X18.4644 Y18.0554 Z-0.4909 F210
G01 X18.3623 Y18.0752 Z-0.4955 F210
G01 X18.2621 Y18.1029 Z-0.5000 F210
G01 X18.3623 Y18.0752 Z-0.5045 F210
G01 X18.4644 Y18.0554 Z-0.5091 F210
G01 X18.5677 Y18.0436 Z-0.5136 F210
G01 X18.6716 Y18.0400 Z-0.5182 F210
G01 X18.7754 Y18.0445 Z-0.5227 F210
G01 X18.8786 Y18.0571 Z-0.5273 F210
G01 X18.9805 Y18.0778 Z-0.5318 F210
G01 X19.0805 Y18.1063 Z-0.5364 F210
G01 X19.1779 Y18.1426 Z-0.5409 F210
G01 X19.2722 Y18.1864 Z-0.5455 F210
G01 X19.3628 Y18.2374 Z-0.5500 F210
G01 X19.4491 Y18.2954 Z-0.5546 F210
G01 X19.5306 Y18.3599 Z-0.5591 F210
G01 X19.6068 Y18.4306 Z-0.5637 F210
G01 X19.6773 Y18.5071 Z-0.5682 F210
G01 X19.7415 Y18.5888 Z-0.5728 F210
G01 X19.7992 Y18.6753 Z-0.5773 F210
G01 X19.8499 Y18.7661 Z-0.5819 F210
G01 X19.8934 Y18.8605 Z-0.5864 F210
G01 X19.9293 Y18.9580 Z-0.5910 F210
G01 X19.9574 Y19.0574 Z-0.5955 F210
G01 X19.9777 Y19.1586 Z-0.6000 F210
G01 X19.9900 Y19.2611 Z-0.6045 F210
G01 X19.9944 Y19.3643 Z-0.6090 F210
G01 X19.9907 Y19.4674 Z-0.6136 F210
G01 X19.9791 Y19.5700 Z-0.6181 F210
G01 X19.9595 Y19.6714 Z-0.6226 F210
G01 X19.9321 Y19.7709 Z-0.6271 F210
G01 X19.8970 Y19.8680 Z-0.6316 F210
G01 X19.8545 Y19.9621 Z-0.6362 F210
G01 X19.8048 Y20.0526 Z-0.6407 F210
G01 X19.7483 Y20.1390 Z-0.6452 F210
G01 X19.6852 Y20.2207 Z-0.6497 F210
G01 X19.6159 Y20.2973 Z-0.6542 F210
G01 X19.5409 Y20.3682 Z-0.6587 F210
G01 X19.4607 Y20.4332 Z-0.6633 F210
G01 X19.3756 Y20.4916 Z-0.6678 F210
G01 X19.2862 Y20.5433 Z-0.6723 F210
G01 X19.1931 Y20.5880 Z-0.6768 F210
G01 X19.0968 Y20.6252 Z-0.6813 F210
G01 X18.9979 Y20.6548 Z-0.6858 F210
G01 X18.8970 Y20.6767 Z-0.6904 F210
G01 X18.7947 Y20.6907 Z-0.6949 F210
G01 X18.6917 Y20.6967 Z-0.6994 F210
G01 X18.5885 Y20.6947 Z-0.7039 F210
G01 X18.4857 Y20.6846 Z-0.7084 F210
G01 X18.3840 Y20.6666 Z-0.7129 F210
G01 X18.2841 Y20.6408 Z-0.7175 F210
G01 X18.1864 Y20.6072 Z-0.7220 F210
G01 X18.0917 Y20.5662 Z-0.7265 F210
G01 X18.0004 Y20.5180 Z-0.7310 F210
G01 X17.9132 Y20.4628 Z-0.7355 F210
G01 X17.8305 Y20.4010 Z-0.7401 F210
G01 X17.7528 Y20.3330 Z-0.7446 F210
G01 X17.6807 Y20.2591 Z-0.7491 F210
G01 X17.6145 Y20.1799 Z-0.7536 F210
G01 X17.5547 Y20.0957 Z-0.7581 F210
G01 X17.5016 Y20.0072 Z-0.7626 F210
G01 X17.4555 Y19.9148 Z-0.7672 F210
G01 X17.4168 Y19.8191 Z-0.7717 F210
G01 X17.6111 Y19.7686 Z-0.7805 F210
G01 X19.7205 Z-0.8727 F210
G01 Y18.9686 Z-0.9077 F210
G01 X17.6111 Z-1.0000 F210
G01 X19.7205 F480
G01 Y19.7686 F480
G01 X17.6111 F480
G01 X17.4168 Y19.8191 F480
G01 X17.4555 Y19.9148 F480
G01 X17.5016 Y20.0072 F480
G01 X17.5547 Y20.0957 F480
G01 X17.6145 Y20.1799 F480
G01 X17.6807 Y20.2591 F480
G01 X17.7528 Y20.3330 F480
G01 X17.8305 Y20.4010 F480
G01 X17.9132 Y20.4628 F480
G01 X18.0004 Y20.5180 F480
G01 X18.0917 Y20.5662 F480
G01 X18.1864 Y20.6072 F480
G01 X18.2841 Y20.6408 F480
G01 X18.3840 Y20.6666 F480
G01 X18.4857 Y20.6846 F480
G01 X18.5885 Y20.6947 F480
G01 X18.6917 Y20.6967 F480
G01 X18.7947 Y20.6907 F480
G01 X18.8970 Y20.6767 F480
G01 X18.9979 Y20.6548 F480
G01 X19.0968 Y20.6252 F480
G01 X19.1931 Y20.5880 F480
G01 X19.2862 Y20.5433 F480
G01 X19.3756 Y20.4916 F480
G01 X19.4607 Y20.4332 F480
G01 X19.5409 Y20.3682 F480
G01 X19.6159 Y20.2973 F480
G01 X19.6852 Y20.2207 F480
G01 X19.7483 Y20.1390 F480
G01 X19.8048 Y20.0526 F480
G01 X19.8545 Y19.9621 F480
G01 X19.8970 Y19.8680 F480
G01 X19.9321 Y19.7709 F480
G01 X19.9595 Y19.6714 F480
G01 X19.9791 Y19.5700 F480
G01 X19.9907 Y19.4674 F480
G01 X19.9944 Y19.3643 F480
G01 X19.9900 Y19.2611 F480
G01 X19.9777 Y19.1586 F480
G01 X19.9574 Y19.0574 F480
G01 X19.9293 Y18.9580 F480
G01 X19.8928 Y18.8592 F480
G01 X19.8486 Y18.7636 F480
G01 X19.7970 Y18.6717 F480
G01 X19.7382 Y18.5843 F480
G01 X19.6727 Y18.5017 F480
G01 X19.6008 Y18.4247 F480
G01 X19.5231 Y18.3535 F480
G01 X19.4400 Y18.2888 F480
G01 X19.3520 Y18.2308 F480
G01 X19.2597 Y18.1800 F480
G01 X19.1636 Y18.1367 F480
G01 X19.0644 Y18.1011 F480
G01 X18.9628 Y18.0735 F480
G01 X18.8592 Y18.0541 F480
G01 X18.7544 Y18.0429 F480
G01 X18.6491 Y18.0401 F480
G01 X18.5439 Y18.0456 F480
G01 X18.4394 Y18.0595 F480
G01 X18.3364 Y18.0815 F480
G01 X18.2354 Y18.1117 F480
G01 X18.1372 Y18.1498 F480
G01 X18.0423 Y18.1956 F480
G01 X17.9513 Y18.2487 F480
G01 X17.8648 Y18.3089 F480
G01 X17.7834 Y18.3757 F480
G01 X17.7075 Y18.4488 F480
G01 X17.6376 Y18.5277 F480
G01 X17.5742 Y18.6118 F480
G01 X17.5177 Y18.7008 F480
G01 X17.4684 Y18.7939 F480
G01 X17.4267 Y18.8906 F480
G01 X17.3927 Y18.9904 F480
G01 X17.3668 Y19.0925 F480
G01 X17.3490 Y19.1964 F480
G01 X17.3395 Y19.3013 F480
G01 X17.3384 Y19.4067 F480
G01 X17.3456 Y19.5118 F480
G01 X17.3612 Y19.6160 F480
G01 X17.3849 Y19.7187 F480
G01 X17.4168 Y19.8191 F480
G01 X17.6111 Y19.7686 F480
G00 Z3.0000 F400


;No. 2: Hole 1
G00 X18.5826 Y19.2693 Z3.0000 F4000
G00 Z0.5000 F400
G01 Z0.0000 F210
G01 X18.5754 Y19.2758 Z-0.0121 F210
G01 X18.5687 Y19.2829 Z-0.0241 F210
G01 X18.5626 Y19.2904 Z-0.0362 F210
G01 X18.5570 Y19.2983 Z-0.0482 F210
G01 X18.5521 Y19.3066 Z-0.0603 F210
G01 X18.5478 Y19.3153 Z-0.0723 F210
G01 X18.5441 Y19.3243 Z-0.0844 F210
G01 X18.5411 Y19.3335 Z-0.0964 F210
G01 X18.5389 Y19.3429 Z-0.1085 F210
G01 X18.5373 Y19.3525 Z-0.1205 F210
G01 X18.5364 Y19.3621 Z-0.1326 F210
G01 X18.5363 Y19.3718 Z-0.1446 F210
G01 X18.5369 Y19.3815 Z-0.1567 F210
G01 X18.5383 Y19.3911 Z-0.1687 F210
G01 X18.5403 Y19.4005 Z-0.1808 F210
G01 X18.5430 Y19.4098 Z-0.1928 F210
G01 X18.5465 Y19.4189 Z-0.2049 F210
G01 X18.5506 Y19.4277 Z-0.2170 F210
G01 X18.5553 Y19.4361 Z-0.2290 F210
G01 X18.5606 Y19.4442 Z-0.2411 F210
G01 X18.5666 Y19.4518 Z-0.2531 F210
G01 X18.5731 Y19.4590 Z-0.2652 F210
G01 X18.5801 Y19.4657 Z-0.2772 F210
G01 X18.5876 Y19.4718 Z-0.2893 F210
G01 X18.5955 Y19.4774 Z-0.3013 F210
G01 X18.6039 Y19.4823 Z-0.3134 F210
G01 X18.6125 Y19.4867 Z-0.3254 F210
G01 X18.6215 Y19.4903 Z-0.3375 F210
G01 X18.6307 Y19.4933 Z-0.3495 F210
G01 X18.6402 Y19.4955 Z-0.3616 F210
G01 X18.6497 Y19.4971 Z-0.3736 F210
G01 X18.6594 Y19.4980 Z-0.3857 F210
G01 X18.6691 Y19.4981 Z-0.3977 F210
G01 X18.6787 Y19.4975 Z-0.4098 F210
G01 X18.6883 Y19.4961 Z-0.4218 F210
G01 X18.6978 Y19.4941 Z-0.4339 F210
G01 X18.7071 Y19.4914 Z-0.4460 F210
G01 X18.7161 Y19.4879 Z-0.4580 F210
G01 X18.7249 Y19.4839 Z-0.4701 F210
G01 X18.7334 Y19.4791 Z-0.4821 F210
G01 X18.7414 Y19.4738 Z-0.4942 F210
G01 X18.7491 Y19.4678 Z-0.5062 F210
G01 X18.7563 Y19.4613 Z-0.5183 F210
G01 X18.7630 Y19.4543 Z-0.5303 F210
G01 X18.7691 Y19.4468 Z-0.5424 F210
G01 X18.7746 Y19.4389 Z-0.5544 F210
G01 X18.7796 Y19.4305 Z-0.5665 F210
G01 X18.7839 Y19.4219 Z-0.5785 F210
G01 X18.7876 Y19.4129 Z-0.5906 F210
G01 X18.7905 Y19.4037 Z-0.6026 F210
G01 X18.7928 Y19.3942 Z-0.6147 F210
G01 X18.7944 Y19.3847 Z-0.6267 F210
G01 X18.7952 Y19.3750 Z-0.6388 F210
G01 X18.7953 Y19.3653 Z-0.6509 F210
G01 X18.7947 Y19.3557 Z-0.6629 F210
G01 X18.7934 Y19.3461 Z-0.6750 F210
G01 X18.7915 Y19.3370 Z-0.6866 F210
G01 X18.7888 Y19.3280 Z-0.6982 F210
G01 X18.7856 Y19.3192 Z-0.7098 F210
G01 X18.7817 Y19.3108 Z-0.7214 F210
G01 X18.7773 Y19.3026 Z-0.7330 F210
G01 X18.7722 Y19.2947 Z-0.7446 F210
G01 X18.7667 Y19.2872 Z-0.7562 F210
G01 X18.7605 Y19.2802 Z-0.7678 F210
G01 X18.7539 Y19.2736 Z-0.7794 F210
G01 X18.7469 Y19.2675 Z-0.7910 F210
G01 X18.7394 Y19.2619 Z-0.8027 F210
G01 X18.7315 Y19.2569 Z-0.8143 F210
G01 X18.7233 Y19.2525 Z-0.8259 F210
G01 X18.7148 Y19.2486 Z-0.8375 F210
G01 X18.7060 Y19.2454 Z-0.8491 F210
G01 X18.6971 Y19.2429 Z-0.8607 F210
G01 X18.6879 Y19.2409 Z-0.8723 F210
G01 X18.6787 Y19.2397 Z-0.8839 F210
G01 X18.6694 Y19.2391 Z-0.8955 F210
G01 X18.6601 Y19.2392 Z-0.9071 F210
G01 X18.6508 Y19.2399 Z-0.9187 F210
G01 X18.6415 Y19.2413 Z-0.9303 F210
G01 X18.6324 Y19.2434 Z-0.9420 F210
G01 X18.6235 Y19.2461 Z-0.9536 F210
G01 X18.6148 Y19.2495 Z-0.9652 F210
G01 X18.6064 Y19.2535 Z-0.9768 F210
G01 X18.5982 Y19.2581 Z-0.9884 F210
G01 X18.5905 Y19.2632 Z-1.0000 F210
G01 X18.5982 Y19.2581 Z-1.0116 F210
G01 X18.6064 Y19.2535 Z-1.0232 F210
G01 X18.6148 Y19.2495 Z-1.0348 F210
G01 X18.6235 Y19.2461 Z-1.0464 F210
G01 X18.6324 Y19.2434 Z-1.0580 F210
G01 X18.6415 Y19.2413 Z-1.0697 F210
G01 X18.6508 Y19.2399 Z-1.0813 F210
G01 X18.6601 Y19.2392 Z-1.0929 F210
G01 X18.6694 Y19.2391 Z-1.1045 F210
G01 X18.6787 Y19.2397 Z-1.1161 F210
G01 X18.6879 Y19.2409 Z-1.1277 F210
G01 X18.6971 Y19.2429 Z-1.1393 F210
G01 X18.7060 Y19.2454 Z-1.1509 F210
G01 X18.7148 Y19.2486 Z-1.1625 F210
G01 X18.7233 Y19.2525 Z-1.1741 F210
G01 X18.7315 Y19.2569 Z-1.1857 F210
G01 X18.7394 Y19.2619 Z-1.1973 F210
G01 X18.7469 Y19.2675 Z-1.2090 F210
G01 X18.7539 Y19.2736 Z-1.2206 F210
G01 X18.7605 Y19.2802 Z-1.2322 F210
G01 X18.7667 Y19.2872 Z-1.2438 F210
G01 X18.7722 Y19.2947 Z-1.2554 F210
G01 X18.7773 Y19.3026 Z-1.2670 F210
G01 X18.7817 Y19.3108 Z-1.2786 F210
G01 X18.7856 Y19.3192 Z-1.2902 F210
G01 X18.7888 Y19.3280 Z-1.3018 F210
G01 X18.7915 Y19.3370 Z-1.3134 F210
G01 X18.7934 Y19.3461 Z-1.3250 F210
G01 X18.7947 Y19.3557 Z-1.3371 F210
G01 X18.7953 Y19.3653 Z-1.3491 F210
G01 X18.7952 Y19.3750 Z-1.3612 F210
G01 X18.7944 Y19.3847 Z-1.3733 F210
G01 X18.7928 Y19.3942 Z-1.3853 F210
G01 X18.7905 Y19.4037 Z-1.3974 F210
G01 X18.7876 Y19.4129 Z-1.4094 F210
G01 X18.7839 Y19.4219 Z-1.4215 F210
G01 X18.7796 Y19.4305 Z-1.4335 F210
G01 X18.7746 Y19.4389 Z-1.4456 F210
G01 X18.7691 Y19.4468 Z-1.4576 F210
G01 X18.7630 Y19.4543 Z-1.4697 F210
G01 X18.7563 Y19.4613 Z-1.4817 F210
G01 X18.7491 Y19.4678 Z-1.4938 F210
G01 X18.7414 Y19.4738 Z-1.5058 F210
G01 X18.7334 Y19.4791 Z-1.5179 F210
G01 X18.7249 Y19.4839 Z-1.5299 F210
G01 X18.7161 Y19.4879 Z-1.5420 F210
G01 X18.7071 Y19.4914 Z-1.5540 F210
G01 X18.6978 Y19.4941 Z-1.5661 F210
G01 X18.6883 Y19.4961 Z-1.5782 F210
G01 X18.6787 Y19.4975 Z-1.5902 F210
G01 X18.6691 Y19.4981 Z-1.6023 F210
G01 X18.6594 Y19.4980 Z-1.6143 F210
G01 X18.6497 Y19.4971 Z-1.6264 F210
G01 X18.6402 Y19.4955 Z-1.6384 F210
G01 X18.6307 Y19.4933 Z-1.6505 F210
G01 X18.6215 Y19.4903 Z-1.6625 F210
G01 X18.6125 Y19.4867 Z-1.6746 F210
G01 X18.6039 Y19.4823 Z-1.6866 F210
G01 X18.5955 Y19.4774 Z-1.6987 F210
G01 X18.5876 Y19.4718 Z-1.7107 F210
G01 X18.5801 Y19.4657 Z-1.7228 F210
G01 X18.5731 Y19.4590 Z-1.7348 F210
G01 X18.5666 Y19.4518 Z-1.7469 F210
G01 X18.5606 Y19.4442 Z-1.7589 F210
G01 X18.5553 Y19.4361 Z-1.7710 F210
G01 X18.5506 Y19.4277 Z-1.7830 F210
G01 X18.5465 Y19.4189 Z-1.7951 F210
G01 X18.5430 Y19.4098 Z-1.8072 F210
G01 X18.5403 Y19.4005 Z-1.8192 F210
G01 X18.5383 Y19.3911 Z-1.8313 F210
G01 X18.5369 Y19.3815 Z-1.8433 F210
G01 X18.5363 Y19.3718 Z-1.8554 F210
G01 X18.5364 Y19.3621 Z-1.8674 F210
G01 X18.5373 Y19.3525 Z-1.8795 F210
G01 X18.5389 Y19.3429 Z-1.8915 F210
G01 X18.5411 Y19.3335 Z-1.9036 F210
G01 X18.5441 Y19.3243 Z-1.9156 F210
G01 X18.5478 Y19.3153 Z-1.9277 F210
G01 X18.5521 Y19.3066 Z-1.9397 F210
G01 X18.5570 Y19.2983 Z-1.9518 F210
G01 X18.5626 Y19.2904 Z-1.9638 F210
G01 X18.5687 Y19.2829 Z-1.9759 F210
G01 X18.5754 Y19.2758 Z-1.9879 F210
G01 X18.5826 Y19.2693 Z-2.0000 F210
G01 X18.5754 Y19.2758 F480
G01 X18.5687 Y19.2829 F480
G01 X18.5626 Y19.2904 F480
G01 X18.5570 Y19.2983 F480
G01 X18.5521 Y19.3066 F480
G01 X18.5478 Y19.3153 F480
G01 X18.5441 Y19.3243 F480
G01 X18.5411 Y19.3335 F480
G01 X18.5389 Y19.3429 F480
G01 X18.5373 Y19.3525 F480
G01 X18.5364 Y19.3621 F480
G01 X18.5363 Y19.3718 F480
G01 X18.5369 Y19.3815 F480
G01 X18.5383 Y19.3911 F480
G01 X18.5403 Y19.4005 F480
G01 X18.5430 Y19.4098 F480
G01 X18.5465 Y19.4189 F480
G01 X18.5506 Y19.4277 F480
G01 X18.5553 Y19.4361 F480
G01 X18.5606 Y19.4442 F480
G01 X18.5666 Y19.4518 F480
G01 X18.5731 Y19.4590 F480
G01 X18.5801 Y19.4657 F480
G01 X18.5876 Y19.4718 F480
G01 X18.5955 Y19.4774 F480
G01 X18.6039 Y19.4823 F480
G01 X18.6125 Y19.4867 F480
G01 X18.6215 Y19.4903 F480
G01 X18.6307 Y19.4933 F480
G01 X18.6402 Y19.4955 F480
G01 X18.6497 Y19.4971 F480
G01 X18.6594 Y19.4980 F480
G01 X18.6691 Y19.4981 F480
G01 X18.6787 Y19.4975 F480
G01 X18.6883 Y19.4961 F480
G01 X18.6978 Y19.4941 F480
G01 X18.7071 Y19.4914 F480
G01 X18.7161 Y19.4879 F480
G01 X18.7249 Y19.4839 F480
G01 X18.7334 Y19.4791 F480
G01 X18.7414 Y19.4738 F480
G01 X18.7491 Y19.4678 F480
G01 X18.7563 Y19.4613 F480
G01 X18.7630 Y19.4543 F480
G01 X18.7691 Y19.4468 F480
G01 X18.7746 Y19.4389 F480
G01 X18.7796 Y19.4305 F480
G01 X18.7839 Y19.4219 F480
G01 X18.7876 Y19.4129 F480
G01 X18.7905 Y19.4037 F480
G01 X18.7928 Y19.3942 F480
G01 X18.7944 Y19.3847 F480
G01 X18.7952 Y19.3750 F480
G01 X18.7953 Y19.3653 F480
G01 X18.7947 Y19.3557 F480
G01 X18.7934 Y19.3461 F480
G01 X18.7914 Y19.3366 F480
G01 X18.7886 Y19.3273 F480
G01 X18.7852 Y19.3183 F480
G01 X18.7811 Y19.3095 F480
G01 X18.7764 Y19.3010 F480
G01 X18.7710 Y19.2930 F480
G01 X18.7651 Y19.2853 F480
G01 X18.7586 Y19.2781 F480
G01 X18.7515 Y19.2714 F480
G01 X18.7440 Y19.2653 F480
G01 X18.7361 Y19.2598 F480
G01 X18.7278 Y19.2548 F480
G01 X18.7191 Y19.2505 F480
G01 X18.7101 Y19.2468 F480
G01 X18.7009 Y19.2439 F480
G01 X18.6915 Y19.2416 F480
G01 X18.6819 Y19.2400 F480
G01 X18.6723 Y19.2392 F480
G01 X18.6626 Y19.2391 F480
G01 X18.6529 Y19.2397 F480
G01 X18.6433 Y19.2410 F480
G01 X18.6339 Y19.2430 F480
G01 X18.6246 Y19.2458 F480
G01 X18.6155 Y19.2492 F480
G01 X18.6067 Y19.2533 F480
G01 X18.5983 Y19.2580 F480
G01 X18.5902 Y19.2634 F480
G01 X18.5826 Y19.2693 F480
G01 X18.5754 Y19.2758 Z-2.0060 F210
G01 X18.5687 Y19.2829 Z-2.0121 F210
G01 X18.5626 Y19.2904 Z-2.0181 F210
G01 X18.5570 Y19.2983 Z-2.0241 F210
G01 X18.5521 Y19.3066 Z-2.0301 F210
G01 X18.5478 Y19.3153 Z-2.0362 F210
G01 X18.5441 Y19.3243 Z-2.0422 F210
G01 X18.5411 Y19.3335 Z-2.0482 F210
G01 X18.5389 Y19.3429 Z-2.0542 F210
G01 X18.5373 Y19.3525 Z-2.0603 F210
G01 X18.5364 Y19.3621 Z-2.0663 F210
G01 X18.5363 Y19.3718 Z-2.0723 F210
G01 X18.5369 Y19.3815 Z-2.0783 F210
G01 X18.5383 Y19.3911 Z-2.0844 F210
G01 X18.5403 Y19.4005 Z-2.0904 F210
G01 X18.5430 Y19.4098 Z-2.0964 F210
G01 X18.5465 Y19.4189 Z-2.1024 F210
G01 X18.5506 Y19.4277 Z-2.1085 F210
G01 X18.5553 Y19.4361 Z-2.1145 F210
G01 X18.5606 Y19.4442 Z-2.1205 F210
G01 X18.5666 Y19.4518 Z-2.1266 F210
G01 X18.5731 Y19.4590 Z-2.1326 F210
G01 X18.5801 Y19.4657 Z-2.1386 F210
G01 X18.5876 Y19.4718 Z-2.1446 F210
G01 X18.5955 Y19.4774 Z-2.1507 F210
G01 X18.6039 Y19.4823 Z-2.1567 F210
G01 X18.6125 Y19.4867 Z-2.1627 F210
G01 X18.6215 Y19.4903 Z-2.1687 F210
G01 X18.6307 Y19.4933 Z-2.1748 F210
G01 X18.6402 Y19.4955 Z-2.1808 F210
G01 X18.6497 Y19.4971 Z-2.1868 F210
G01 X18.6594 Y19.4980 Z-2.1928 F210
G01 X18.6691 Y19.4981 Z-2.1989 F210
G01 X18.6787 Y19.4975 Z-2.2049 F210
G01 X18.6883 Y19.4961 Z-2.2109 F210
G01 X18.6978 Y19.4941 Z-2.2170 F210
G01 X18.7071 Y19.4914 Z-2.2230 F210
G01 X18.7161 Y19.4879 Z-2.2290 F210
G01 X18.7249 Y19.4839 Z-2.2350 F210
G01 X18.7334 Y19.4791 Z-2.2411 F210
G01 X18.7414 Y19.4738 Z-2.2471 F210
G01 X18.7491 Y19.4678 Z-2.2531 F210
G01 X18.7563 Y19.4613 Z-2.2591 F210
G01 X18.7630 Y19.4543 Z-2.2652 F210
G01 X18.7691 Y19.4468 Z-2.2712 F210
G01 X18.7746 Y19.4389 Z-2.2772 F210
G01 X18.7796 Y19.4305 Z-2.2832 F210
G01 X18.7839 Y19.4219 Z-2.2893 F210
G01 X18.7876 Y19.4129 Z-2.2953 F210
G01 X18.7905 Y19.4037 Z-2.3013 F210
G01 X18.7928 Y19.3942 Z-2.3073 F210
G01 X18.7944 Y19.3847 Z-2.3134 F210
G01 X18.7952 Y19.3750 Z-2.3194 F210
G01 X18.7953 Y19.3653 Z-2.3254 F210
G01 X18.7947 Y19.3557 Z-2.3315 F210
G01 X18.7934 Y19.3461 Z-2.3375 F210
G01 X18.7915 Y19.3370 Z-2.3433 F210
G01 X18.7888 Y19.3280 Z-2.3491 F210
G01 X18.7856 Y19.3192 Z-2.3549 F210
G01 X18.7817 Y19.3108 Z-2.3607 F210
G01 X18.7773 Y19.3026 Z-2.3665 F210
G01 X18.7722 Y19.2947 Z-2.3723 F210
G01 X18.7667 Y19.2872 Z-2.3781 F210
G01 X18.7605 Y19.2802 Z-2.3839 F210
G01 X18.7539 Y19.2736 Z-2.3897 F210
G01 X18.7469 Y19.2675 Z-2.3955 F210
G01 X18.7394 Y19.2619 Z-2.4013 F210
G01 X18.7315 Y19.2569 Z-2.4071 F210
G01 X18.7233 Y19.2525 Z-2.4129 F210
G01 X18.7148 Y19.2486 Z-2.4187 F210
G01 X18.7060 Y19.2454 Z-2.4245 F210
G01 X18.6971 Y19.2429 Z-2.4303 F210
G01 X18.6879 Y19.2409 Z-2.4362 F210
G01 X18.6787 Y19.2397 Z-2.4420 F210
G01 X18.6694 Y19.2391 Z-2.4478 F210
G01 X18.6601 Y19.2392 Z-2.4536 F210
G01 X18.6508 Y19.2399 Z-2.4594 F210
G01 X18.6415 Y19.2413 Z-2.4652 F210
G01 X18.6324 Y19.2434 Z-2.4710 F210
G01 X18.6235 Y19.2461 Z-2.4768 F210
G01 X18.6148 Y19.2495 Z-2.4826 F210
G01 X18.6064 Y19.2535 Z-2.4884 F210
G01 X18.5982 Y19.2581 Z-2.4942 F210
G01 X18.5905 Y19.2632 Z-2.5000 F210
G01 X18.5982 Y19.2581 Z-2.5058 F210
G01 X18.6064 Y19.2535 Z-2.5116 F210
G01 X18.6148 Y19.2495 Z-2.5174 F210
G01 X18.6235 Y19.2461 Z-2.5232 F210
G01 X18.6324 Y19.2434 Z-2.5290 F210
G01 X18.6415 Y19.2413 Z-2.5348 F210
G01 X18.6508 Y19.2399 Z-2.5406 F210
G01 X18.6601 Y19.2392 Z-2.5464 F210
G01 X18.6694 Y19.2391 Z-2.5522 F210
G01 X18.6787 Y19.2397 Z-2.5580 F210
G01 X18.6879 Y19.2409 Z-2.5638 F210
G01 X18.6971 Y19.2429 Z-2.5697 F210
G01 X18.7060 Y19.2454 Z-2.5755 F210
G01 X18.7148 Y19.2486 Z-2.5813 F210
G01 X18.7233 Y19.2525 Z-2.5871 F210
G01 X18.7315 Y19.2569 Z-2.5929 F210
G01 X18.7394 Y19.2619 Z-2.5987 F210
G01 X18.7469 Y19.2675 Z-2.6045 F210
G01 X18.7539 Y19.2736 Z-2.6103 F210
G01 X18.7605 Y19.2802 Z-2.6161 F210
G01 X18.7667 Y19.2872 Z-2.6219 F210
G01 X18.7722 Y19.2947 Z-2.6277 F210
G01 X18.7773 Y19.3026 Z-2.6335 F210
G01 X18.7817 Y19.3108 Z-2.6393 F210
G01 X18.7856 Y19.3192 Z-2.6451 F210
G01 X18.7888 Y19.3280 Z-2.6509 F210
G01 X18.7915 Y19.3370 Z-2.6567 F210
G01 X18.7934 Y19.3461 Z-2.6625 F210
G01 X18.7947 Y19.3557 Z-2.6685 F210
G01 X18.7953 Y19.3653 Z-2.6746 F210
G01 X18.7952 Y19.3750 Z-2.6806 F210
G01 X18.7944 Y19.3847 Z-2.6866 F210
G01 X18.7928 Y19.3942 Z-2.6927 F210
G01 X18.7905 Y19.4037 Z-2.6987 F210
G01 X18.7876 Y19.4129 Z-2.7047 F210
G01 X18.7839 Y19.4219 Z-2.7107 F210
G01 X18.7796 Y19.4305 Z-2.7168 F210
G01 X18.7746 Y19.4389 Z-2.7228 F210
G01 X18.7691 Y19.4468 Z-2.7288 F210
G01 X18.7630 Y19.4543 Z-2.7348 F210
G01 X18.7563 Y19.4613 Z-2.7409 F210
G01 X18.7491 Y19.4678 Z-2.7469 F210
G01 X18.7414 Y19.4738 Z-2.7529 F210
G01 X18.7334 Y19.4791 Z-2.7589 F210
G01 X18.7249 Y19.4839 Z-2.7650 F210
G01 X18.7161 Y19.4879 Z-2.7710 F210
G01 X18.7071 Y19.4914 Z-2.7770 F210
G01 X18.6978 Y19.4941 Z-2.7830 F210
G01 X18.6883 Y19.4961 Z-2.7891 F210
G01 X18.6787 Y19.4975 Z-2.7951 F210
G01 X18.6691 Y19.4981 Z-2.8011 F210
G01 X18.6594 Y19.4980 Z-2.8072 F210
G01 X18.6497 Y19.4971 Z-2.8132 F210
G01 X18.6402 Y19.4955 Z-2.8192 F210
G01 X18.6307 Y19.4933 Z-2.8252 F210
G01 X18.6215 Y19.4903 Z-2.8313 F210
G01 X18.6125 Y19.4867 Z-2.8373 F210
G01 X18.6039 Y19.4823 Z-2.8433 F210
G01 X18.5955 Y19.4774 Z-2.8493 F210
G01 X18.5876 Y19.4718 Z-2.8554 F210
G01 X18.5801 Y19.4657 Z-2.8614 F210
G01 X18.5731 Y19.4590 Z-2.8674 F210
G01 X18.5666 Y19.4518 Z-2.8734 F210
G01 X18.5606 Y19.4442 Z-2.8795 F210
G01 X18.5553 Y19.4361 Z-2.8855 F210
G01 X18.5506 Y19.4277 Z-2.8915 F210
G01 X18.5465 Y19.4189 Z-2.8976 F210
G01 X18.5430 Y19.4098 Z-2.9036 F210
G01 X18.5403 Y19.4005 Z-2.9096 F210
G01 X18.5383 Y19.3911 Z-2.9156 F210
G01 X18.5369 Y19.3815 Z-2.9217 F210
G01 X18.5363 Y19.3718 Z-2.9277 F210
G01 X18.5364 Y19.3621 Z-2.9337 F210
G01 X18.5373 Y19.3525 Z-2.9397 F210
G01 X18.5389 Y19.3429 Z-2.9458 F210
G01 X18.5411 Y19.3335 Z-2.9518 F210
G01 X18.5441 Y19.3243 Z-2.9578 F210
G01 X18.5478 Y19.3153 Z-2.9638 F210
G01 X18.5521 Y19.3066 Z-2.9699 F210
G01 X18.5570 Y19.2983 Z-2.9759 F210
G01 X18.5626 Y19.2904 Z-2.9819 F210
G01 X18.5687 Y19.2829 Z-2.9879 F210
G01 X18.5754 Y19.2758 Z-2.9940 F210
G01 X18.5826 Y19.2693 Z-3.0000 F210
G01 X18.5754 Y19.2758 F480
G01 X18.5687 Y19.2829 F480
G01 X18.5626 Y19.2904 F480
G01 X18.5570 Y19.2983 F480
G01 X18.5521 Y19.3066 F480
G01 X18.5478 Y19.3153 F480
G01 X18.5441 Y19.3243 F480
G01 X18.5411 Y19.3335 F480
G01 X18.5389 Y19.3429 F480
G01 X18.5373 Y19.3525 F480
G01 X18.5364 Y19.3621 F480
G01 X18.5363 Y19.3718 F480
G01 X18.5369 Y19.3815 F480
G01 X18.5383 Y19.3911 F480
G01 X18.5403 Y19.4005 F480
G01 X18.5430 Y19.4098 F480
G01 X18.5465 Y19.4189 F480
G01 X18.5506 Y19.4277 F480
G01 X18.5553 Y19.4361 F480
G01 X18.5606 Y19.4442 F480
G01 X18.5666 Y19.4518 F480
G01 X18.5731 Y19.4590 F480
G01 X18.5801 Y19.4657 F480
G01 X18.5876 Y19.4718 F480
G01 X18.5955 Y19.4774 F480
G01 X18.6039 Y19.4823 F480
G01 X18.6125 Y19.4867 F480
G01 X18.6215 Y19.4903 F480
G01 X18.6307 Y19.4933 F480
G01 X18.6402 Y19.4955 F480
G01 X18.6497 Y19.4971 F480
G01 X18.6594 Y19.4980 F480
G01 X18.6691 Y19.4981 F480
G01 X18.6787 Y19.4975 F480
G01 X18.6883 Y19.4961 F480
G01 X18.6978 Y19.4941 F480
G01 X18.7071 Y19.4914 F480
G01 X18.7161 Y19.4879 F480
G01 X18.7249 Y19.4839 F480
G01 X18.7334 Y19.4791 F480
G01 X18.7414 Y19.4738 F480
G01 X18.7491 Y19.4678 F480
G01 X18.7563 Y19.4613 F480
G01 X18.7630 Y19.4543 F480
G01 X18.7691 Y19.4468 F480
G01 X18.7746 Y19.4389 F480
G01 X18.7796 Y19.4305 F480
G01 X18.7839 Y19.4219 F480
G01 X18.7876 Y19.4129 F480
G01 X18.7905 Y19.4037 F480
G01 X18.7928 Y19.3942 F480
G01 X18.7944 Y19.3847 F480
G01 X18.7952 Y19.3750 F480
G01 X18.7953 Y19.3653 F480
G01 X18.7947 Y19.3557 F480
G01 X18.7934 Y19.3461 F480
G01 X18.7914 Y19.3366 F480
G01 X18.7886 Y19.3273 F480
G01 X18.7852 Y19.3183 F480
G01 X18.7811 Y19.3095 F480
G01 X18.7764 Y19.3010 F480
G01 X18.7710 Y19.2930 F480
G01 X18.7651 Y19.2853 F480
G01 X18.7586 Y19.2781 F480
G01 X18.7515 Y19.2714 F480
G01 X18.7440 Y19.2653 F480
G01 X18.7361 Y19.2598 F480
G01 X18.7278 Y19.2548 F480
G01 X18.7191 Y19.2505 F480
G01 X18.7101 Y19.2468 F480
G01 X18.7009 Y19.2439 F480
G01 X18.6915 Y19.2416 F480
G01 X18.6819 Y19.2400 F480
G01 X18.6723 Y19.2392 F480
G01 X18.6626 Y19.2391 F480
G01 X18.6529 Y19.2397 F480
G01 X18.6433 Y19.2410 F480
G01 X18.6339 Y19.2430 F480
G01 X18.6246 Y19.2458 F480
G01 X18.6155 Y19.2492 F480
G01 X18.6067 Y19.2533 F480
G01 X18.5983 Y19.2580 F480
G01 X18.5902 Y19.2634 F480
G01 X18.5826 Y19.2693 F480
G00 Z3.0000 F400


;No. 3: Hole 3
G00 X23.8764 Y19.5137 Z3.0000 F4000
G00 Z0.5000 F400
G01 Z0.0000 F210
G01 X23.8698 Y19.5208 Z-0.0121 F210
G01 X23.8638 Y19.5284 Z-0.0241 F210
G01 X23.8584 Y19.5364 Z-0.0362 F210
G01 X23.8535 Y19.5447 Z-0.0482 F210
G01 X23.8493 Y19.5535 Z-0.0603 F210
G01 X23.8458 Y19.5625 Z-0.0723 F210
G01 X23.8429 Y19.5717 Z-0.0844 F210
G01 X23.8408 Y19.5812 Z-0.0964 F210
G01 X23.8393 Y19.5908 Z-0.1085 F210
G01 X23.8386 Y19.6004 Z-0.1205 F210
G01 Y19.6101 Z-0.1326 F210
G01 X23.8393 Y19.6198 Z-0.1446 F210
G01 X23.8408 Y19.6294 Z-0.1567 F210
G01 X23.8429 Y19.6388 Z-0.1687 F210
G01 X23.8458 Y19.6481 Z-0.1808 F210
G01 X23.8493 Y19.6571 Z-0.1928 F210
G01 X23.8535 Y19.6658 Z-0.2049 F210
G01 X23.8584 Y19.6742 Z-0.2170 F210
G01 X23.8638 Y19.6822 Z-0.2290 F210
G01 X23.8698 Y19.6898 Z-0.2411 F210
G01 X23.8764 Y19.6969 Z-0.2531 F210
G01 X23.8835 Y19.7035 Z-0.2652 F210
G01 X23.8911 Y19.7095 Z-0.2772 F210
G01 X23.8991 Y19.7150 Z-0.2893 F210
G01 X23.9075 Y19.7198 Z-0.3013 F210
G01 X23.9162 Y19.7240 Z-0.3134 F210
G01 X23.9253 Y19.7275 Z-0.3254 F210
G01 X23.9345 Y19.7304 Z-0.3375 F210
G01 X23.9440 Y19.7326 Z-0.3495 F210
G01 X23.9535 Y19.7340 Z-0.3616 F210
G01 X23.9632 Y19.7347 Z-0.3736 F210
G01 X23.9729 Z-0.3857 F210
G01 X23.9825 Y19.7340 Z-0.3977 F210
G01 X23.9921 Y19.7326 Z-0.4098 F210
G01 X24.0016 Y19.7304 Z-0.4218 F210
G01 X24.0108 Y19.7275 Z-0.4339 F210
G01 X24.0198 Y19.7240 Z-0.4460 F210
G01 X24.0286 Y19.7198 Z-0.4580 F210
G01 X24.0370 Y19.7150 Z-0.4701 F210
G01 X24.0450 Y19.7095 Z-0.4821 F210
G01 X24.0525 Y19.7035 Z-0.4942 F210
G01 X24.0596 Y19.6969 Z-0.5062 F210
G01 X24.0662 Y19.6898 Z-0.5183 F210
G01 X24.0723 Y19.6822 Z-0.5303 F210
G01 X24.0777 Y19.6742 Z-0.5424 F210
G01 X24.0826 Y19.6658 Z-0.5544 F210
G01 X24.0868 Y19.6571 Z-0.5665 F210
G01 X24.0903 Y19.6481 Z-0.5785 F210
G01 X24.0932 Y19.6388 Z-0.5906 F210
G01 X24.0953 Y19.6294 Z-0.6026 F210
G01 X24.0968 Y19.6198 Z-0.6147 F210
G01 X24.0975 Y19.6101 Z-0.6267 F210
G01 Y19.6004 Z-0.6388 F210
G01 X24.0968 Y19.5908 Z-0.6509 F210
G01 X24.0953 Y19.5812 Z-0.6629 F210
G01 X24.0932 Y19.5717 Z-0.6750 F210
G01 X24.0904 Y19.5628 Z-0.6866 F210
G01 X24.0871 Y19.5541 Z-0.6982 F210
G01 X24.0831 Y19.5457 Z-0.7098 F210
G01 X24.0785 Y19.5376 Z-0.7214 F210
G01 X24.0733 Y19.5298 Z-0.7330 F210
G01 X24.0676 Y19.5224 Z-0.7446 F210
G01 X24.0614 Y19.5155 Z-0.7562 F210
G01 X24.0547 Y19.5090 Z-0.7678 F210
G01 X24.0475 Y19.5030 Z-0.7794 F210
G01 X24.0400 Y19.4975 Z-0.7910 F210
G01 X24.0320 Y19.4926 Z-0.8027 F210
G01 X24.0237 Y19.4883 Z-0.8143 F210
G01 X24.0152 Y19.4846 Z-0.8259 F210
G01 X24.0064 Y19.4815 Z-0.8375 F210
G01 X23.9974 Y19.4791 Z-0.8491 F210
G01 X23.9882 Y19.4773 Z-0.8607 F210
G01 X23.9789 Y19.4762 Z-0.8723 F210
G01 X23.9696 Y19.4757 Z-0.8839 F210
G01 X23.9603 Y19.4760 Z-0.8955 F210
G01 X23.9510 Y19.4769 Z-0.9071 F210
G01 X23.9418 Y19.4784 Z-0.9187 F210
G01 X23.9327 Y19.4806 Z-0.9303 F210
G01 X23.9239 Y19.4835 Z-0.9420 F210
G01 X23.9152 Y19.4870 Z-0.9536 F210
G01 X23.9068 Y19.4911 Z-0.9652 F210
G01 X23.8988 Y19.4958 Z-0.9768 F210
G01 X23.8911 Y19.5011 Z-0.9884 F210
G01 X23.8838 Y19.5069 Z-1.0000 F210
G01 X23.8911 Y19.5011 Z-1.0116 F210
G01 X23.8988 Y19.4958 Z-1.0232 F210
G01 X23.9068 Y19.4911 Z-1.0348 F210
G01 X23.9152 Y19.4870 Z-1.0464 F210
G01 X23.9239 Y19.4835 Z-1.0580 F210
G01 X23.9327 Y19.4806 Z-1.0697 F210
G01 X23.9418 Y19.4784 Z-1.0813 F210
G01 X23.9510 Y19.4769 Z-1.0929 F210
G01 X23.9603 Y19.4760 Z-1.1045 F210
G01 X23.9696 Y19.4757 Z-1.1161 F210
G01 X23.9789 Y19.4762 Z-1.1277 F210
G01 X23.9882 Y19.4773 Z-1.1393 F210
G01 X23.9974 Y19.4791 Z-1.1509 F210
G01 X24.0064 Y19.4815 Z-1.1625 F210
G01 X24.0152 Y19.4846 Z-1.1741 F210
G01 X24.0237 Y19.4883 Z-1.1857 F210
G01 X24.0320 Y19.4926 Z-1.1973 F210
G01 X24.0400 Y19.4975 Z-1.2090 F210
G01 X24.0475 Y19.5030 Z-1.2206 F210
G01 X24.0547 Y19.5090 Z-1.2322 F210
G01 X24.0614 Y19.5155 Z-1.2438 F210
G01 X24.0676 Y19.5224 Z-1.2554 F210
G01 X24.0733 Y19.5298 Z-1.2670 F210
G01 X24.0785 Y19.5376 Z-1.2786 F210
G01 X24.0831 Y19.5457 Z-1.2902 F210
G01 X24.0871 Y19.5541 Z-1.3018 F210
G01 X24.0904 Y19.5628 Z-1.3134 F210
G01 X24.0932 Y19.5717 Z-1.3250 F210
G01 X24.0953 Y19.5812 Z-1.3371 F210
G01 X24.0968 Y19.5908 Z-1.3491 F210
G01 X24.0975 Y19.6004 Z-1.3612 F210
G01 Y19.6101 Z-1.3733 F210
G01 X24.0968 Y19.6198 Z-1.3853 F210
G01 X24.0953 Y19.6294 Z-1.3974 F210
G01 X24.0932 Y19.6388 Z-1.4094 F210
G01 X24.0903 Y19.6481 Z-1.4215 F210
G01 X24.0868 Y19.6571 Z-1.4335 F210
G01 X24.0826 Y19.6658 Z-1.4456 F210
G01 X24.0777 Y19.6742 Z-1.4576 F210
G01 X24.0723 Y19.6822 Z-1.4697 F210
G01 X24.0662 Y19.6898 Z-1.4817 F210
G01 X24.0596 Y19.6969 Z-1.4938 F210
G01 X24.0525 Y19.7035 Z-1.5058 F210
G01 X24.0450 Y19.7095 Z-1.5179 F210
G01 X24.0370 Y19.7150 Z-1.5299 F210
G01 X24.0286 Y19.7198 Z-1.5420 F210
G01 X24.0198 Y19.7240 Z-1.5540 F210
G01 X24.0108 Y19.7275 Z-1.5661 F210
G01 X24.0016 Y19.7304 Z-1.5782 F210
G01 X23.9921 Y19.7326 Z-1.5902 F210
G01 X23.9825 Y19.7340 Z-1.6023 F210
G01 X23.9729 Y19.7347 Z-1.6143 F210
G01 X23.9632 Z-1.6264 F210
G01 X23.9535 Y19.7340 Z-1.6384 F210
G01 X23.9440 Y19.7326 Z-1.6505 F210
G01 X23.9345 Y19.7304 Z-1.6625 F210
G01 X23.9253 Y19.7275 Z-1.6746 F210
G01 X23.9162 Y19.7240 Z-1.6866 F210
G01 X23.9075 Y19.7198 Z-1.6987 F210
G01 X23.8991 Y19.7150 Z-1.7107 F210
G01 X23.8911 Y19.7095 Z-1.7228 F210
G01 X23.8835 Y19.7035 Z-1.7348 F210
G01 X23.8764 Y19.6969 Z-1.7469 F210
G01 X23.8698 Y19.6898 Z-1.7589 F210
G01 X23.8638 Y19.6822 Z-1.7710 F210
G01 X23.8584 Y19.6742 Z-1.7830 F210
G01 X23.8535 Y19.6658 Z-1.7951 F210
G01 X23.8493 Y19.6571 Z-1.8072 F210
G01 X23.8458 Y19.6481 Z-1.8192 F210
G01 X23.8429 Y19.6388 Z-1.8313 F210
G01 X23.8408 Y19.6294 Z-1.8433 F210
G01 X23.8393 Y19.6198 Z-1.8554 F210
G01 X23.8386 Y19.6101 Z-1.8674 F210
G01 Y19.6004 Z-1.8795 F210
G01 X23.8393 Y19.5908 Z-1.8915 F210
G01 X23.8408 Y19.5812 Z-1.9036 F210
G01 X23.8429 Y19.5717 Z-1.9156 F210
G01 X23.8458 Y19.5625 Z-1.9277 F210
G01 X23.8493 Y19.5535 Z-1.9397 F210
G01 X23.8535 Y19.5447 Z-1.9518 F210
G01 X23.8584 Y19.5364 Z-1.9638 F210
G01 X23.8638 Y19.5284 Z-1.9759 F210
G01 X23.8698 Y19.5208 Z-1.9879 F210
G01 X23.8764 Y19.5137 Z-2.0000 F210
G01 X23.8698 Y19.5208 F480
G01 X23.8638 Y19.5284 F480
G01 X23.8584 Y19.5364 F480
G01 X23.8535 Y19.5447 F480
G01 X23.8493 Y19.5535 F480
G01 X23.8458 Y19.5625 F480
G01 X23.8429 Y19.5717 F480
G01 X23.8408 Y19.5812 F480
G01 X23.8393 Y19.5908 F480
G01 X23.8386 Y19.6004 F480
G01 Y19.6101 F480
G01 X23.8393 Y19.6198 F480
G01 X23.8408 Y19.6294 F480
G01 X23.8429 Y19.6388 F480
G01 X23.8458 Y19.6481 F480
G01 X23.8493 Y19.6571 F480
G01 X23.8535 Y19.6658 F480
G01 X23.8584 Y19.6742 F480
G01 X23.8638 Y19.6822 F480
G01 X23.8698 Y19.6898 F480
G01 X23.8764 Y19.6969 F480
G01 X23.8835 Y19.7035 F480
G01 X23.8911 Y19.7095 F480
G01 X23.8991 Y19.7150 F480
G01 X23.9075 Y19.7198 F480
G01 X23.9162 Y19.7240 F480
G01 X23.9253 Y19.7275 F480
G01 X23.9345 Y19.7304 F480
G01 X23.9440 Y19.7326 F480
G01 X23.9535 Y19.7340 F480
G01 X23.9632 Y19.7347 F480
G01 X23.9729 F480
G01 X23.9825 Y19.7340 F480
G01 X23.9921 Y19.7326 F480
G01 X24.0016 Y19.7304 F480
G01 X24.0108 Y19.7275 F480
G01 X24.0198 Y19.7240 F480
G01 X24.0286 Y19.7198 F480
G01 X24.0370 Y19.7150 F480
G01 X24.0450 Y19.7095 F480
G01 X24.0525 Y19.7035 F480
G01 X24.0596 Y19.6969 F480
G01 X24.0662 Y19.6898 F480
G01 X24.0723 Y19.6822 F480
G01 X24.0777 Y19.6742 F480
G01 X24.0826 Y19.6658 F480
G01 X24.0868 Y19.6571 F480
G01 X24.0903 Y19.6481 F480
G01 X24.0932 Y19.6388 F480
G01 X24.0953 Y19.6294 F480
G01 X24.0968 Y19.6198 F480
G01 X24.0975 Y19.6101 F480
G01 Y19.6004 F480
G01 X24.0968 Y19.5908 F480
G01 X24.0953 Y19.5812 F480
G01 X24.0932 Y19.5717 F480
G01 X24.0903 Y19.5625 F480
G01 X24.0868 Y19.5535 F480
G01 X24.0826 Y19.5447 F480
G01 X24.0777 Y19.5364 F480
G01 X24.0723 Y19.5284 F480
G01 X24.0662 Y19.5208 F480
G01 X24.0596 Y19.5137 F480
G01 X24.0525 Y19.5071 F480
G01 X24.0450 Y19.5010 F480
G01 X24.0370 Y19.4956 F480
G01 X24.0286 Y19.4907 F480
G01 X24.0198 Y19.4865 F480
G01 X24.0108 Y19.4830 F480
G01 X24.0016 Y19.4801 F480
G01 X23.9921 Y19.4780 F480
G01 X23.9825 Y19.4765 F480
G01 X23.9729 Y19.4758 F480
G01 X23.9632 F480
G01 X23.9535 Y19.4765 F480
G01 X23.9440 Y19.4780 F480
G01 X23.9345 Y19.4801 F480
G01 X23.9253 Y19.4830 F480
G01 X23.9162 Y19.4865 F480
G01 X23.9075 Y19.4907 F480
G01 X23.8991 Y19.4956 F480
G01 X23.8911 Y19.5010 F480
G01 X23.8835 Y19.5071 F480
G01 X23.8764 Y19.5137 F480
G01 X23.8698 Y19.5208 Z-2.0060 F210
G01 X23.8638 Y19.5284 Z-2.0121 F210
G01 X23.8584 Y19.5364 Z-2.0181 F210
G01 X23.8535 Y19.5447 Z-2.0241 F210
G01 X23.8493 Y19.5535 Z-2.0301 F210
G01 X23.8458 Y19.5625 Z-2.0362 F210
G01 X23.8429 Y19.5717 Z-2.0422 F210
G01 X23.8408 Y19.5812 Z-2.0482 F210
G01 X23.8393 Y19.5908 Z-2.0542 F210
G01 X23.8386 Y19.6004 Z-2.0603 F210
G01 Y19.6101 Z-2.0663 F210
G01 X23.8393 Y19.6198 Z-2.0723 F210
G01 X23.8408 Y19.6294 Z-2.0783 F210
G01 X23.8429 Y19.6388 Z-2.0844 F210
G01 X23.8458 Y19.6481 Z-2.0904 F210
G01 X23.8493 Y19.6571 Z-2.0964 F210
G01 X23.8535 Y19.6658 Z-2.1024 F210
G01 X23.8584 Y19.6742 Z-2.1085 F210
G01 X23.8638 Y19.6822 Z-2.1145 F210
G01 X23.8698 Y19.6898 Z-2.1205 F210
G01 X23.8764 Y19.6969 Z-2.1266 F210
G01 X23.8835 Y19.7035 Z-2.1326 F210
G01 X23.8911 Y19.7095 Z-2.1386 F210
G01 X23.8991 Y19.7150 Z-2.1446 F210
G01 X23.9075 Y19.7198 Z-2.1507 F210
G01 X23.9162 Y19.7240 Z-2.1567 F210
G01 X23.9253 Y19.7275 Z-2.1627 F210
G01 X23.9345 Y19.7304 Z-2.1687 F210
G01 X23.9440 Y19.7326 Z-2.1748 F210
G01 X23.9535 Y19.7340 Z-2.1808 F210
G01 X23.9632 Y19.7347 Z-2.1868 F210
G01 X23.9729 Z-2.1928 F210
G01 X23.9825 Y19.7340 Z-2.1989 F210
G01 X23.9921 Y19.7326 Z-2.2049 F210
G01 X24.0016 Y19.7304 Z-2.2109 F210
G01 X24.0108 Y19.7275 Z-2.2170 F210
G01 X24.0198 Y19.7240 Z-2.2230 F210
G01 X24.0286 Y19.7198 Z-2.2290 F210
G01 X24.0370 Y19.7150 Z-2.2350 F210
G01 X24.0450 Y19.7095 Z-2.2411 F210
G01 X24.0525 Y19.7035 Z-2.2471 F210
G01 X24.0596 Y19.6969 Z-2.2531 F210
G01 X24.0662 Y19.6898 Z-2.2591 F210
G01 X24.0723 Y19.6822 Z-2.2652 F210
G01 X24.0777 Y19.6742 Z-2.2712 F210
G01 X24.0826 Y19.6658 Z-2.2772 F210
G01 X24.0868 Y19.6571 Z-2.2832 F210
G01 X24.0903 Y19.6481 Z-2.2893 F210
G01 X24.0932 Y19.6388 Z-2.2953 F210
G01 X24.0953 Y19.6294 Z-2.3013 F210
G01 X24.0968 Y19.6198 Z-2.3073 F210
G01 X24.0975 Y19.6101 Z-2.3134 F210
G01 Y19.6004 Z-2.3194 F210
G01 X24.0968 Y19.5908 Z-2.3254 F210
G01 X24.0953 Y19.5812 Z-2.3315 F210
G01 X24.0932 Y19.5717 Z-2.3375 F210
G01 X24.0904 Y19.5628 Z-2.3433 F210
G01 X24.0871 Y19.5541 Z-2.3491 F210
G01 X24.0831 Y19.5457 Z-2.3549 F210
G01 X24.0785 Y19.5376 Z-2.3607 F210
G01 X24.0733 Y19.5298 Z-2.3665 F210
G01 X24.0676 Y19.5224 Z-2.3723 F210
G01 X24.0614 Y19.5155 Z-2.3781 F210
G01 X24.0547 Y19.5090 Z-2.3839 F210
G01 X24.0475 Y19.5030 Z-2.3897 F210
G01 X24.0400 Y19.4975 Z-2.3955 F210
G01 X24.0320 Y19.4926 Z-2.4013 F210
G01 X24.0237 Y19.4883 Z-2.4071 F210
G01 X24.0152 Y19.4846 Z-2.4129 F210
G01 X24.0064 Y19.4815 Z-2.4187 F210
G01 X23.9974 Y19.4791 Z-2.4245 F210
G01 X23.9882 Y19.4773 Z-2.4303 F210
G01 X23.9789 Y19.4762 Z-2.4362 F210
G01 X23.9696 Y19.4757 Z-2.4420 F210
G01 X23.9603 Y19.4760 Z-2.4478 F210
G01 X23.9510 Y19.4769 Z-2.4536 F210
G01 X23.9418 Y19.4784 Z-2.4594 F210
G01 X23.9327 Y19.4806 Z-2.4652 F210
G01 X23.9239 Y19.4835 Z-2.4710 F210
G01 X23.9152 Y19.4870 Z-2.4768 F210
G01 X23.9068 Y19.4911 Z-2.4826 F210
G01 X23.8988 Y19.4958 Z-2.4884 F210
G01 X23.8911 Y19.5011 Z-2.4942 F210
G01 X23.8838 Y19.5069 Z-2.5000 F210
G01 X23.8911 Y19.5011 Z-2.5058 F210
G01 X23.8988 Y19.4958 Z-2.5116 F210
G01 X23.9068 Y19.4911 Z-2.5174 F210
G01 X23.9152 Y19.4870 Z-2.5232 F210
G01 X23.9239 Y19.4835 Z-2.5290 F210
G01 X23.9327 Y19.4806 Z-2.5348 F210
G01 X23.9418 Y19.4784 Z-2.5406 F210
G01 X23.9510 Y19.4769 Z-2.5464 F210
G01 X23.9603 Y19.4760 Z-2.5522 F210
G01 X23.9696 Y19.4757 Z-2.5580 F210
G01 X23.9789 Y19.4762 Z-2.5638 F210
G01 X23.9882 Y19.4773 Z-2.5697 F210
G01 X23.9974 Y19.4791 Z-2.5755 F210
G01 X24.0064 Y19.4815 Z-2.5813 F210
G01 X24.0152 Y19.4846 Z-2.5871 F210
G01 X24.0237 Y19.4883 Z-2.5929 F210
G01 X24.0320 Y19.4926 Z-2.5987 F210
G01 X24.0400 Y19.4975 Z-2.6045 F210
G01 X24.0475 Y19.5030 Z-2.6103 F210
G01 X24.0547 Y19.5090 Z-2.6161 F210
G01 X24.0614 Y19.5155 Z-2.6219 F210
G01 X24.0676 Y19.5224 Z-2.6277 F210
G01 X24.0733 Y19.5298 Z-2.6335 F210
G01 X24.0785 Y19.5376 Z-2.6393 F210
G01 X24.0831 Y19.5457 Z-2.6451 F210
G01 X24.0871 Y19.5541 Z-2.6509 F210
G01 X24.0904 Y19.5628 Z-2.6567 F210
G01 X24.0932 Y19.5717 Z-2.6625 F210
G01 X24.0953 Y19.5812 Z-2.6685 F210
G01 X24.0968 Y19.5908 Z-2.6746 F210
G01 X24.0975 Y19.6004 Z-2.6806 F210
G01 Y19.6101 Z-2.6866 F210
G01 X24.0968 Y19.6198 Z-2.6927 F210
G01 X24.0953 Y19.6294 Z-2.6987 F210
G01 X24.0932 Y19.6388 Z-2.7047 F210
G01 X24.0903 Y19.6481 Z-2.7107 F210
G01 X24.0868 Y19.6571 Z-2.7168 F210
G01 X24.0826 Y19.6658 Z-2.7228 F210
G01 X24.0777 Y19.6742 Z-2.7288 F210
G01 X24.0723 Y19.6822 Z-2.7348 F210
G01 X24.0662 Y19.6898 Z-2.7409 F210
G01 X24.0596 Y19.6969 Z-2.7469 F210
G01 X24.0525 Y19.7035 Z-2.7529 F210
G01 X24.0450 Y19.7095 Z-2.7589 F210
G01 X24.0370 Y19.7150 Z-2.7650 F210
G01 X24.0286 Y19.7198 Z-2.7710 F210
G01 X24.0198 Y19.7240 Z-2.7770 F210
G01 X24.0108 Y19.7275 Z-2.7830 F210
G01 X24.0016 Y19.7304 Z-2.7891 F210
G01 X23.9921 Y19.7326 Z-2.7951 F210
G01 X23.9825 Y19.7340 Z-2.8011 F210
G01 X23.9729 Y19.7347 Z-2.8072 F210
G01 X23.9632 Z-2.8132 F210
G01 X23.9535 Y19.7340 Z-2.8192 F210
G01 X23.9440 Y19.7326 Z-2.8252 F210
G01 X23.9345 Y19.7304 Z-2.8313 F210
G01 X23.9253 Y19.7275 Z-2.8373 F210
G01 X23.9162 Y19.7240 Z-2.8433 F210
G01 X23.9075 Y19.7198 Z-2.8493 F210
G01 X23.8991 Y19.7150 Z-2.8554 F210
G01 X23.8911 Y19.7095 Z-2.8614 F210
G01 X23.8835 Y19.7035 Z-2.8674 F210
G01 X23.8764 Y19.6969 Z-2.8734 F210
G01 X23.8698 Y19.6898 Z-2.8795 F210
G01 X23.8638 Y19.6822 Z-2.8855 F210
G01 X23.8584 Y19.6742 Z-2.8915 F210
G01 X23.8535 Y19.6658 Z-2.8976 F210
G01 X23.8493 Y19.6571 Z-2.9036 F210
G01 X23.8458 Y19.6481 Z-2.9096 F210
G01 X23.8429 Y19.6388 Z-2.9156 F210
G01 X23.8408 Y19.6294 Z-2.9217 F210
G01 X23.8393 Y19.6198 Z-2.9277 F210
G01 X23.8386 Y19.6101 Z-2.9337 F210
G01 Y19.6004 Z-2.9397 F210
G01 X23.8393 Y19.5908 Z-2.9458 F210
G01 X23.8408 Y19.5812 Z-2.9518 F210
G01 X23.8429 Y19.5717 Z-2.9578 F210
G01 X23.8458 Y19.5625 Z-2.9638 F210
G01 X23.8493 Y19.5535 Z-2.9699 F210
G01 X23.8535 Y19.5447 Z-2.9759 F210
G01 X23.8584 Y19.5364 Z-2.9819 F210
G01 X23.8638 Y19.5284 Z-2.9879 F210
G01 X23.8698 Y19.5208 Z-2.9940 F210
G01 X23.8764 Y19.5137 Z-3.0000 F210
G01 X23.8698 Y19.5208 F480
G01 X23.8638 Y19.5284 F480
G01 X23.8584 Y19.5364 F480
G01 X23.8535 Y19.5447 F480
G01 X23.8493 Y19.5535 F480
G01 X23.8458 Y19.5625 F480
G01 X23.8429 Y19.5717 F480
G01 X23.8408 Y19.5812 F480
G01 X23.8393 Y19.5908 F480
G01 X23.8386 Y19.6004 F480
G01 Y19.6101 F480
G01 X23.8393 Y19.6198 F480
G01 X23.8408 Y19.6294 F480
G01 X23.8429 Y19.6388 F480
G01 X23.8458 Y19.6481 F480
G01 X23.8493 Y19.6571 F480
G01 X23.8535 Y19.6658 F480
G01 X23.8584 Y19.6742 F480
G01 X23.8638 Y19.6822 F480
G01 X23.8698 Y19.6898 F480
G01 X23.8764 Y19.6969 F480
G01 X23.8835 Y19.7035 F480
G01 X23.8911 Y19.7095 F480
G01 X23.8991 Y19.7150 F480
G01 X23.9075 Y19.7198 F480
G01 X23.9162 Y19.7240 F480
G01 X23.9253 Y19.7275 F480
G01 X23.9345 Y19.7304 F480
G01 X23.9440 Y19.7326 F480
G01 X23.9535 Y19.7340 F480
G01 X23.9632 Y19.7347 F480
G01 X23.9729 F480
G01 X23.9825 Y19.7340 F480
G01 X23.9921 Y19.7326 F480
G01 X24.0016 Y19.7304 F480
G01 X24.0108 Y19.7275 F480
G01 X24.0198 Y19.7240 F480
G01 X24.0286 Y19.7198 F480
G01 X24.0370 Y19.7150 F480
G01 X24.0450 Y19.7095 F480
G01 X24.0525 Y19.7035 F480
G01 X24.0596 Y19.6969 F480
G01 X24.0662 Y19.6898 F480
G01 X24.0723 Y19.6822 F480
G01 X24.0777 Y19.6742 F480
G01 X24.0826 Y19.6658 F480
G01 X24.0868 Y19.6571 F480
G01 X24.0903 Y19.6481 F480
G01 X24.0932 Y19.6388 F480
G01 X24.0953 Y19.6294 F480
G01 X24.0968 Y19.6198 F480
G01 X24.0975 Y19.6101 F480
G01 Y19.6004 F480
G01 X24.0968 Y19.5908 F480
G01 X24.0953 Y19.5812 F480
G01 X24.0932 Y19.5717 F480
G01 X24.0903 Y19.5625 F480
G01 X24.0868 Y19.5535 F480
G01 X24.0826 Y19.5447 F480
G01 X24.0777 Y19.5364 F480
G01 X24.0723 Y19.5284 F480
G01 X24.0662 Y19.5208 F480
G01 X24.0596 Y19.5137 F480
G01 X24.0525 Y19.5071 F480
G01 X24.0450 Y19.5010 F480
G01 X24.0370 Y19.4956 F480
G01 X24.0286 Y19.4907 F480
G01 X24.0198 Y19.4865 F480
G01 X24.0108 Y19.4830 F480
G01 X24.0016 Y19.4801 F480
G01 X23.9921 Y19.4780 F480
G01 X23.9825 Y19.4765 F480
G01 X23.9729 Y19.4758 F480
G01 X23.9632 F480
G01 X23.9535 Y19.4765 F480
G01 X23.9440 Y19.4780 F480
G01 X23.9345 Y19.4801 F480
G01 X23.9253 Y19.4830 F480
G01 X23.9162 Y19.4865 F480
G01 X23.9075 Y19.4907 F480
G01 X23.8991 Y19.4956 F480
G01 X23.8911 Y19.5010 F480
G01 X23.8835 Y19.5071 F480
G01 X23.8764 Y19.5137 F480
G00 Z3.0000 F400


;No. 4: Hole 4
G00 X25.8502 Y15.3650 Z3.0000 F4000
G00 Z0.5000 F400
G01 Z0.0000 F210
G01 X25.8450 Y15.3731 Z-0.0121 F210
G01 X25.8404 Y15.3816 Z-0.0241 F210
G01 X25.8364 Y15.3904 Z-0.0362 F210
G01 X25.8331 Y15.3995 Z-0.0482 F210
G01 X25.8304 Y15.4089 Z-0.0603 F210
G01 X25.8285 Y15.4184 Z-0.0723 F210
G01 X25.8273 Y15.4280 Z-0.0844 F210
G01 X25.8268 Y15.4376 Z-0.0964 F210
G01 X25.8271 Y15.4473 Z-0.1085 F210
G01 X25.8280 Y15.4570 Z-0.1205 F210
G01 X25.8297 Y15.4665 Z-0.1326 F210
G01 X25.8321 Y15.4759 Z-0.1446 F210
G01 X25.8352 Y15.4851 Z-0.1567 F210
G01 X25.8390 Y15.4940 Z-0.1687 F210
G01 X25.8434 Y15.5026 Z-0.1808 F210
G01 X25.8484 Y15.5109 Z-0.1928 F210
G01 X25.8541 Y15.5188 Z-0.2049 F210
G01 X25.8603 Y15.5262 Z-0.2170 F210
G01 X25.8671 Y15.5331 Z-0.2290 F210
G01 X25.8743 Y15.5395 Z-0.2411 F210
G01 X25.8821 Y15.5454 Z-0.2531 F210
G01 X25.8902 Y15.5506 Z-0.2652 F210
G01 X25.8987 Y15.5553 Z-0.2772 F210
G01 X25.9075 Y15.5592 Z-0.2893 F210
G01 X25.9166 Y15.5626 Z-0.3013 F210
G01 X25.9260 Y15.5652 Z-0.3134 F210
G01 X25.9355 Y15.5671 Z-0.3254 F210
G01 X25.9451 Y15.5683 Z-0.3375 F210
G01 X25.9547 Y15.5688 Z-0.3495 F210
G01 X25.9644 Y15.5685 Z-0.3616 F210
G01 X25.9741 Y15.5676 Z-0.3736 F210
G01 X25.9836 Y15.5659 Z-0.3857 F210
G01 X25.9930 Y15.5635 Z-0.3977 F210
G01 X26.0022 Y15.5604 Z-0.4098 F210
G01 X26.0111 Y15.5567 Z-0.4218 F210
G01 X26.0197 Y15.5522 Z-0.4339 F210
G01 X26.0280 Y15.5472 Z-0.4460 F210
G01 X26.0359 Y15.5415 Z-0.4580 F210
G01 X26.0433 Y15.5353 Z-0.4701 F210
G01 X26.0502 Y15.5285 Z-0.4821 F210
G01 X26.0566 Y15.5213 Z-0.4942 F210
G01 X26.0625 Y15.5136 Z-0.5062 F210
G01 X26.0677 Y15.5054 Z-0.5183 F210
G01 X26.0724 Y15.4969 Z-0.5303 F210
G01 X26.0764 Y15.4881 Z-0.5424 F210
G01 X26.0797 Y15.4790 Z-0.5544 F210
G01 X26.0823 Y15.4697 Z-0.5665 F210
G01 X26.0842 Y15.4602 Z-0.5785 F210
G01 X26.0854 Y15.4505 Z-0.5906 F210
G01 X26.0859 Y15.4409 Z-0.6026 F210
G01 X26.0857 Y15.4312 Z-0.6147 F210
G01 X26.0847 Y15.4215 Z-0.6267 F210
G01 X26.0830 Y15.4120 Z-0.6388 F210
G01 X26.0806 Y15.4026 Z-0.6509 F210
G01 X26.0775 Y15.3934 Z-0.6629 F210
G01 X26.0738 Y15.3845 Z-0.6750 F210
G01 X26.0695 Y15.3762 Z-0.6866 F210
G01 X26.0647 Y15.3682 Z-0.6982 F210
G01 X26.0593 Y15.3606 Z-0.7098 F210
G01 X26.0534 Y15.3534 Z-0.7214 F210
G01 X26.0469 Y15.3466 Z-0.7330 F210
G01 X26.0400 Y15.3404 Z-0.7446 F210
G01 X26.0327 Y15.3346 Z-0.7562 F210
G01 X26.0250 Y15.3294 Z-0.7678 F210
G01 X26.0169 Y15.3247 Z-0.7794 F210
G01 X26.0085 Y15.3207 Z-0.7910 F210
G01 X25.9998 Y15.3172 Z-0.8027 F210
G01 X25.9909 Y15.3144 Z-0.8143 F210
G01 X25.9818 Y15.3122 Z-0.8259 F210
G01 X25.9726 Y15.3107 Z-0.8375 F210
G01 X25.9633 Y15.3099 Z-0.8491 F210
G01 X25.9540 Y15.3097 Z-0.8607 F210
G01 X25.9447 Y15.3102 Z-0.8723 F210
G01 X25.9354 Y15.3114 Z-0.8839 F210
G01 X25.9263 Y15.3133 Z-0.8955 F210
G01 X25.9173 Y15.3157 Z-0.9071 F210
G01 X25.9085 Y15.3189 Z-0.9187 F210
G01 X25.9000 Y15.3226 Z-0.9303 F210
G01 X25.8917 Y15.3270 Z-0.9420 F210
G01 X25.8838 Y15.3319 Z-0.9536 F210
G01 X25.8763 Y15.3374 Z-0.9652 F210
G01 X25.8691 Y15.3435 Z-0.9768 F210
G01 X25.8625 Y15.3500 Z-0.9884 F210
G01 X25.8563 Y15.3570 Z-1.0000 F210
G01 X25.8625 Y15.3500 Z-1.0116 F210
G01 X25.8691 Y15.3435 Z-1.0232 F210
G01 X25.8763 Y15.3374 Z-1.0348 F210
G01 X25.8838 Y15.3319 Z-1.0464 F210
G01 X25.8917 Y15.3270 Z-1.0580 F210
G01 X25.9000 Y15.3226 Z-1.0697 F210
G01 X25.9085 Y15.3189 Z-1.0813 F210
G01 X25.9173 Y15.3157 Z-1.0929 F210
G01 X25.9263 Y15.3133 Z-1.1045 F210
G01 X25.9354 Y15.3114 Z-1.1161 F210
G01 X25.9447 Y15.3102 Z-1.1277 F210
G01 X25.9540 Y15.3097 Z-1.1393 F210
G01 X25.9633 Y15.3099 Z-1.1509 F210
G01 X25.9726 Y15.3107 Z-1.1625 F210
G01 X25.9818 Y15.3122 Z-1.1741 F210
G01 X25.9909 Y15.3144 Z-1.1857 F210
G01 X25.9998 Y15.3172 Z-1.1973 F210
G01 X26.0085 Y15.3207 Z-1.2090 F210
G01 X26.0169 Y15.3247 Z-1.2206 F210
G01 X26.0250 Y15.3294 Z-1.2322 F210
G01 X26.0327 Y15.3346 Z-1.2438 F210
G01 X26.0400 Y15.3404 Z-1.2554 F210
G01 X26.0469 Y15.3466 Z-1.2670 F210
G01 X26.0534 Y15.3534 Z-1.2786 F210
G01 X26.0593 Y15.3606 Z-1.2902 F210
G01 X26.0647 Y15.3682 Z-1.3018 F210
G01 X26.0695 Y15.3762 Z-1.3134 F210
G01 X26.0738 Y15.3845 Z-1.3250 F210
G01 X26.0775 Y15.3934 Z-1.3371 F210
G01 X26.0806 Y15.4026 Z-1.3491 F210
G01 X26.0830 Y15.4120 Z-1.3612 F210
G01 X26.0847 Y15.4215 Z-1.3733 F210
G01 X26.0857 Y15.4312 Z-1.3853 F210
G01 X26.0859 Y15.4409 Z-1.3974 F210
G01 X26.0854 Y15.4505 Z-1.4094 F210
G01 X26.0842 Y15.4602 Z-1.4215 F210
G01 X26.0823 Y15.4697 Z-1.4335 F210
G01 X26.0797 Y15.4790 Z-1.4456 F210
G01 X26.0764 Y15.4881 Z-1.4576 F210
G01 X26.0724 Y15.4969 Z-1.4697 F210
G01 X26.0677 Y15.5054 Z-1.4817 F210
G01 X26.0625 Y15.5136 Z-1.4938 F210
G01 X26.0566 Y15.5213 Z-1.5058 F210
G01 X26.0502 Y15.5285 Z-1.5179 F210
G01 X26.0433 Y15.5353 Z-1.5299 F210
G01 X26.0359 Y15.5415 Z-1.5420 F210
G01 X26.0280 Y15.5472 Z-1.5540 F210
G01 X26.0197 Y15.5522 Z-1.5661 F210
G01 X26.0111 Y15.5567 Z-1.5782 F210
G01 X26.0022 Y15.5604 Z-1.5902 F210
G01 X25.9930 Y15.5635 Z-1.6023 F210
G01 X25.9836 Y15.5659 Z-1.6143 F210
G01 X25.9741 Y15.5676 Z-1.6264 F210
G01 X25.9644 Y15.5685 Z-1.6384 F210
G01 X25.9547 Y15.5688 Z-1.6505 F210
G01 X25.9451 Y15.5683 Z-1.6625 F210
G01 X25.9355 Y15.5671 Z-1.6746 F210
G01 X25.9260 Y15.5652 Z-1.6866 F210
G01 X25.9166 Y15.5626 Z-1.6987 F210
G01 X25.9075 Y15.5592 Z-1.7107 F210
G01 X25.8987 Y15.5553 Z-1.7228 F210
G01 X25.8902 Y15.5506 Z-1.7348 F210
G01 X25.8821 Y15.5454 Z-1.7469 F210
G01 X25.8743 Y15.5395 Z-1.7589 F210
G01 X25.8671 Y15.5331 Z-1.7710 F210
G01 X25.8603 Y15.5262 Z-1.7830 F210
G01 X25.8541 Y15.5188 Z-1.7951 F210
G01 X25.8484 Y15.5109 Z-1.8072 F210
G01 X25.8434 Y15.5026 Z-1.8192 F210
G01 X25.8390 Y15.4940 Z-1.8313 F210
G01 X25.8352 Y15.4851 Z-1.8433 F210
G01 X25.8321 Y15.4759 Z-1.8554 F210
G01 X25.8297 Y15.4665 Z-1.8674 F210
G01 X25.8280 Y15.4570 Z-1.8795 F210
G01 X25.8271 Y15.4473 Z-1.8915 F210
G01 X25.8268 Y15.4376 Z-1.9036 F210
G01 X25.8273 Y15.4280 Z-1.9156 F210
G01 X25.8285 Y15.4184 Z-1.9277 F210
G01 X25.8304 Y15.4089 Z-1.9397 F210
G01 X25.8331 Y15.3995 Z-1.9518 F210
G01 X25.8364 Y15.3904 Z-1.9638 F210
G01 X25.8404 Y15.3816 Z-1.9759 F210
G01 X25.8450 Y15.3731 Z-1.9879 F210
G01 X25.8502 Y15.3650 Z-2.0000 F210
G01 X25.8450 Y15.3731 F480
G01 X25.8404 Y15.3816 F480
G01 X25.8364 Y15.3904 F480
G01 X25.8331 Y15.3995 F480
G01 X25.8304 Y15.4089 F480
G01 X25.8285 Y15.4184 F480
G01 X25.8273 Y15.4280 F480
G01 X25.8268 Y15.4376 F480
G01 X25.8271 Y15.4473 F480
G01 X25.8280 Y15.4570 F480
G01 X25.8297 Y15.4665 F480
G01 X25.8321 Y15.4759 F480
G01 X25.8352 Y15.4851 F480
G01 X25.8390 Y15.4940 F480
G01 X25.8434 Y15.5026 F480
G01 X25.8484 Y15.5109 F480
G01 X25.8541 Y15.5188 F480
G01 X25.8603 Y15.5262 F480
G01 X25.8671 Y15.5331 F480
G01 X25.8743 Y15.5395 F480
G01 X25.8821 Y15.5454 F480
G01 X25.8902 Y15.5506 F480
G01 X25.8987 Y15.5553 F480
G01 X25.9075 Y15.5592 F480
G01 X25.9166 Y15.5626 F480
G01 X25.9260 Y15.5652 F480
G01 X25.9355 Y15.5671 F480
G01 X25.9451 Y15.5683 F480
G01 X25.9547 Y15.5688 F480
G01 X25.9644 Y15.5685 F480
G01 X25.9741 Y15.5676 F480
G01 X25.9836 Y15.5659 F480
G01 X25.9930 Y15.5635 F480
G01 X26.0022 Y15.5604 F480
G01 X26.0111 Y15.5567 F480
G01 X26.0197 Y15.5522 F480
G01 X26.0280 Y15.5472 F480
G01 X26.0359 Y15.5415 F480
G01 X26.0433 Y15.5353 F480
G01 X26.0502 Y15.5285 F480
G01 X26.0566 Y15.5213 F480
G01 X26.0625 Y15.5136 F480
G01 X26.0677 Y15.5054 F480
G01 X26.0724 Y15.4969 F480
G01 X26.0764 Y15.4881 F480
G01 X26.0797 Y15.4790 F480
G01 X26.0823 Y15.4697 F480
G01 X26.0842 Y15.4602 F480
G01 X26.0854 Y15.4505 F480
G01 X26.0859 Y15.4409 F480
G01 X26.0857 Y15.4312 F480
G01 X26.0847 Y15.4215 F480
G01 X26.0830 Y15.4120 F480
G01 X26.0806 Y15.4026 F480
G01 X26.0775 Y15.3934 F480
G01 X26.0738 Y15.3845 F480
G01 X26.0693 Y15.3759 F480
G01 X26.0643 Y15.3676 F480
G01 X26.0586 Y15.3598 F480
G01 X26.0524 Y15.3523 F480
G01 X26.0457 Y15.3454 F480
G01 X26.0384 Y15.3390 F480
G01 X26.0307 Y15.3331 F480
G01 X26.0225 Y15.3279 F480
G01 X26.0140 Y15.3233 F480
G01 X26.0052 Y15.3193 F480
G01 X25.9961 Y15.3160 F480
G01 X25.9868 Y15.3133 F480
G01 X25.9773 Y15.3114 F480
G01 X25.9677 Y15.3102 F480
G01 X25.9580 Y15.3097 F480
G01 X25.9483 Y15.3100 F480
G01 X25.9387 Y15.3109 F480
G01 X25.9291 Y15.3126 F480
G01 X25.9197 Y15.3150 F480
G01 X25.9105 Y15.3181 F480
G01 X25.9016 Y15.3219 F480
G01 X25.8930 Y15.3263 F480
G01 X25.8847 Y15.3313 F480
G01 X25.8769 Y15.3370 F480
G01 X25.8694 Y15.3432 F480
G01 X25.8625 Y15.3500 F480
G01 X25.8561 Y15.3572 F480
G01 X25.8502 Y15.3650 F480
G01 X25.8450 Y15.3731 Z-2.0060 F210
G01 X25.8404 Y15.3816 Z-2.0121 F210
G01 X25.8364 Y15.3904 Z-2.0181 F210
G01 X25.8331 Y15.3995 Z-2.0241 F210
G01 X25.8304 Y15.4089 Z-2.0301 F210
G01 X25.8285 Y15.4184 Z-2.0362 F210
G01 X25.8273 Y15.4280 Z-2.0422 F210
G01 X25.8268 Y15.4376 Z-2.0482 F210
G01 X25.8271 Y15.4473 Z-2.0542 F210
G01 X25.8280 Y15.4570 Z-2.0603 F210
G01 X25.8297 Y15.4665 Z-2.0663 F210
G01 X25.8321 Y15.4759 Z-2.0723 F210
G01 X25.8352 Y15.4851 Z-2.0783 F210
G01 X25.8390 Y15.4940 Z-2.0844 F210
G01 X25.8434 Y15.5026 Z-2.0904 F210
G01 X25.8484 Y15.5109 Z-2.0964 F210
G01 X25.8541 Y15.5188 Z-2.1024 F210
G01 X25.8603 Y15.5262 Z-2.1085 F210
G01 X25.8671 Y15.5331 Z-2.1145 F210
G01 X25.8743 Y15.5395 Z-2.1205 F210
G01 X25.8821 Y15.5454 Z-2.1266 F210
G01 X25.8902 Y15.5506 Z-2.1326 F210
G01 X25.8987 Y15.5553 Z-2.1386 F210
G01 X25.9075 Y15.5592 Z-2.1446 F210
G01 X25.9166 Y15.5626 Z-2.1507 F210
G01 X25.9260 Y15.5652 Z-2.1567 F210
G01 X25.9355 Y15.5671 Z-2.1627 F210
G01 X25.9451 Y15.5683 Z-2.1687 F210
G01 X25.9547 Y15.5688 Z-2.1748 F210
G01 X25.9644 Y15.5685 Z-2.1808 F210
G01 X25.9741 Y15.5676 Z-2.1868 F210
G01 X25.9836 Y15.5659 Z-2.1928 F210
G01 X25.9930 Y15.5635 Z-2.1989 F210
G01 X26.0022 Y15.5604 Z-2.2049 F210
G01 X26.0111 Y15.5567 Z-2.2109 F210
G01 X26.0197 Y15.5522 Z-2.2170 F210
G01 X26.0280 Y15.5472 Z-2.2230 F210
G01 X26.0359 Y15.5415 Z-2.2290 F210
G01 X26.0433 Y15.5353 Z-2.2350 F210
G01 X26.0502 Y15.5285 Z-2.2411 F210
G01 X26.0566 Y15.5213 Z-2.2471 F210
G01 X26.0625 Y15.5136 Z-2.2531 F210
G01 X26.0677 Y15.5054 Z-2.2591 F210
G01 X26.0724 Y15.4969 Z-2.2652 F210
G01 X26.0764 Y15.4881 Z-2.2712 F210
G01 X26.0797 Y15.4790 Z-2.2772 F210
G01 X26.0823 Y15.4697 Z-2.2832 F210
G01 X26.0842 Y15.4602 Z-2.2893 F210
G01 X26.0854 Y15.4505 Z-2.2953 F210
G01 X26.0859 Y15.4409 Z-2.3013 F210
G01 X26.0857 Y15.4312 Z-2.3073 F210
G01 X26.0847 Y15.4215 Z-2.3134 F210
G01 X26.0830 Y15.4120 Z-2.3194 F210
G01 X26.0806 Y15.4026 Z-2.3254 F210
G01 X26.0775 Y15.3934 Z-2.3315 F210
G01 X26.0738 Y15.3845 Z-2.3375 F210
G01 X26.0695 Y15.3762 Z-2.3433 F210
G01 X26.0647 Y15.3682 Z-2.3491 F210
G01 X26.0593 Y15.3606 Z-2.3549 F210
G01 X26.0534 Y15.3534 Z-2.3607 F210
G01 X26.0469 Y15.3466 Z-2.3665 F210
G01 X26.0400 Y15.3404 Z-2.3723 F210
G01 X26.0327 Y15.3346 Z-2.3781 F210
G01 X26.0250 Y15.3294 Z-2.3839 F210
G01 X26.0169 Y15.3247 Z-2.3897 F210
G01 X26.0085 Y15.3207 Z-2.3955 F210
G01 X25.9998 Y15.3172 Z-2.4013 F210
G01 X25.9909 Y15.3144 Z-2.4071 F210
G01 X25.9818 Y15.3122 Z-2.4129 F210
G01 X25.9726 Y15.3107 Z-2.4187 F210
G01 X25.9633 Y15.3099 Z-2.4245 F210
G01 X25.9540 Y15.3097 Z-2.4303 F210
G01 X25.9447 Y15.3102 Z-2.4362 F210
G01 X25.9354 Y15.3114 Z-2.4420 F210
G01 X25.9263 Y15.3133 Z-2.4478 F210
G01 X25.9173 Y15.3157 Z-2.4536 F210
G01 X25.9085 Y15.3189 Z-2.4594 F210
G01 X25.9000 Y15.3226 Z-2.4652 F210
G01 X25.8917 Y15.3270 Z-2.4710 F210
G01 X25.8838 Y15.3319 Z-2.4768 F210
G01 X25.8763 Y15.3374 Z-2.4826 F210
G01 X25.8691 Y15.3435 Z-2.4884 F210
G01 X25.8625 Y15.3500 Z-2.4942 F210
G01 X25.8563 Y15.3570 Z-2.5000 F210
G01 X25.8625 Y15.3500 Z-2.5058 F210
G01 X25.8691 Y15.3435 Z-2.5116 F210
G01 X25.8763 Y15.3374 Z-2.5174 F210
G01 X25.8838 Y15.3319 Z-2.5232 F210
G01 X25.8917 Y15.3270 Z-2.5290 F210
G01 X25.9000 Y15.3226 Z-2.5348 F210
G01 X25.9085 Y15.3189 Z-2.5406 F210
G01 X25.9173 Y15.3157 Z-2.5464 F210
G01 X25.9263 Y15.3133 Z-2.5522 F210
G01 X25.9354 Y15.3114 Z-2.5580 F210
G01 X25.9447 Y15.3102 Z-2.5638 F210
G01 X25.9540 Y15.3097 Z-2.5697 F210
G01 X25.9633 Y15.3099 Z-2.5755 F210
G01 X25.9726 Y15.3107 Z-2.5813 F210
G01 X25.9818 Y15.3122 Z-2.5871 F210
G01 X25.9909 Y15.3144 Z-2.5929 F210
G01 X25.9998 Y15.3172 Z-2.5987 F210
G01 X26.0085 Y15.3207 Z-2.6045 F210
G01 X26.0169 Y15.3247 Z-2.6103 F210
G01 X26.0250 Y15.3294 Z-2.6161 F210
G01 X26.0327 Y15.3346 Z-2.6219 F210
G01 X26.0400 Y15.3404 Z-2.6277 F210
G01 X26.0469 Y15.3466 Z-2.6335 F210
G01 X26.0534 Y15.3534 Z-2.6393 F210
G01 X26.0593 Y15.3606 Z-2.6451 F210
G01 X26.0647 Y15.3682 Z-2.6509 F210
G01 X26.0695 Y15.3762 Z-2.6567 F210
G01 X26.0738 Y15.3845 Z-2.6625 F210
G01 X26.0775 Y15.3934 Z-2.6685 F210
G01 X26.0806 Y15.4026 Z-2.6746 F210
G01 X26.0830 Y15.4120 Z-2.6806 F210
G01 X26.0847 Y15.4215 Z-2.6866 F210
G01 X26.0857 Y15.4312 Z-2.6927 F210
G01 X26.0859 Y15.4409 Z-2.6987 F210
G01 X26.0854 Y15.4505 Z-2.7047 F210
G01 X26.0842 Y15.4602 Z-2.7107 F210
G01 X26.0823 Y15.4697 Z-2.7168 F210
G01 X26.0797 Y15.4790 Z-2.7228 F210
G01 X26.0764 Y15.4881 Z-2.7288 F210
G01 X26.0724 Y15.4969 Z-2.7348 F210
G01 X26.0677 Y15.5054 Z-2.7409 F210
G01 X26.0625 Y15.5136 Z-2.7469 F210
G01 X26.0566 Y15.5213 Z-2.7529 F210
G01 X26.0502 Y15.5285 Z-2.7589 F210
G01 X26.0433 Y15.5353 Z-2.7650 F210
G01 X26.0359 Y15.5415 Z-2.7710 F210
G01 X26.0280 Y15.5472 Z-2.7770 F210
G01 X26.0197 Y15.5522 Z-2.7830 F210
G01 X26.0111 Y15.5567 Z-2.7891 F210
G01 X26.0022 Y15.5604 Z-2.7951 F210
G01 X25.9930 Y15.5635 Z-2.8011 F210
G01 X25.9836 Y15.5659 Z-2.8072 F210
G01 X25.9741 Y15.5676 Z-2.8132 F210
G01 X25.9644 Y15.5685 Z-2.8192 F210
G01 X25.9547 Y15.5688 Z-2.8252 F210
G01 X25.9451 Y15.5683 Z-2.8313 F210
G01 X25.9355 Y15.5671 Z-2.8373 F210
G01 X25.9260 Y15.5652 Z-2.8433 F210
G01 X25.9166 Y15.5626 Z-2.8493 F210
G01 X25.9075 Y15.5592 Z-2.8554 F210
G01 X25.8987 Y15.5553 Z-2.8614 F210
G01 X25.8902 Y15.5506 Z-2.8674 F210
G01 X25.8821 Y15.5454 Z-2.8734 F210
G01 X25.8743 Y15.5395 Z-2.8795 F210
G01 X25.8671 Y15.5331 Z-2.8855 F210
G01 X25.8603 Y15.5262 Z-2.8915 F210
G01 X25.8541 Y15.5188 Z-2.8976 F210
G01 X25.8484 Y15.5109 Z-2.9036 F210
G01 X25.8434 Y15.5026 Z-2.9096 F210
G01 X25.8390 Y15.4940 Z-2.9156 F210
G01 X25.8352 Y15.4851 Z-2.9217 F210
G01 X25.8321 Y15.4759 Z-2.9277 F210
G01 X25.8297 Y15.4665 Z-2.9337 F210
G01 X25.8280 Y15.4570 Z-2.9397 F210
G01 X25.8271 Y15.4473 Z-2.9458 F210
G01 X25.8268 Y15.4376 Z-2.9518 F210
G01 X25.8273 Y15.4280 Z-2.9578 F210
G01 X25.8285 Y15.4184 Z-2.9638 F210
G01 X25.8304 Y15.4089 Z-2.9699 F210
G01 X25.8331 Y15.3995 Z-2.9759 F210
G01 X25.8364 Y15.3904 Z-2.9819 F210
G01 X25.8404 Y15.3816 Z-2.9879 F210
G01 X25.8450 Y15.3731 Z-2.9940 F210
G01 X25.8502 Y15.3650 Z-3.0000 F210
G01 X25.8450 Y15.3731 F480
G01 X25.8404 Y15.3816 F480
G01 X25.8364 Y15.3904 F480
G01 X25.8331 Y15.3995 F480
G01 X25.8304 Y15.4089 F480
G01 X25.8285 Y15.4184 F480
G01 X25.8273 Y15.4280 F480
G01 X25.8268 Y15.4376 F480
G01 X25.8271 Y15.4473 F480
G01 X25.8280 Y15.4570 F480
G01 X25.8297 Y15.4665 F480
G01 X25.8321 Y15.4759 F480
G01 X25.8352 Y15.4851 F480
G01 X25.8390 Y15.4940 F480
G01 X25.8434 Y15.5026 F480
G01 X25.8484 Y15.5109 F480
G01 X25.8541 Y15.5188 F480
G01 X25.8603 Y15.5262 F480
G01 X25.8671 Y15.5331 F480
G01 X25.8743 Y15.5395 F480
G01 X25.8821 Y15.5454 F480
G01 X25.8902 Y15.5506 F480
G01 X25.8987 Y15.5553 F480
G01 X25.9075 Y15.5592 F480
G01 X25.9166 Y15.5626 F480
G01 X25.9260 Y15.5652 F480
G01 X25.9355 Y15.5671 F480
G01 X25.9451 Y15.5683 F480
G01 X25.9547 Y15.5688 F480
G01 X25.9644 Y15.5685 F480
G01 X25.9741 Y15.5676 F480
G01 X25.9836 Y15.5659 F480
G01 X25.9930 Y15.5635 F480
G01 X26.0022 Y15.5604 F480
G01 X26.0111 Y15.5567 F480
G01 X26.0197 Y15.5522 F480
G01 X26.0280 Y15.5472 F480
G01 X26.0359 Y15.5415 F480
G01 X26.0433 Y15.5353 F480
G01 X26.0502 Y15.5285 F480
G01 X26.0566 Y15.5213 F480
G01 X26.0625 Y15.5136 F480
G01 X26.0677 Y15.5054 F480
G01 X26.0724 Y15.4969 F480
G01 X26.0764 Y15.4881 F480
G01 X26.0797 Y15.4790 F480
G01 X26.0823 Y15.4697 F480
G01 X26.0842 Y15.4602 F480
G01 X26.0854 Y15.4505 F480
G01 X26.0859 Y15.4409 F480
G01 X26.0857 Y15.4312 F480
G01 X26.0847 Y15.4215 F480
G01 X26.0830 Y15.4120 F480
G01 X26.0806 Y15.4026 F480
G01 X26.0775 Y15.3934 F480
G01 X26.0738 Y15.3845 F480
G01 X26.0693 Y15.3759 F480
G01 X26.0643 Y15.3676 F480
G01 X26.0586 Y15.3598 F480
G01 X26.0524 Y15.3523 F480
G01 X26.0457 Y15.3454 F480
G01 X26.0384 Y15.3390 F480
G01 X26.0307 Y15.3331 F480
G01 X26.0225 Y15.3279 F480
G01 X26.0140 Y15.3233 F480
G01 X26.0052 Y15.3193 F480
G01 X25.9961 Y15.3160 F480
G01 X25.9868 Y15.3133 F480
G01 X25.9773 Y15.3114 F480
G01 X25.9677 Y15.3102 F480
G01 X25.9580 Y15.3097 F480
G01 X25.9483 Y15.3100 F480
G01 X25.9387 Y15.3109 F480
G01 X25.9291 Y15.3126 F480
G01 X25.9197 Y15.3150 F480
G01 X25.9105 Y15.3181 F480
G01 X25.9016 Y15.3219 F480
G01 X25.8930 Y15.3263 F480
G01 X25.8847 Y15.3313 F480
G01 X25.8769 Y15.3370 F480
G01 X25.8694 Y15.3432 F480
G01 X25.8625 Y15.3500 F480
G01 X25.8561 Y15.3572 F480
G01 X25.8502 Y15.3650 F480
G00 Z3.0000 F400


;No. 5: Hole 2
G00 X26.0541 Y23.7270 Z3.0000 F4000
G00 Z0.5000 F400
G01 Z0.0000 F210
G01 X26.0475 Y23.7341 Z-0.0121 F210
G01 X26.0415 Y23.7417 Z-0.0241 F210
G01 X26.0360 Y23.7497 Z-0.0362 F210
G01 X26.0312 Y23.7581 Z-0.0482 F210
G01 X26.0270 Y23.7668 Z-0.0603 F210
G01 X26.0235 Y23.7759 Z-0.0723 F210
G01 X26.0206 Y23.7851 Z-0.0844 F210
G01 X26.0184 Y23.7946 Z-0.0964 F210
G01 X26.0170 Y23.8041 Z-0.1085 F210
G01 X26.0163 Y23.8138 Z-0.1205 F210
G01 Y23.8235 Z-0.1326 F210
G01 X26.0170 Y23.8331 Z-0.1446 F210
G01 X26.0184 Y23.8427 Z-0.1567 F210
G01 X26.0206 Y23.8522 Z-0.1687 F210
G01 X26.0235 Y23.8614 Z-0.1808 F210
G01 X26.0270 Y23.8704 Z-0.1928 F210
G01 X26.0312 Y23.8792 Z-0.2049 F210
G01 X26.0360 Y23.8876 Z-0.2170 F210
G01 X26.0415 Y23.8956 Z-0.2290 F210
G01 X26.0475 Y23.9031 Z-0.2411 F210
G01 X26.0541 Y23.9102 Z-0.2531 F210
G01 X26.0612 Y23.9168 Z-0.2652 F210
G01 X26.0688 Y23.9229 Z-0.2772 F210
G01 X26.0768 Y23.9283 Z-0.2893 F210
G01 X26.0852 Y23.9332 Z-0.3013 F210
G01 X26.0939 Y23.9374 Z-0.3134 F210
G01 X26.1029 Y23.9409 Z-0.3254 F210
G01 X26.1122 Y23.9438 Z-0.3375 F210
G01 X26.1216 Y23.9459 Z-0.3495 F210
G01 X26.1312 Y23.9474 Z-0.3616 F210
G01 X26.1409 Y23.9481 Z-0.3736 F210
G01 X26.1506 Z-0.3857 F210
G01 X26.1602 Y23.9474 Z-0.3977 F210
G01 X26.1698 Y23.9459 Z-0.4098 F210
G01 X26.1793 Y23.9438 Z-0.4218 F210
G01 X26.1885 Y23.9409 Z-0.4339 F210
G01 X26.1975 Y23.9374 Z-0.4460 F210
G01 X26.2063 Y23.9332 Z-0.4580 F210
G01 X26.2146 Y23.9283 Z-0.4701 F210
G01 X26.2227 Y23.9229 Z-0.4821 F210
G01 X26.2302 Y23.9168 Z-0.4942 F210
G01 X26.2373 Y23.9102 Z-0.5062 F210
G01 X26.2439 Y23.9031 Z-0.5183 F210
G01 X26.2500 Y23.8956 Z-0.5303 F210
G01 X26.2554 Y23.8876 Z-0.5424 F210
G01 X26.2603 Y23.8792 Z-0.5544 F210
G01 X26.2645 Y23.8704 Z-0.5665 F210
G01 X26.2680 Y23.8614 Z-0.5785 F210
G01 X26.2709 Y23.8522 Z-0.5906 F210
G01 X26.2730 Y23.8427 Z-0.6026 F210
G01 X26.2745 Y23.8331 Z-0.6147 F210
G01 X26.2752 Y23.8235 Z-0.6267 F210
G01 Y23.8138 Z-0.6388 F210
G01 X26.2745 Y23.8041 Z-0.6509 F210
G01 X26.2730 Y23.7946 Z-0.6629 F210
G01 X26.2709 Y23.7851 Z-0.6750 F210
G01 X26.2681 Y23.7762 Z-0.6866 F210
G01 X26.2647 Y23.7675 Z-0.6982 F210
G01 X26.2608 Y23.7591 Z-0.7098 F210
G01 X26.2562 Y23.7509 Z-0.7214 F210
G01 X26.2510 Y23.7432 Z-0.7330 F210
G01 X26.2453 Y23.7358 Z-0.7446 F210
G01 X26.2391 Y23.7288 Z-0.7562 F210
G01 X26.2324 Y23.7223 Z-0.7678 F210
G01 X26.2252 Y23.7163 Z-0.7794 F210
G01 X26.2176 Y23.7109 Z-0.7910 F210
G01 X26.2097 Y23.7060 Z-0.8027 F210
G01 X26.2014 Y23.7017 Z-0.8143 F210
G01 X26.1929 Y23.6980 Z-0.8259 F210
G01 X26.1841 Y23.6949 Z-0.8375 F210
G01 X26.1751 Y23.6925 Z-0.8491 F210
G01 X26.1659 Y23.6907 Z-0.8607 F210
G01 X26.1566 Y23.6896 Z-0.8723 F210
G01 X26.1473 Y23.6891 Z-0.8839 F210
G01 X26.1380 Y23.6893 Z-0.8955 F210
G01 X26.1287 Y23.6902 Z-0.9071 F210
G01 X26.1195 Y23.6918 Z-0.9187 F210
G01 X26.1104 Y23.6940 Z-0.9303 F210
G01 X26.1016 Y23.6969 Z-0.9420 F210
G01 X26.0929 Y23.7004 Z-0.9536 F210
G01 X26.0845 Y23.7045 Z-0.9652 F210
G01 X26.0765 Y23.7092 Z-0.9768 F210
G01 X26.0688 Y23.7144 Z-0.9884 F210
G01 X26.0615 Y23.7202 Z-1.0000 F210
G01 X26.0688 Y23.7144 Z-1.0116 F210
G01 X26.0765 Y23.7092 Z-1.0232 F210
G01 X26.0845 Y23.7045 Z-1.0348 F210
G01 X26.0929 Y23.7004 Z-1.0464 F210
G01 X26.1016 Y23.6969 Z-1.0580 F210
G01 X26.1104 Y23.6940 Z-1.0697 F210
G01 X26.1195 Y23.6918 Z-1.0813 F210
G01 X26.1287 Y23.6902 Z-1.0929 F210
G01 X26.1380 Y23.6893 Z-1.1045 F210
G01 X26.1473 Y23.6891 Z-1.1161 F210
G01 X26.1566 Y23.6896 Z-1.1277 F210
G01 X26.1659 Y23.6907 Z-1.1393 F210
G01 X26.1751 Y23.6925 Z-1.1509 F210
G01 X26.1841 Y23.6949 Z-1.1625 F210
G01 X26.1929 Y23.6980 Z-1.1741 F210
G01 X26.2014 Y23.7017 Z-1.1857 F210
G01 X26.2097 Y23.7060 Z-1.1973 F210
G01 X26.2176 Y23.7109 Z-1.2090 F210
G01 X26.2252 Y23.7163 Z-1.2206 F210
G01 X26.2324 Y23.7223 Z-1.2322 F210
G01 X26.2391 Y23.7288 Z-1.2438 F210
G01 X26.2453 Y23.7358 Z-1.2554 F210
G01 X26.2510 Y23.7432 Z-1.2670 F210
G01 X26.2562 Y23.7509 Z-1.2786 F210
G01 X26.2608 Y23.7591 Z-1.2902 F210
G01 X26.2647 Y23.7675 Z-1.3018 F210
G01 X26.2681 Y23.7762 Z-1.3134 F210
G01 X26.2709 Y23.7851 Z-1.3250 F210
G01 X26.2730 Y23.7946 Z-1.3371 F210
G01 X26.2745 Y23.8041 Z-1.3491 F210
G01 X26.2752 Y23.8138 Z-1.3612 F210
G01 Y23.8235 Z-1.3733 F210
G01 X26.2745 Y23.8331 Z-1.3853 F210
G01 X26.2730 Y23.8427 Z-1.3974 F210
G01 X26.2709 Y23.8522 Z-1.4094 F210
G01 X26.2680 Y23.8614 Z-1.4215 F210
G01 X26.2645 Y23.8704 Z-1.4335 F210
G01 X26.2603 Y23.8792 Z-1.4456 F210
G01 X26.2554 Y23.8876 Z-1.4576 F210
G01 X26.2500 Y23.8956 Z-1.4697 F210
G01 X26.2439 Y23.9031 Z-1.4817 F210
G01 X26.2373 Y23.9102 Z-1.4938 F210
G01 X26.2302 Y23.9168 Z-1.5058 F210
G01 X26.2227 Y23.9229 Z-1.5179 F210
G01 X26.2146 Y23.9283 Z-1.5299 F210
G01 X26.2063 Y23.9332 Z-1.5420 F210
G01 X26.1975 Y23.9374 Z-1.5540 F210
G01 X26.1885 Y23.9409 Z-1.5661 F210
G01 X26.1793 Y23.9438 Z-1.5782 F210
G01 X26.1698 Y23.9459 Z-1.5902 F210
G01 X26.1602 Y23.9474 Z-1.6023 F210
G01 X26.1506 Y23.9481 Z-1.6143 F210
G01 X26.1409 Z-1.6264 F210
G01 X26.1312 Y23.9474 Z-1.6384 F210
G01 X26.1216 Y23.9459 Z-1.6505 F210
G01 X26.1122 Y23.9438 Z-1.6625 F210
G01 X26.1029 Y23.9409 Z-1.6746 F210
G01 X26.0939 Y23.9374 Z-1.6866 F210
G01 X26.0852 Y23.9332 Z-1.6987 F210
G01 X26.0768 Y23.9283 Z-1.7107 F210
G01 X26.0688 Y23.9229 Z-1.7228 F210
G01 X26.0612 Y23.9168 Z-1.7348 F210
G01 X26.0541 Y23.9102 Z-1.7469 F210
G01 X26.0475 Y23.9031 Z-1.7589 F210
G01 X26.0415 Y23.8956 Z-1.7710 F210
G01 X26.0360 Y23.8876 Z-1.7830 F210
G01 X26.0312 Y23.8792 Z-1.7951 F210
G01 X26.0270 Y23.8704 Z-1.8072 F210
G01 X26.0235 Y23.8614 Z-1.8192 F210
G01 X26.0206 Y23.8522 Z-1.8313 F210
G01 X26.0184 Y23.8427 Z-1.8433 F210
G01 X26.0170 Y23.8331 Z-1.8554 F210
G01 X26.0163 Y23.8235 Z-1.8674 F210
G01 Y23.8138 Z-1.8795 F210
G01 X26.0170 Y23.8041 Z-1.8915 F210
G01 X26.0184 Y23.7946 Z-1.9036 F210
G01 X26.0206 Y23.7851 Z-1.9156 F210
G01 X26.0235 Y23.7759 Z-1.9277 F210
G01 X26.0270 Y23.7668 Z-1.9397 F210
G01 X26.0312 Y23.7581 Z-1.9518 F210
G01 X26.0360 Y23.7497 Z-1.9638 F210
G01 X26.0415 Y23.7417 Z-1.9759 F210
G01 X26.0475 Y23.7341 Z-1.9879 F210
G01 X26.0541 Y23.7270 Z-2.0000 F210
G01 X26.0475 Y23.7341 F480
G01 X26.0415 Y23.7417 F480
G01 X26.0360 Y23.7497 F480
G01 X26.0312 Y23.7581 F480
G01 X26.0270 Y23.7668 F480
G01 X26.0235 Y23.7759 F480
G01 X26.0206 Y23.7851 F480
G01 X26.0184 Y23.7946 F480
G01 X26.0170 Y23.8041 F480
G01 X26.0163 Y23.8138 F480
G01 Y23.8235 F480
G01 X26.0170 Y23.8331 F480
G01 X26.0184 Y23.8427 F480
G01 X26.0206 Y23.8522 F480
G01 X26.0235 Y23.8614 F480
G01 X26.0270 Y23.8704 F480
G01 X26.0312 Y23.8792 F480
G01 X26.0360 Y23.8876 F480
G01 X26.0415 Y23.8956 F480
G01 X26.0475 Y23.9031 F480
G01 X26.0541 Y23.9102 F480
G01 X26.0612 Y23.9168 F480
G01 X26.0688 Y23.9229 F480
G01 X26.0768 Y23.9283 F480
G01 X26.0852 Y23.9332 F480
G01 X26.0939 Y23.9374 F480
G01 X26.1029 Y23.9409 F480
G01 X26.1122 Y23.9438 F480
G01 X26.1216 Y23.9459 F480
G01 X26.1312 Y23.9474 F480
G01 X26.1409 Y23.9481 F480
G01 X26.1506 F480
G01 X26.1602 Y23.9474 F480
G01 X26.1698 Y23.9459 F480
G01 X26.1793 Y23.9438 F480
G01 X26.1885 Y23.9409 F480
G01 X26.1975 Y23.9374 F480
G01 X26.2063 Y23.9332 F480
G01 X26.2146 Y23.9283 F480
G01 X26.2227 Y23.9229 F480
G01 X26.2302 Y23.9168 F480
G01 X26.2373 Y23.9102 F480
G01 X26.2439 Y23.9031 F480
G01 X26.2500 Y23.8956 F480
G01 X26.2554 Y23.8876 F480
G01 X26.2603 Y23.8792 F480
G01 X26.2645 Y23.8704 F480
G01 X26.2680 Y23.8614 F480
G01 X26.2709 Y23.8522 F480
G01 X26.2730 Y23.8427 F480
G01 X26.2745 Y23.8331 F480
G01 X26.2752 Y23.8235 F480
G01 Y23.8138 F480
G01 X26.2745 Y23.8041 F480
G01 X26.2730 Y23.7946 F480
G01 X26.2709 Y23.7851 F480
G01 X26.2680 Y23.7759 F480
G01 X26.2645 Y23.7668 F480
G01 X26.2603 Y23.7581 F480
G01 X26.2554 Y23.7497 F480
G01 X26.2500 Y23.7417 F480
G01 X26.2439 Y23.7341 F480
G01 X26.2373 Y23.7270 F480
G01 X26.2302 Y23.7204 F480
G01 X26.2227 Y23.7144 F480
G01 X26.2146 Y23.7090 F480
G01 X26.2063 Y23.7041 F480
G01 X26.1975 Y23.6999 F480
G01 X26.1885 Y23.6964 F480
G01 X26.1793 Y23.6935 F480
G01 X26.1698 Y23.6914 F480
G01 X26.1602 Y23.6899 F480
G01 X26.1506 Y23.6892 F480
G01 X26.1409 F480
G01 X26.1312 Y23.6899 F480
G01 X26.1216 Y23.6914 F480
G01 X26.1122 Y23.6935 F480
G01 X26.1029 Y23.6964 F480
G01 X26.0939 Y23.6999 F480
G01 X26.0852 Y23.7041 F480
G01 X26.0768 Y23.7090 F480
G01 X26.0688 Y23.7144 F480
G01 X26.0612 Y23.7204 F480
G01 X26.0541 Y23.7270 F480
G01 X26.0475 Y23.7341 Z-2.0060 F210
G01 X26.0415 Y23.7417 Z-2.0121 F210
G01 X26.0360 Y23.7497 Z-2.0181 F210
G01 X26.0312 Y23.7581 Z-2.0241 F210
G01 X26.0270 Y23.7668 Z-2.0301 F210
G01 X26.0235 Y23.7759 Z-2.0362 F210
G01 X26.0206 Y23.7851 Z-2.0422 F210
G01 X26.0184 Y23.7946 Z-2.0482 F210
G01 X26.0170 Y23.8041 Z-2.0542 F210
G01 X26.0163 Y23.8138 Z-2.0603 F210
G01 Y23.8235 Z-2.0663 F210
G01 X26.0170 Y23.8331 Z-2.0723 F210
G01 X26.0184 Y23.8427 Z-2.0783 F210
G01 X26.0206 Y23.8522 Z-2.0844 F210
G01 X26.0235 Y23.8614 Z-2.0904 F210
G01 X26.0270 Y23.8704 Z-2.0964 F210
G01 X26.0312 Y23.8792 Z-2.1024 F210
G01 X26.0360 Y23.8876 Z-2.1085 F210
G01 X26.0415 Y23.8956 Z-2.1145 F210
G01 X26.0475 Y23.9031 Z-2.1205 F210
G01 X26.0541 Y23.9102 Z-2.1266 F210
G01 X26.0612 Y23.9168 Z-2.1326 F210
G01 X26.0688 Y23.9229 Z-2.1386 F210
G01 X26.0768 Y23.9283 Z-2.1446 F210
G01 X26.0852 Y23.9332 Z-2.1507 F210
G01 X26.0939 Y23.9374 Z-2.1567 F210
G01 X26.1029 Y23.9409 Z-2.1627 F210
G01 X26.1122 Y23.9438 Z-2.1687 F210
G01 X26.1216 Y23.9459 Z-2.1748 F210
G01 X26.1312 Y23.9474 Z-2.1808 F210
G01 X26.1409 Y23.9481 Z-2.1868 F210
G01 X26.1506 Z-2.1928 F210
G01 X26.1602 Y23.9474 Z-2.1989 F210
G01 X26.1698 Y23.9459 Z-2.2049 F210
G01 X26.1793 Y23.9438 Z-2.2109 F210
G01 X26.1885 Y23.9409 Z-2.2170 F210
G01 X26.1975 Y23.9374 Z-2.2230 F210
G01 X26.2063 Y23.9332 Z-2.2290 F210
G01 X26.2146 Y23.9283 Z-2.2350 F210
G01 X26.2227 Y23.9229 Z-2.2411 F210
G01 X26.2302 Y23.9168 Z-2.2471 F210
G01 X26.2373 Y23.9102 Z-2.2531 F210
G01 X26.2439 Y23.9031 Z-2.2591 F210
G01 X26.2500 Y23.8956 Z-2.2652 F210
G01 X26.2554 Y23.8876 Z-2.2712 F210
G01 X26.2603 Y23.8792 Z-2.2772 F210
G01 X26.2645 Y23.8704 Z-2.2832 F210
G01 X26.2680 Y23.8614 Z-2.2893 F210
G01 X26.2709 Y23.8522 Z-2.2953 F210
G01 X26.2730 Y23.8427 Z-2.3013 F210
G01 X26.2745 Y23.8331 Z-2.3073 F210
G01 X26.2752 Y23.8235 Z-2.3134 F210
G01 Y23.8138 Z-2.3194 F210
G01 X26.2745 Y23.8041 Z-2.3254 F210
G01 X26.2730 Y23.7946 Z-2.3315 F210
G01 X26.2709 Y23.7851 Z-2.3375 F210
G01 X26.2681 Y23.7762 Z-2.3433 F210
G01 X26.2647 Y23.7675 Z-2.3491 F210
G01 X26.2608 Y23.7591 Z-2.3549 F210
G01 X26.2562 Y23.7509 Z-2.3607 F210
G01 X26.2510 Y23.7432 Z-2.3665 F210
G01 X26.2453 Y23.7358 Z-2.3723 F210
G01 X26.2391 Y23.7288 Z-2.3781 F210
G01 X26.2324 Y23.7223 Z-2.3839 F210
G01 X26.2252 Y23.7163 Z-2.3897 F210
G01 X26.2176 Y23.7109 Z-2.3955 F210
G01 X26.2097 Y23.7060 Z-2.4013 F210
G01 X26.2014 Y23.7017 Z-2.4071 F210
G01 X26.1929 Y23.6980 Z-2.4129 F210
G01 X26.1841 Y23.6949 Z-2.4187 F210
G01 X26.1751 Y23.6925 Z-2.4245 F210
G01 X26.1659 Y23.6907 Z-2.4303 F210
G01 X26.1566 Y23.6896 Z-2.4362 F210
G01 X26.1473 Y23.6891 Z-2.4420 F210
G01 X26.1380 Y23.6893 Z-2.4478 F210
G01 X26.1287 Y23.6902 Z-2.4536 F210
G01 X26.1195 Y23.6918 Z-2.4594 F210
G01 X26.1104 Y23.6940 Z-2.4652 F210
G01 X26.1016 Y23.6969 Z-2.4710 F210
G01 X26.0929 Y23.7004 Z-2.4768 F210
G01 X26.0845 Y23.7045 Z-2.4826 F210
G01 X26.0765 Y23.7092 Z-2.4884 F210
G01 X26.0688 Y23.7144 Z-2.4942 F210
G01 X26.0615 Y23.7202 Z-2.5000 F210
G01 X26.0688 Y23.7144 Z-2.5058 F210
G01 X26.0765 Y23.7092 Z-2.5116 F210
G01 X26.0845 Y23.7045 Z-2.5174 F210
G01 X26.0929 Y23.7004 Z-2.5232 F210
G01 X26.1016 Y23.6969 Z-2.5290 F210
G01 X26.1104 Y23.6940 Z-2.5348 F210
G01 X26.1195 Y23.6918 Z-2.5406 F210
G01 X26.1287 Y23.6902 Z-2.5464 F210
G01 X26.1380 Y23.6893 Z-2.5522 F210
G01 X26.1473 Y23.6891 Z-2.5580 F210
G01 X26.1566 Y23.6896 Z-2.5638 F210
G01 X26.1659 Y23.6907 Z-2.5697 F210
G01 X26.1751 Y23.6925 Z-2.5755 F210
G01 X26.1841 Y23.6949 Z-2.5813 F210
G01 X26.1929 Y23.6980 Z-2.5871 F210
G01 X26.2014 Y23.7017 Z-2.5929 F210
G01 X26.2097 Y23.7060 Z-2.5987 F210
G01 X26.2176 Y23.7109 Z-2.6045 F210
G01 X26.2252 Y23.7163 Z-2.6103 F210
G01 X26.2324 Y23.7223 Z-2.6161 F210
G01 X26.2391 Y23.7288 Z-2.6219 F210
G01 X26.2453 Y23.7358 Z-2.6277 F210
G01 X26.2510 Y23.7432 Z-2.6335 F210
G01 X26.2562 Y23.7509 Z-2.6393 F210
G01 X26.2608 Y23.7591 Z-2.6451 F210
G01 X26.2647 Y23.7675 Z-2.6509 F210
G01 X26.2681 Y23.7762 Z-2.6567 F210
G01 X26.2709 Y23.7851 Z-2.6625 F210
G01 X26.2730 Y23.7946 Z-2.6685 F210
G01 X26.2745 Y23.8041 Z-2.6746 F210
G01 X26.2752 Y23.8138 Z-2.6806 F210
G01 Y23.8235 Z-2.6866 F210
G01 X26.2745 Y23.8331 Z-2.6927 F210
G01 X26.2730 Y23.8427 Z-2.6987 F210
G01 X26.2709 Y23.8522 Z-2.7047 F210
G01 X26.2680 Y23.8614 Z-2.7107 F210
G01 X26.2645 Y23.8704 Z-2.7168 F210
G01 X26.2603 Y23.8792 Z-2.7228 F210
G01 X26.2554 Y23.8876 Z-2.7288 F210
G01 X26.2500 Y23.8956 Z-2.7348 F210
G01 X26.2439 Y23.9031 Z-2.7409 F210
G01 X26.2373 Y23.9102 Z-2.7469 F210
G01 X26.2302 Y23.9168 Z-2.7529 F210
G01 X26.2227 Y23.9229 Z-2.7589 F210
G01 X26.2146 Y23.9283 Z-2.7650 F210
G01 X26.2063 Y23.9332 Z-2.7710 F210
G01 X26.1975 Y23.9374 Z-2.7770 F210
G01 X26.1885 Y23.9409 Z-2.7830 F210
G01 X26.1793 Y23.9438 Z-2.7891 F210
G01 X26.1698 Y23.9459 Z-2.7951 F210
G01 X26.1602 Y23.9474 Z-2.8011 F210
G01 X26.1506 Y23.9481 Z-2.8072 F210
G01 X26.1409 Z-2.8132 F210
G01 X26.1312 Y23.9474 Z-2.8192 F210
G01 X26.1216 Y23.9459 Z-2.8252 F210
G01 X26.1122 Y23.9438 Z-2.8313 F210
G01 X26.1029 Y23.9409 Z-2.8373 F210
G01 X26.0939 Y23.9374 Z-2.8433 F210
G01 X26.0852 Y23.9332 Z-2.8493 F210
G01 X26.0768 Y23.9283 Z-2.8554 F210
G01 X26.0688 Y23.9229 Z-2.8614 F210
G01 X26.0612 Y23.9168 Z-2.8674 F210
G01 X26.0541 Y23.9102 Z-2.8734 F210
G01 X26.0475 Y23.9031 Z-2.8795 F210
G01 X26.0415 Y23.8956 Z-2.8855 F210
G01 X26.0360 Y23.8876 Z-2.8915 F210
G01 X26.0312 Y23.8792 Z-2.8976 F210
G01 X26.0270 Y23.8704 Z-2.9036 F210
G01 X26.0235 Y23.8614 Z-2.9096 F210
G01 X26.0206 Y23.8522 Z-2.9156 F210
G01 X26.0184 Y23.8427 Z-2.9217 F210
G01 X26.0170 Y23.8331 Z-2.9277 F210
G01 X26.0163 Y23.8235 Z-2.9337 F210
G01 Y23.8138 Z-2.9397 F210
G01 X26.0170 Y23.8041 Z-2.9458 F210
G01 X26.0184 Y23.7946 Z-2.9518 F210
G01 X26.0206 Y23.7851 Z-2.9578 F210
G01 X26.0235 Y23.7759 Z-2.9638 F210
G01 X26.0270 Y23.7668 Z-2.9699 F210
G01 X26.0312 Y23.7581 Z-2.9759 F210
G01 X26.0360 Y23.7497 Z-2.9819 F210
G01 X26.0415 Y23.7417 Z-2.9879 F210
G01 X26.0475 Y23.7341 Z-2.9940 F210
G01 X26.0541 Y23.7270 Z-3.0000 F210
G01 X26.0475 Y23.7341 F480
G01 X26.0415 Y23.7417 F480
G01 X26.0360 Y23.7497 F480
G01 X26.0312 Y23.7581 F480
G01 X26.0270 Y23.7668 F480
G01 X26.0235 Y23.7759 F480
G01 X26.0206 Y23.7851 F480
G01 X26.0184 Y23.7946 F480
G01 X26.0170 Y23.8041 F480
G01 X26.0163 Y23.8138 F480
G01 Y23.8235 F480
G01 X26.0170 Y23.8331 F480
G01 X26.0184 Y23.8427 F480
G01 X26.0206 Y23.8522 F480
G01 X26.0235 Y23.8614 F480
G01 X26.0270 Y23.8704 F480
G01 X26.0312 Y23.8792 F480
G01 X26.0360 Y23.8876 F480
G01 X26.0415 Y23.8956 F480
G01 X26.0475 Y23.9031 F480
G01 X26.0541 Y23.9102 F480
G01 X26.0612 Y23.9168 F480
G01 X26.0688 Y23.9229 F480
G01 X26.0768 Y23.9283 F480
G01 X26.0852 Y23.9332 F480
G01 X26.0939 Y23.9374 F480
G01 X26.1029 Y23.9409 F480
G01 X26.1122 Y23.9438 F480
G01 X26.1216 Y23.9459 F480
G01 X26.1312 Y23.9474 F480
G01 X26.1409 Y23.9481 F480
G01 X26.1506 F480
G01 X26.1602 Y23.9474 F480
G01 X26.1698 Y23.9459 F480
G01 X26.1793 Y23.9438 F480
G01 X26.1885 Y23.9409 F480
G01 X26.1975 Y23.9374 F480
G01 X26.2063 Y23.9332 F480
G01 X26.2146 Y23.9283 F480
G01 X26.2227 Y23.9229 F480
G01 X26.2302 Y23.9168 F480
G01 X26.2373 Y23.9102 F480
G01 X26.2439 Y23.9031 F480
G01 X26.2500 Y23.8956 F480
G01 X26.2554 Y23.8876 F480
G01 X26.2603 Y23.8792 F480
G01 X26.2645 Y23.8704 F480
G01 X26.2680 Y23.8614 F480
G01 X26.2709 Y23.8522 F480
G01 X26.2730 Y23.8427 F480
G01 X26.2745 Y23.8331 F480
G01 X26.2752 Y23.8235 F480
G01 Y23.8138 F480
G01 X26.2745 Y23.8041 F480
G01 X26.2730 Y23.7946 F480
G01 X26.2709 Y23.7851 F480
G01 X26.2680 Y23.7759 F480
G01 X26.2645 Y23.7668 F480
G01 X26.2603 Y23.7581 F480
G01 X26.2554 Y23.7497 F480
G01 X26.2500 Y23.7417 F480
G01 X26.2439 Y23.7341 F480
G01 X26.2373 Y23.7270 F480
G01 X26.2302 Y23.7204 F480
G01 X26.2227 Y23.7144 F480
G01 X26.2146 Y23.7090 F480
G01 X26.2063 Y23.7041 F480
G01 X26.1975 Y23.6999 F480
G01 X26.1885 Y23.6964 F480
G01 X26.1793 Y23.6935 F480
G01 X26.1698 Y23.6914 F480
G01 X26.1602 Y23.6899 F480
G01 X26.1506 Y23.6892 F480
G01 X26.1409 F480
G01 X26.1312 Y23.6899 F480
G01 X26.1216 Y23.6914 F480
G01 X26.1122 Y23.6935 F480
G01 X26.1029 Y23.6964 F480
G01 X26.0939 Y23.6999 F480
G01 X26.0852 Y23.7041 F480
G01 X26.0768 Y23.7090 F480
G01 X26.0688 Y23.7144 F480
G01 X26.0612 Y23.7204 F480
G01 X26.0541 Y23.7270 F480
G00 Z3.0000 F400


;No. 6: Hole 9
G00 X68.6128 Y19.8556 Z3.0000 F4000
G00 Z0.5000 F400
G01 Z0.0000 F210
G01 X70.7189 Z-0.0921 F210
G01 Y19.0556 Z-0.1271 F210
G01 X68.6128 Z-0.2193 F210
G01 X68.4182 Y19.0055 Z-0.2280 F210
G01 X68.3870 Y19.1039 Z-0.2326 F210
G01 X68.3635 Y19.2043 Z-0.2371 F210
G01 X68.3479 Y19.3063 Z-0.2416 F210
G01 X68.3402 Y19.4092 Z-0.2461 F210
G01 X68.3406 Y19.5123 Z-0.2506 F210
G01 X68.3490 Y19.6151 Z-0.2551 F210
G01 X68.3653 Y19.7170 Z-0.2596 F210
G01 X68.3896 Y19.8173 Z-0.2642 F210
G01 X68.4215 Y19.9154 Z-0.2687 F210
G01 X68.4610 Y20.0107 Z-0.2732 F210
G01 X68.5077 Y20.1026 Z-0.2777 F210
G01 X68.5614 Y20.1907 Z-0.2822 F210
G01 X68.6219 Y20.2743 Z-0.2867 F210
G01 X68.6886 Y20.3530 Z-0.2912 F210
G01 X68.7613 Y20.4262 Z-0.2957 F210
G01 X68.8394 Y20.4936 Z-0.3003 F210
G01 X68.9225 Y20.5546 Z-0.3048 F210
G01 X69.0101 Y20.6091 Z-0.3093 F210
G01 X69.1017 Y20.6566 Z-0.3138 F210
G01 X69.1967 Y20.6968 Z-0.3183 F210
G01 X69.2946 Y20.7295 Z-0.3228 F210
G01 X69.3946 Y20.7545 Z-0.3273 F210
G01 X69.4964 Y20.7717 Z-0.3319 F210
G01 X69.5991 Y20.7809 Z-0.3364 F210
G01 X69.7023 Y20.7821 Z-0.3409 F210
G01 X69.8052 Y20.7753 Z-0.3454 F210
G01 X69.9073 Y20.7605 Z-0.3499 F210
G01 X70.0079 Y20.7378 Z-0.3544 F210
G01 X70.1065 Y20.7073 Z-0.3589 F210
G01 X70.2024 Y20.6693 Z-0.3635 F210
G01 X70.2950 Y20.6240 Z-0.3680 F210
G01 X70.3839 Y20.5716 Z-0.3725 F210
G01 X70.4684 Y20.5124 Z-0.3770 F210
G01 X70.5481 Y20.4469 Z-0.3815 F210
G01 X70.6224 Y20.3753 Z-0.3860 F210
G01 X70.6909 Y20.2982 Z-0.3905 F210
G01 X70.7533 Y20.2161 Z-0.3951 F210
G01 X70.8091 Y20.1293 Z-0.3996 F210
G01 X70.8579 Y20.0384 Z-0.4041 F210
G01 X70.8996 Y19.9440 Z-0.4086 F210
G01 X70.9342 Y19.8455 Z-0.4132 F210
G01 X70.9610 Y19.7445 Z-0.4177 F210
G01 X70.9797 Y19.6418 Z-0.4223 F210
G01 X70.9903 Y19.5379 Z-0.4269 F210
G01 X70.9927 Y19.4334 Z-0.4314 F210
G01 X70.9868 Y19.3291 Z-0.4360 F210
G01 X70.9728 Y19.2256 Z-0.4406 F210
G01 X70.9507 Y19.1236 Z-0.4452 F210
G01 X70.9206 Y19.0235 Z-0.4497 F210
G01 X70.8828 Y18.9262 Z-0.4543 F210
G01 X70.8373 Y18.8321 Z-0.4589 F210
G01 X70.7847 Y18.7419 Z-0.4634 F210
G01 X70.7251 Y18.6561 Z-0.4680 F210
G01 X70.6589 Y18.5753 Z-0.4726 F210
G01 X70.5866 Y18.4999 Z-0.4771 F210
G01 X70.5086 Y18.4305 Z-0.4817 F210
G01 X70.4253 Y18.3674 Z-0.4863 F210
G01 X70.3374 Y18.3110 Z-0.4909 F210
G01 X70.2453 Y18.2618 Z-0.4954 F210
G01 X70.1496 Y18.2199 Z-0.5000 F210
G01 X70.2453 Y18.2618 Z-0.5046 F210
G01 X70.3374 Y18.3110 Z-0.5091 F210
G01 X70.4253 Y18.3674 Z-0.5137 F210
G01 X70.5086 Y18.4305 Z-0.5183 F210
G01 X70.5866 Y18.4999 Z-0.5229 F210
G01 X70.6589 Y18.5753 Z-0.5274 F210
G01 X70.7251 Y18.6561 Z-0.5320 F210
G01 X70.7847 Y18.7419 Z-0.5366 F210
G01 X70.8373 Y18.8321 Z-0.5411 F210
G01 X70.8828 Y18.9262 Z-0.5457 F210
G01 X70.9206 Y19.0235 Z-0.5503 F210
G01 X70.9507 Y19.1236 Z-0.5548 F210
G01 X70.9728 Y19.2256 Z-0.5594 F210
G01 X70.9868 Y19.3291 Z-0.5640 F210
G01 X70.9927 Y19.4334 Z-0.5686 F210
G01 X70.9903 Y19.5379 Z-0.5731 F210
G01 X70.9797 Y19.6418 Z-0.5777 F210
G01 X70.9610 Y19.7445 Z-0.5823 F210
G01 X70.9342 Y19.8455 Z-0.5868 F210
G01 X70.8996 Y19.9440 Z-0.5914 F210
G01 X70.8579 Y20.0384 Z-0.5959 F210
G01 X70.8091 Y20.1293 Z-0.6004 F210
G01 X70.7533 Y20.2161 Z-0.6049 F210
G01 X70.6909 Y20.2982 Z-0.6095 F210
G01 X70.6224 Y20.3753 Z-0.6140 F210
G01 X70.5481 Y20.4469 Z-0.6185 F210
G01 X70.4684 Y20.5124 Z-0.6230 F210
G01 X70.3839 Y20.5716 Z-0.6275 F210
G01 X70.2950 Y20.6240 Z-0.6320 F210
G01 X70.2024 Y20.6693 Z-0.6365 F210
G01 X70.1065 Y20.7073 Z-0.6411 F210
G01 X70.0079 Y20.7378 Z-0.6456 F210
G01 X69.9073 Y20.7605 Z-0.6501 F210
G01 X69.8052 Y20.7753 Z-0.6546 F210
G01 X69.7023 Y20.7821 Z-0.6591 F210
G01 X69.5991 Y20.7809 Z-0.6636 F210
G01 X69.4964 Y20.7717 Z-0.6681 F210
G01 X69.3946 Y20.7545 Z-0.6727 F210
G01 X69.2946 Y20.7295 Z-0.6772 F210
G01 X69.1967 Y20.6968 Z-0.6817 F210
G01 X69.1017 Y20.6566 Z-0.6862 F210
G01 X69.0101 Y20.6091 Z-0.6907 F210
G01 X68.9225 Y20.5546 Z-0.6952 F210
G01 X68.8394 Y20.4936 Z-0.6997 F210
G01 X68.7613 Y20.4262 Z-0.7043 F210
G01 X68.6886 Y20.3530 Z-0.7088 F210
G01 X68.6219 Y20.2743 Z-0.7133 F210
G01 X68.5614 Y20.1907 Z-0.7178 F210
G01 X68.5077 Y20.1026 Z-0.7223 F210
G01 X68.4610 Y20.0107 Z-0.7268 F210
G01 X68.4215 Y19.9154 Z-0.7313 F210
G01 X68.3896 Y19.8173 Z-0.7358 F210
G01 X68.3653 Y19.7170 Z-0.7404 F210
G01 X68.3490 Y19.6151 Z-0.7449 F210
G01 X68.3406 Y19.5123 Z-0.7494 F210
G01 X68.3402 Y19.4092 Z-0.7539 F210
G01 X68.3479 Y19.3063 Z-0.7584 F210
G01 X68.3635 Y19.2043 Z-0.7629 F210
G01 X68.3870 Y19.1039 Z-0.7674 F210
G01 X68.4182 Y19.0055 Z-0.7720 F210
G01 X68.6128 Y19.0556 Z-0.7807 F210
G01 X70.7189 Z-0.8729 F210
G01 Y19.8556 Z-0.9079 F210
G01 X68.6128 Z-1.0000 F210
G01 X70.7189 F480
G01 Y19.0556 F480
G01 X68.6128 F480
G01 X68.4182 Y19.0055 F480
G01 X68.3870 Y19.1039 F480
G01 X68.3635 Y19.2043 F480
G01 X68.3479 Y19.3063 F480
G01 X68.3402 Y19.4092 F480
G01 X68.3406 Y19.5123 F480
G01 X68.3490 Y19.6151 F480
G01 X68.3653 Y19.7170 F480
G01 X68.3896 Y19.8173 F480
G01 X68.4215 Y19.9154 F480
G01 X68.4610 Y20.0107 F480
G01 X68.5077 Y20.1026 F480
G01 X68.5614 Y20.1907 F480
G01 X68.6219 Y20.2743 F480
G01 X68.6886 Y20.3530 F480
G01 X68.7613 Y20.4262 F480
G01 X68.8394 Y20.4936 F480
G01 X68.9225 Y20.5546 F480
G01 X69.0101 Y20.6091 F480
G01 X69.1017 Y20.6566 F480
G01 X69.1967 Y20.6968 F480
G01 X69.2946 Y20.7295 F480
G01 X69.3946 Y20.7545 F480
G01 X69.4964 Y20.7717 F480
G01 X69.5991 Y20.7809 F480
G01 X69.7023 Y20.7821 F480
G01 X69.8052 Y20.7753 F480
G01 X69.9073 Y20.7605 F480
G01 X70.0079 Y20.7378 F480
G01 X70.1065 Y20.7073 F480
G01 X70.2024 Y20.6693 F480
G01 X70.2950 Y20.6240 F480
G01 X70.3839 Y20.5716 F480
G01 X70.4684 Y20.5124 F480
G01 X70.5481 Y20.4469 F480
G01 X70.6224 Y20.3753 F480
G01 X70.6909 Y20.2982 F480
G01 X70.7533 Y20.2161 F480
G01 X70.8091 Y20.1293 F480
G01 X70.8579 Y20.0384 F480
G01 X70.8996 Y19.9440 F480
G01 X70.9344 Y19.8448 F480
G01 X70.9613 Y19.7431 F480
G01 X70.9800 Y19.6395 F480
G01 X70.9905 Y19.5349 F480
G01 X70.9926 Y19.4297 F480
G01 X70.9864 Y19.3247 F480
G01 X70.9719 Y19.2205 F480
G01 X70.9492 Y19.1177 F480
G01 X70.9184 Y19.0171 F480
G01 X70.8797 Y18.9193 F480
G01 X70.8334 Y18.8248 F480
G01 X70.7798 Y18.7343 F480
G01 X70.7192 Y18.6484 F480
G01 X70.6519 Y18.5675 F480
G01 X70.5785 Y18.4922 F480
G01 X70.4993 Y18.4229 F480
G01 X70.4148 Y18.3601 F480
G01 X70.3257 Y18.3043 F480
G01 X70.2324 Y18.2556 F480
G01 X70.1356 Y18.2145 F480
G01 X70.0358 Y18.1813 F480
G01 X69.9336 Y18.1560 F480
G01 X69.8298 Y18.1389 F480
G01 X69.7250 Y18.1301 F480
G01 X69.6198 Y18.1296 F480
G01 X69.5149 Y18.1374 F480
G01 X69.4109 Y18.1536 F480
G01 X69.3086 Y18.1779 F480
G01 X69.2085 Y18.2102 F480
G01 X69.1113 Y18.2504 F480
G01 X69.0175 Y18.2982 F480
G01 X68.9279 Y18.3532 F480
G01 X68.8429 Y18.4152 F480
G01 X68.7630 Y18.4837 F480
G01 X68.6889 Y18.5584 F480
G01 X68.6209 Y18.6386 F480
G01 X68.5594 Y18.7240 F480
G01 X68.5050 Y18.8140 F480
G01 X68.4578 Y18.9081 F480
G01 X68.4182 Y19.0055 F480
G01 X68.6128 Y19.0556 F480
G00 Z3.0000 F400


;No. 7: Hole 5
G00 X69.5441 Y19.4113 Z3.0000 F4000
G00 Z0.5000 F400
G01 Z0.0000 F210
G01 X69.5411 Y19.4205 Z-0.0121 F210
G01 X69.5389 Y19.4299 Z-0.0241 F210
G01 X69.5373 Y19.4395 Z-0.0362 F210
G01 X69.5364 Y19.4491 Z-0.0482 F210
G01 X69.5363 Y19.4588 Z-0.0603 F210
G01 X69.5369 Y19.4685 Z-0.0723 F210
G01 X69.5383 Y19.4781 Z-0.0844 F210
G01 X69.5403 Y19.4875 Z-0.0964 F210
G01 X69.5430 Y19.4968 Z-0.1085 F210
G01 X69.5465 Y19.5059 Z-0.1205 F210
G01 X69.5506 Y19.5147 Z-0.1326 F210
G01 X69.5553 Y19.5231 Z-0.1446 F210
G01 X69.5606 Y19.5312 Z-0.1567 F210
G01 X69.5666 Y19.5388 Z-0.1687 F210
G01 X69.5731 Y19.5460 Z-0.1808 F210
G01 X69.5801 Y19.5527 Z-0.1928 F210
G01 X69.5876 Y19.5588 Z-0.2049 F210
G01 X69.5955 Y19.5644 Z-0.2170 F210
G01 X69.6039 Y19.5693 Z-0.2290 F210
G01 X69.6125 Y19.5736 Z-0.2411 F210
G01 X69.6215 Y19.5773 Z-0.2531 F210
G01 X69.6307 Y19.5803 Z-0.2652 F210
G01 X69.6402 Y19.5825 Z-0.2772 F210
G01 X69.6497 Y19.5841 Z-0.2893 F210
G01 X69.6594 Y19.5849 Z-0.3013 F210
G01 X69.6691 Y19.5851 Z-0.3134 F210
G01 X69.6787 Y19.5845 Z-0.3254 F210
G01 X69.6883 Y19.5831 Z-0.3375 F210
G01 X69.6978 Y19.5811 Z-0.3495 F210
G01 X69.7071 Y19.5784 Z-0.3616 F210
G01 X69.7161 Y19.5749 Z-0.3736 F210
G01 X69.7249 Y19.5708 Z-0.3857 F210
G01 X69.7334 Y19.5661 Z-0.3977 F210
G01 X69.7414 Y19.5607 Z-0.4098 F210
G01 X69.7491 Y19.5548 Z-0.4218 F210
G01 X69.7563 Y19.5483 Z-0.4339 F210
G01 X69.7630 Y19.5413 Z-0.4460 F210
G01 X69.7691 Y19.5338 Z-0.4580 F210
G01 X69.7746 Y19.5258 Z-0.4701 F210
G01 X69.7796 Y19.5175 Z-0.4821 F210
G01 X69.7839 Y19.5088 Z-0.4942 F210
G01 X69.7876 Y19.4999 Z-0.5062 F210
G01 X69.7905 Y19.4907 Z-0.5183 F210
G01 X69.7928 Y19.4812 Z-0.5303 F210
G01 X69.7944 Y19.4717 Z-0.5424 F210
G01 X69.7952 Y19.4620 Z-0.5544 F210
G01 X69.7953 Y19.4523 Z-0.5665 F210
G01 X69.7947 Y19.4427 Z-0.5785 F210
G01 X69.7934 Y19.4331 Z-0.5906 F210
G01 X69.7914 Y19.4236 Z-0.6026 F210
G01 X69.7886 Y19.4143 Z-0.6147 F210
G01 X69.7852 Y19.4052 Z-0.6267 F210
G01 X69.7811 Y19.3965 Z-0.6388 F210
G01 X69.7764 Y19.3880 Z-0.6509 F210
G01 X69.7710 Y19.3799 Z-0.6629 F210
G01 X69.7651 Y19.3723 Z-0.6750 F210
G01 X69.7588 Y19.3654 Z-0.6866 F210
G01 X69.7521 Y19.3589 Z-0.6982 F210
G01 X69.7449 Y19.3530 Z-0.7098 F210
G01 X69.7373 Y19.3475 Z-0.7214 F210
G01 X69.7293 Y19.3427 Z-0.7330 F210
G01 X69.7211 Y19.3384 Z-0.7446 F210
G01 X69.7125 Y19.3347 Z-0.7562 F210
G01 X69.7037 Y19.3317 Z-0.7678 F210
G01 X69.6946 Y19.3293 Z-0.7794 F210
G01 X69.6855 Y19.3275 Z-0.7910 F210
G01 X69.6762 Y19.3264 Z-0.8027 F210
G01 X69.6669 Y19.3260 Z-0.8143 F210
G01 X69.6576 Y19.3263 Z-0.8259 F210
G01 X69.6483 Y19.3272 Z-0.8375 F210
G01 X69.6391 Y19.3288 Z-0.8491 F210
G01 X69.6300 Y19.3311 Z-0.8607 F210
G01 X69.6212 Y19.3340 Z-0.8723 F210
G01 X69.6125 Y19.3375 Z-0.8839 F210
G01 X69.6042 Y19.3416 Z-0.8955 F210
G01 X69.5961 Y19.3464 Z-0.9071 F210
G01 X69.5884 Y19.3517 Z-0.9187 F210
G01 X69.5812 Y19.3575 Z-0.9303 F210
G01 X69.5743 Y19.3639 Z-0.9420 F210
G01 X69.5680 Y19.3707 Z-0.9536 F210
G01 X69.5621 Y19.3780 Z-0.9652 F210
G01 X69.5568 Y19.3856 Z-0.9768 F210
G01 X69.5520 Y19.3937 Z-0.9884 F210
G01 X69.5479 Y19.4020 Z-1.0000 F210
G01 X69.5520 Y19.3937 Z-1.0116 F210
G01 X69.5568 Y19.3856 Z-1.0232 F210
G01 X69.5621 Y19.3780 Z-1.0348 F210
G01 X69.5680 Y19.3707 Z-1.0464 F210
G01 X69.5743 Y19.3639 Z-1.0580 F210
G01 X69.5812 Y19.3575 Z-1.0697 F210
G01 X69.5884 Y19.3517 Z-1.0813 F210
G01 X69.5961 Y19.3464 Z-1.0929 F210
G01 X69.6042 Y19.3416 Z-1.1045 F210
G01 X69.6125 Y19.3375 Z-1.1161 F210
G01 X69.6212 Y19.3340 Z-1.1277 F210
G01 X69.6300 Y19.3311 Z-1.1393 F210
G01 X69.6391 Y19.3288 Z-1.1509 F210
G01 X69.6483 Y19.3272 Z-1.1625 F210
G01 X69.6576 Y19.3263 Z-1.1741 F210
G01 X69.6669 Y19.3260 Z-1.1857 F210
G01 X69.6762 Y19.3264 Z-1.1973 F210
G01 X69.6855 Y19.3275 Z-1.2090 F210
G01 X69.6946 Y19.3293 Z-1.2206 F210
G01 X69.7037 Y19.3317 Z-1.2322 F210
G01 X69.7125 Y19.3347 Z-1.2438 F210
G01 X69.7211 Y19.3384 Z-1.2554 F210
G01 X69.7293 Y19.3427 Z-1.2670 F210
G01 X69.7373 Y19.3475 Z-1.2786 F210
G01 X69.7449 Y19.3530 Z-1.2902 F210
G01 X69.7521 Y19.3589 Z-1.3018 F210
G01 X69.7588 Y19.3654 Z-1.3134 F210
G01 X69.7651 Y19.3723 Z-1.3250 F210
G01 X69.7710 Y19.3799 Z-1.3371 F210
G01 X69.7764 Y19.3880 Z-1.3491 F210
G01 X69.7811 Y19.3965 Z-1.3612 F210
G01 X69.7852 Y19.4052 Z-1.3733 F210
G01 X69.7886 Y19.4143 Z-1.3853 F210
G01 X69.7914 Y19.4236 Z-1.3974 F210
G01 X69.7934 Y19.4331 Z-1.4094 F210
G01 X69.7947 Y19.4427 Z-1.4215 F210
G01 X69.7953 Y19.4523 Z-1.4335 F210
G01 X69.7952 Y19.4620 Z-1.4456 F210
G01 X69.7944 Y19.4717 Z-1.4576 F210
G01 X69.7928 Y19.4812 Z-1.4697 F210
G01 X69.7905 Y19.4907 Z-1.4817 F210
G01 X69.7876 Y19.4999 Z-1.4938 F210
G01 X69.7839 Y19.5088 Z-1.5058 F210
G01 X69.7796 Y19.5175 Z-1.5179 F210
G01 X69.7746 Y19.5258 Z-1.5299 F210
G01 X69.7691 Y19.5338 Z-1.5420 F210
G01 X69.7630 Y19.5413 Z-1.5540 F210
G01 X69.7563 Y19.5483 Z-1.5661 F210
G01 X69.7491 Y19.5548 Z-1.5782 F210
G01 X69.7414 Y19.5607 Z-1.5902 F210
G01 X69.7334 Y19.5661 Z-1.6023 F210
G01 X69.7249 Y19.5708 Z-1.6143 F210
G01 X69.7161 Y19.5749 Z-1.6264 F210
G01 X69.7071 Y19.5784 Z-1.6384 F210
G01 X69.6978 Y19.5811 Z-1.6505 F210
G01 X69.6883 Y19.5831 Z-1.6625 F210
G01 X69.6787 Y19.5845 Z-1.6746 F210
G01 X69.6691 Y19.5851 Z-1.6866 F210
G01 X69.6594 Y19.5849 Z-1.6987 F210
G01 X69.6497 Y19.5841 Z-1.7107 F210
G01 X69.6402 Y19.5825 Z-1.7228 F210
G01 X69.6307 Y19.5803 Z-1.7348 F210
G01 X69.6215 Y19.5773 Z-1.7469 F210
G01 X69.6125 Y19.5736 Z-1.7589 F210
G01 X69.6039 Y19.5693 Z-1.7710 F210
G01 X69.5955 Y19.5644 Z-1.7830 F210
G01 X69.5876 Y19.5588 Z-1.7951 F210
G01 X69.5801 Y19.5527 Z-1.8072 F210
G01 X69.5731 Y19.5460 Z-1.8192 F210
G01 X69.5666 Y19.5388 Z-1.8313 F210
G01 X69.5606 Y19.5312 Z-1.8433 F210
G01 X69.5553 Y19.5231 Z-1.8554 F210
G01 X69.5506 Y19.5147 Z-1.8674 F210
G01 X69.5465 Y19.5059 Z-1.8795 F210
G01 X69.5430 Y19.4968 Z-1.8915 F210
G01 X69.5403 Y19.4875 Z-1.9036 F210
G01 X69.5383 Y19.4781 Z-1.9156 F210
G01 X69.5369 Y19.4685 Z-1.9277 F210
G01 X69.5363 Y19.4588 Z-1.9397 F210
G01 X69.5364 Y19.4491 Z-1.9518 F210
G01 X69.5373 Y19.4395 Z-1.9638 F210
G01 X69.5389 Y19.4299 Z-1.9759 F210
G01 X69.5411 Y19.4205 Z-1.9879 F210
G01 X69.5441 Y19.4113 Z-2.0000 F210
G01 X69.5411 Y19.4205 F480
G01 X69.5389 Y19.4299 F480
G01 X69.5373 Y19.4395 F480
G01 X69.5364 Y19.4491 F480
G01 X69.5363 Y19.4588 F480
G01 X69.5369 Y19.4685 F480
G01 X69.5383 Y19.4781 F480
G01 X69.5403 Y19.4875 F480
G01 X69.5430 Y19.4968 F480
G01 X69.5465 Y19.5059 F480
G01 X69.5506 Y19.5147 F480
G01 X69.5553 Y19.5231 F480
G01 X69.5606 Y19.5312 F480
G01 X69.5666 Y19.5388 F480
G01 X69.5731 Y19.5460 F480
G01 X69.5801 Y19.5527 F480
G01 X69.5876 Y19.5588 F480
G01 X69.5955 Y19.5644 F480
G01 X69.6039 Y19.5693 F480
G01 X69.6125 Y19.5736 F480
G01 X69.6215 Y19.5773 F480
G01 X69.6307 Y19.5803 F480
G01 X69.6402 Y19.5825 F480
G01 X69.6497 Y19.5841 F480
G01 X69.6594 Y19.5849 F480
G01 X69.6691 Y19.5851 F480
G01 X69.6787 Y19.5845 F480
G01 X69.6883 Y19.5831 F480
G01 X69.6978 Y19.5811 F480
G01 X69.7071 Y19.5784 F480
G01 X69.7161 Y19.5749 F480
G01 X69.7249 Y19.5708 F480
G01 X69.7334 Y19.5661 F480
G01 X69.7414 Y19.5607 F480
G01 X69.7491 Y19.5548 F480
G01 X69.7563 Y19.5483 F480
G01 X69.7630 Y19.5413 F480
G01 X69.7691 Y19.5338 F480
G01 X69.7746 Y19.5258 F480
G01 X69.7796 Y19.5175 F480
G01 X69.7839 Y19.5088 F480
G01 X69.7876 Y19.4999 F480
G01 X69.7905 Y19.4907 F480
G01 X69.7928 Y19.4812 F480
G01 X69.7944 Y19.4717 F480
G01 X69.7952 Y19.4620 F480
G01 X69.7953 Y19.4523 F480
G01 X69.7947 Y19.4427 F480
G01 X69.7934 Y19.4331 F480
G01 X69.7914 Y19.4236 F480
G01 X69.7886 Y19.4143 F480
G01 X69.7852 Y19.4052 F480
G01 X69.7811 Y19.3965 F480
G01 X69.7764 Y19.3880 F480
G01 X69.7710 Y19.3799 F480
G01 X69.7651 Y19.3723 F480
G01 X69.7586 Y19.3651 F480
G01 X69.7515 Y19.3584 F480
G01 X69.7440 Y19.3523 F480
G01 X69.7361 Y19.3467 F480
G01 X69.7278 Y19.3418 F480
G01 X69.7191 Y19.3375 F480
G01 X69.7101 Y19.3338 F480
G01 X69.7009 Y19.3309 F480
G01 X69.6915 Y19.3286 F480
G01 X69.6819 Y19.3270 F480
G01 X69.6723 Y19.3262 F480
G01 X69.6626 Y19.3261 F480
G01 X69.6529 Y19.3267 F480
G01 X69.6433 Y19.3280 F480
G01 X69.6339 Y19.3300 F480
G01 X69.6246 Y19.3328 F480
G01 X69.6155 Y19.3362 F480
G01 X69.6067 Y19.3403 F480
G01 X69.5983 Y19.3450 F480
G01 X69.5902 Y19.3504 F480
G01 X69.5826 Y19.3563 F480
G01 X69.5754 Y19.3628 F480
G01 X69.5687 Y19.3699 F480
G01 X69.5626 Y19.3773 F480
G01 X69.5570 Y19.3853 F480
G01 X69.5521 Y19.3936 F480
G01 X69.5478 Y19.4023 F480
G01 X69.5441 Y19.4113 F480
G01 X69.5411 Y19.4205 Z-2.0060 F210
G01 X69.5389 Y19.4299 Z-2.0121 F210
G01 X69.5373 Y19.4395 Z-2.0181 F210
G01 X69.5364 Y19.4491 Z-2.0241 F210
G01 X69.5363 Y19.4588 Z-2.0301 F210
G01 X69.5369 Y19.4685 Z-2.0362 F210
G01 X69.5383 Y19.4781 Z-2.0422 F210
G01 X69.5403 Y19.4875 Z-2.0482 F210
G01 X69.5430 Y19.4968 Z-2.0542 F210
G01 X69.5465 Y19.5059 Z-2.0603 F210
G01 X69.5506 Y19.5147 Z-2.0663 F210
G01 X69.5553 Y19.5231 Z-2.0723 F210
G01 X69.5606 Y19.5312 Z-2.0783 F210
G01 X69.5666 Y19.5388 Z-2.0844 F210
G01 X69.5731 Y19.5460 Z-2.0904 F210
G01 X69.5801 Y19.5527 Z-2.0964 F210
G01 X69.5876 Y19.5588 Z-2.1024 F210
G01 X69.5955 Y19.5644 Z-2.1085 F210
G01 X69.6039 Y19.5693 Z-2.1145 F210
G01 X69.6125 Y19.5736 Z-2.1205 F210
G01 X69.6215 Y19.5773 Z-2.1266 F210
G01 X69.6307 Y19.5803 Z-2.1326 F210
G01 X69.6402 Y19.5825 Z-2.1386 F210
G01 X69.6497 Y19.5841 Z-2.1446 F210
G01 X69.6594 Y19.5849 Z-2.1507 F210
G01 X69.6691 Y19.5851 Z-2.1567 F210
G01 X69.6787 Y19.5845 Z-2.1627 F210
G01 X69.6883 Y19.5831 Z-2.1687 F210
G01 X69.6978 Y19.5811 Z-2.1748 F210
G01 X69.7071 Y19.5784 Z-2.1808 F210
G01 X69.7161 Y19.5749 Z-2.1868 F210
G01 X69.7249 Y19.5708 Z-2.1928 F210
G01 X69.7334 Y19.5661 Z-2.1989 F210
G01 X69.7414 Y19.5607 Z-2.2049 F210
G01 X69.7491 Y19.5548 Z-2.2109 F210
G01 X69.7563 Y19.5483 Z-2.2170 F210
G01 X69.7630 Y19.5413 Z-2.2230 F210
G01 X69.7691 Y19.5338 Z-2.2290 F210
G01 X69.7746 Y19.5258 Z-2.2350 F210
G01 X69.7796 Y19.5175 Z-2.2411 F210
G01 X69.7839 Y19.5088 Z-2.2471 F210
G01 X69.7876 Y19.4999 Z-2.2531 F210
G01 X69.7905 Y19.4907 Z-2.2591 F210
G01 X69.7928 Y19.4812 Z-2.2652 F210
G01 X69.7944 Y19.4717 Z-2.2712 F210
G01 X69.7952 Y19.4620 Z-2.2772 F210
G01 X69.7953 Y19.4523 Z-2.2832 F210
G01 X69.7947 Y19.4427 Z-2.2893 F210
G01 X69.7934 Y19.4331 Z-2.2953 F210
G01 X69.7914 Y19.4236 Z-2.3013 F210
G01 X69.7886 Y19.4143 Z-2.3073 F210
G01 X69.7852 Y19.4052 Z-2.3134 F210
G01 X69.7811 Y19.3965 Z-2.3194 F210
G01 X69.7764 Y19.3880 Z-2.3254 F210
G01 X69.7710 Y19.3799 Z-2.3315 F210
G01 X69.7651 Y19.3723 Z-2.3375 F210
G01 X69.7588 Y19.3654 Z-2.3433 F210
G01 X69.7521 Y19.3589 Z-2.3491 F210
G01 X69.7449 Y19.3530 Z-2.3549 F210
G01 X69.7373 Y19.3475 Z-2.3607 F210
G01 X69.7293 Y19.3427 Z-2.3665 F210
G01 X69.7211 Y19.3384 Z-2.3723 F210
G01 X69.7125 Y19.3347 Z-2.3781 F210
G01 X69.7037 Y19.3317 Z-2.3839 F210
G01 X69.6946 Y19.3293 Z-2.3897 F210
G01 X69.6855 Y19.3275 Z-2.3955 F210
G01 X69.6762 Y19.3264 Z-2.4013 F210
G01 X69.6669 Y19.3260 Z-2.4071 F210
G01 X69.6576 Y19.3263 Z-2.4129 F210
G01 X69.6483 Y19.3272 Z-2.4187 F210
G01 X69.6391 Y19.3288 Z-2.4245 F210
G01 X69.6300 Y19.3311 Z-2.4303 F210
G01 X69.6212 Y19.3340 Z-2.4362 F210
G01 X69.6125 Y19.3375 Z-2.4420 F210
G01 X69.6042 Y19.3416 Z-2.4478 F210
G01 X69.5961 Y19.3464 Z-2.4536 F210
G01 X69.5884 Y19.3517 Z-2.4594 F210
G01 X69.5812 Y19.3575 Z-2.4652 F210
G01 X69.5743 Y19.3639 Z-2.4710 F210
G01 X69.5680 Y19.3707 Z-2.4768 F210
G01 X69.5621 Y19.3780 Z-2.4826 F210
G01 X69.5568 Y19.3856 Z-2.4884 F210
G01 X69.5520 Y19.3937 Z-2.4942 F210
G01 X69.5479 Y19.4020 Z-2.5000 F210
G01 X69.5520 Y19.3937 Z-2.5058 F210
G01 X69.5568 Y19.3856 Z-2.5116 F210
G01 X69.5621 Y19.3780 Z-2.5174 F210
G01 X69.5680 Y19.3707 Z-2.5232 F210
G01 X69.5743 Y19.3639 Z-2.5290 F210
G01 X69.5812 Y19.3575 Z-2.5348 F210
G01 X69.5884 Y19.3517 Z-2.5406 F210
G01 X69.5961 Y19.3464 Z-2.5464 F210
G01 X69.6042 Y19.3416 Z-2.5522 F210
G01 X69.6125 Y19.3375 Z-2.5580 F210
G01 X69.6212 Y19.3340 Z-2.5638 F210
G01 X69.6300 Y19.3311 Z-2.5697 F210
G01 X69.6391 Y19.3288 Z-2.5755 F210
G01 X69.6483 Y19.3272 Z-2.5813 F210
G01 X69.6576 Y19.3263 Z-2.5871 F210
G01 X69.6669 Y19.3260 Z-2.5929 F210
G01 X69.6762 Y19.3264 Z-2.5987 F210
G01 X69.6855 Y19.3275 Z-2.6045 F210
G01 X69.6946 Y19.3293 Z-2.6103 F210
G01 X69.7037 Y19.3317 Z-2.6161 F210
G01 X69.7125 Y19.3347 Z-2.6219 F210
G01 X69.7211 Y19.3384 Z-2.6277 F210
G01 X69.7293 Y19.3427 Z-2.6335 F210
G01 X69.7373 Y19.3475 Z-2.6393 F210
G01 X69.7449 Y19.3530 Z-2.6451 F210
G01 X69.7521 Y19.3589 Z-2.6509 F210
G01 X69.7588 Y19.3654 Z-2.6567 F210
G01 X69.7651 Y19.3723 Z-2.6625 F210
G01 X69.7710 Y19.3799 Z-2.6685 F210
G01 X69.7764 Y19.3880 Z-2.6746 F210
G01 X69.7811 Y19.3965 Z-2.6806 F210
G01 X69.7852 Y19.4052 Z-2.6866 F210
G01 X69.7886 Y19.4143 Z-2.6927 F210
G01 X69.7914 Y19.4236 Z-2.6987 F210
G01 X69.7934 Y19.4331 Z-2.7047 F210
G01 X69.7947 Y19.4427 Z-2.7107 F210
G01 X69.7953 Y19.4523 Z-2.7168 F210
G01 X69.7952 Y19.4620 Z-2.7228 F210
G01 X69.7944 Y19.4717 Z-2.7288 F210
G01 X69.7928 Y19.4812 Z-2.7348 F210
G01 X69.7905 Y19.4907 Z-2.7409 F210
G01 X69.7876 Y19.4999 Z-2.7469 F210
G01 X69.7839 Y19.5088 Z-2.7529 F210
G01 X69.7796 Y19.5175 Z-2.7589 F210
G01 X69.7746 Y19.5258 Z-2.7650 F210
G01 X69.7691 Y19.5338 Z-2.7710 F210
G01 X69.7630 Y19.5413 Z-2.7770 F210
G01 X69.7563 Y19.5483 Z-2.7830 F210
G01 X69.7491 Y19.5548 Z-2.7891 F210
G01 X69.7414 Y19.5607 Z-2.7951 F210
G01 X69.7334 Y19.5661 Z-2.8011 F210
G01 X69.7249 Y19.5708 Z-2.8072 F210
G01 X69.7161 Y19.5749 Z-2.8132 F210
G01 X69.7071 Y19.5784 Z-2.8192 F210
G01 X69.6978 Y19.5811 Z-2.8252 F210
G01 X69.6883 Y19.5831 Z-2.8313 F210
G01 X69.6787 Y19.5845 Z-2.8373 F210
G01 X69.6691 Y19.5851 Z-2.8433 F210
G01 X69.6594 Y19.5849 Z-2.8493 F210
G01 X69.6497 Y19.5841 Z-2.8554 F210
G01 X69.6402 Y19.5825 Z-2.8614 F210
G01 X69.6307 Y19.5803 Z-2.8674 F210
G01 X69.6215 Y19.5773 Z-2.8734 F210
G01 X69.6125 Y19.5736 Z-2.8795 F210
G01 X69.6039 Y19.5693 Z-2.8855 F210
G01 X69.5955 Y19.5644 Z-2.8915 F210
G01 X69.5876 Y19.5588 Z-2.8976 F210
G01 X69.5801 Y19.5527 Z-2.9036 F210
G01 X69.5731 Y19.5460 Z-2.9096 F210
G01 X69.5666 Y19.5388 Z-2.9156 F210
G01 X69.5606 Y19.5312 Z-2.9217 F210
G01 X69.5553 Y19.5231 Z-2.9277 F210
G01 X69.5506 Y19.5147 Z-2.9337 F210
G01 X69.5465 Y19.5059 Z-2.9397 F210
G01 X69.5430 Y19.4968 Z-2.9458 F210
G01 X69.5403 Y19.4875 Z-2.9518 F210
G01 X69.5383 Y19.4781 Z-2.9578 F210
G01 X69.5369 Y19.4685 Z-2.9638 F210
G01 X69.5363 Y19.4588 Z-2.9699 F210
G01 X69.5364 Y19.4491 Z-2.9759 F210
G01 X69.5373 Y19.4395 Z-2.9819 F210
G01 X69.5389 Y19.4299 Z-2.9879 F210
G01 X69.5411 Y19.4205 Z-2.9940 F210
G01 X69.5441 Y19.4113 Z-3.0000 F210
G01 X69.5411 Y19.4205 F480
G01 X69.5389 Y19.4299 F480
G01 X69.5373 Y19.4395 F480
G01 X69.5364 Y19.4491 F480
G01 X69.5363 Y19.4588 F480
G01 X69.5369 Y19.4685 F480
G01 X69.5383 Y19.4781 F480
G01 X69.5403 Y19.4875 F480
G01 X69.5430 Y19.4968 F480
G01 X69.5465 Y19.5059 F480
G01 X69.5506 Y19.5147 F480
G01 X69.5553 Y19.5231 F480
G01 X69.5606 Y19.5312 F480
G01 X69.5666 Y19.5388 F480
G01 X69.5731 Y19.5460 F480
G01 X69.5801 Y19.5527 F480
G01 X69.5876 Y19.5588 F480
G01 X69.5955 Y19.5644 F480
G01 X69.6039 Y19.5693 F480
G01 X69.6125 Y19.5736 F480
G01 X69.6215 Y19.5773 F480
G01 X69.6307 Y19.5803 F480
G01 X69.6402 Y19.5825 F480
G01 X69.6497 Y19.5841 F480
G01 X69.6594 Y19.5849 F480
G01 X69.6691 Y19.5851 F480
G01 X69.6787 Y19.5845 F480
G01 X69.6883 Y19.5831 F480
G01 X69.6978 Y19.5811 F480
G01 X69.7071 Y19.5784 F480
G01 X69.7161 Y19.5749 F480
G01 X69.7249 Y19.5708 F480
G01 X69.7334 Y19.5661 F480
G01 X69.7414 Y19.5607 F480
G01 X69.7491 Y19.5548 F480
G01 X69.7563 Y19.5483 F480
G01 X69.7630 Y19.5413 F480
G01 X69.7691 Y19.5338 F480
G01 X69.7746 Y19.5258 F480
G01 X69.7796 Y19.5175 F480
G01 X69.7839 Y19.5088 F480
G01 X69.7876 Y19.4999 F480
G01 X69.7905 Y19.4907 F480
G01 X69.7928 Y19.4812 F480
G01 X69.7944 Y19.4717 F480
G01 X69.7952 Y19.4620 F480
G01 X69.7953 Y19.4523 F480
G01 X69.7947 Y19.4427 F480
G01 X69.7934 Y19.4331 F480
G01 X69.7914 Y19.4236 F480
G01 X69.7886 Y19.4143 F480
G01 X69.7852 Y19.4052 F480
G01 X69.7811 Y19.3965 F480
G01 X69.7764 Y19.3880 F480
G01 X69.7710 Y19.3799 F480
G01 X69.7651 Y19.3723 F480
G01 X69.7586 Y19.3651 F480
G01 X69.7515 Y19.3584 F480
G01 X69.7440 Y19.3523 F480
G01 X69.7361 Y19.3467 F480
G01 X69.7278 Y19.3418 F480
G01 X69.7191 Y19.3375 F480
G01 X69.7101 Y19.3338 F480
G01 X69.7009 Y19.3309 F480
G01 X69.6915 Y19.3286 F480
G01 X69.6819 Y19.3270 F480
G01 X69.6723 Y19.3262 F480
G01 X69.6626 Y19.3261 F480
G01 X69.6529 Y19.3267 F480
G01 X69.6433 Y19.3280 F480
G01 X69.6339 Y19.3300 F480
G01 X69.6246 Y19.3328 F480
G01 X69.6155 Y19.3362 F480
G01 X69.6067 Y19.3403 F480
G01 X69.5983 Y19.3450 F480
G01 X69.5902 Y19.3504 F480
G01 X69.5826 Y19.3563 F480
G01 X69.5754 Y19.3628 F480
G01 X69.5687 Y19.3699 F480
G01 X69.5626 Y19.3773 F480
G01 X69.5570 Y19.3853 F480
G01 X69.5521 Y19.3936 F480
G01 X69.5478 Y19.4023 F480
G01 X69.5441 Y19.4113 F480
G00 Z3.0000 F400


;No. 8: Hole 10
G00 X113.1334 Y22.1643 Z3.0000 F4000
G00 Z0.5000 F400
G01 Z0.0000 F210
G01 X118.6803 Z-0.2426 F210
G01 Y22.9643 Z-0.2776 F210
G01 X113.5972 Z-0.5000 F210
G01 X118.6803 Z-0.7224 F210
G01 Y22.1643 Z-0.7574 F210
G01 X113.1334 Z-1.0000 F210
G01 X118.6803 F480
G01 Y22.9643 F480
G01 X113.1334 F480
G01 X113.3786 Y23.7643 F480
G01 X118.4351 F480
G01 X117.8487 Y24.5643 F480
G01 X113.9649 F480
G01 X113.3786 Y21.3643 F480
G01 X118.4351 F480
G01 X117.8487 Y20.5643 F480
G01 X113.9649 F480
G01 X113.7943 Y20.4519 F480
G01 X113.6835 Y20.5683 F480
G01 X113.5792 Y20.6905 F480
G01 X113.4817 Y20.8182 F480
G01 X113.3911 Y20.9509 F480
G01 X113.3078 Y21.0883 F480
G01 X113.2320 Y21.2299 F480
G01 X113.1639 Y21.3754 F480
G01 X113.1038 Y21.5244 F480
G01 X113.0517 Y21.6764 F480
G01 X113.0079 Y21.8310 F480
G01 X112.9725 Y21.9877 F480
G01 X112.9456 Y22.1461 F480
G01 X112.9272 Y22.3057 F480
G01 X112.9174 Y22.4661 F480
G01 X112.9163 Y22.6267 F480
G01 X112.9238 Y22.7872 F480
G01 X112.9399 Y22.9471 F480
G01 X112.9646 Y23.1058 F480
G01 X112.9978 Y23.2630 F480
G01 X113.0394 Y23.4182 F480
G01 X113.0892 Y23.5709 F480
G01 X113.1473 Y23.7208 F480
G01 X113.2132 Y23.8672 F480
G01 X113.2870 Y24.0100 F480
G01 X113.3684 Y24.1485 F480
G01 X113.4570 Y24.2825 F480
G01 X113.5528 Y24.4115 F480
G01 X113.6553 Y24.5352 F480
G01 X113.7644 Y24.6532 F480
G01 X113.8796 Y24.7651 F480
G01 X114.0007 Y24.8707 F480
G01 X114.1273 Y24.9696 F480
G01 X114.2591 Y25.0616 F480
G01 X114.3955 Y25.1464 F480
G01 X114.5364 Y25.2237 F480
G01 X114.6812 Y25.2933 F480
G01 X114.8295 Y25.3550 F480
G01 X114.9810 Y25.4087 F480
G01 X115.1351 Y25.4541 F480
G01 X115.2914 Y25.4912 F480
G01 X115.4495 Y25.5198 F480
G01 X115.6089 Y25.5399 F480
G01 X115.7691 Y25.5514 F480
G01 X115.9298 Y25.5542 F480
G01 X116.0903 Y25.5484 F480
G01 X116.2503 Y25.5340 F480
G01 X116.4094 Y25.5110 F480
G01 X116.5669 Y25.4795 F480
G01 X116.7225 Y25.4396 F480
G01 X116.8758 Y25.3913 F480
G01 X117.0262 Y25.3349 F480
G01 X117.1734 Y25.2705 F480
G01 X117.3169 Y25.1982 F480
G01 X117.4563 Y25.1183 F480
G01 X117.5912 Y25.0311 F480
G01 X117.7212 Y24.9367 F480
G01 X117.8432 Y24.8386 F480
G01 X117.9599 Y24.7343 F480
G01 X118.0710 Y24.6239 F480
G01 X118.1761 Y24.5079 F480
G01 X118.2750 Y24.3866 F480
G01 X118.3674 Y24.2602 F480
G01 X118.4531 Y24.1292 F480
G01 X118.5318 Y23.9938 F480
G01 X118.6032 Y23.8546 F480
