;Project zt640
;Created by Estlcam version 11 build 11.245
;Machining time about 00:18:12 hours

G90                      ; use absolute cords
G10 P0 L20 X 0 Y 0         ; set x and y home to here

M0 (MSG Place Z Probe)
G38.2 G91 Z-20 F40               ; home Z
G10 P0 L20 Z 2.1                    ; SET Z TO WIDTH OF PROBE
G1 Z3 F150          ; lift tool up a bit
G90
M00 (MSG Remove Z Probe and turn on spindle)
M03 S9000

G00 X0.0000 Y0.0000 Z0.0000 F4000
G00 Z3.0000 F400


;No. 1: Drill 1
G00 F4000
G00 Z0.5000 F400
G01 Z-2.5000 F300 S9000
G00 Z0.5000 F400
G00 Z-2.0000 F400
G01 Z-5.0000 F300
G00 Z0.5000 F400
G00 Z-4.5000 F400
G01 Z-7.5000 F300
G00 Z0.5000 F400
G00 Z-7.0000 F400
G01 Z-8.0000 F300
G00 Z3.0000 F400


;No. 2: Hole 1
G00 X-0.6279 Y-0.0140 Z3.0000 F4000
G00 Z0.5000 F400
G01 Z0.0000 F300
G01 X27.9472 Z-1.2500 F300
G01 X-0.6279 Z-2.5000 F300
G01 X130.4479 F720
G01 Y-1.2780 F720
G01 X-0.6279 F720
G01 Y-2.5420 F720
G01 X130.4479 F720
G01 Y-3.8060 F720
G01 X-0.6279 F720
G01 Y-5.0700 F720
G01 X130.4479 F720
G01 Y-6.3340 F720
G01 X-0.6279 F720
G01 Y-7.5980 F720
G01 X130.4479 F720
G01 Y-8.8620 F720
G01 X-0.6279 F720
G01 Y-10.1260 F720
G01 X130.4479 F720
G01 Y-11.3900 F720
G01 X-0.6279 F720
G01 Y-12.6540 F720
G01 X130.4479 F720
G01 Y-13.9180 F720
G01 X-0.6279 F720
G01 Y-15.1820 F720
G01 X130.4479 F720
G01 Y-16.4460 F720
G01 X-0.6279 F720
G01 Y-17.7100 F720
G01 X130.4479 F720
G01 Y-18.9740 F720
G01 X-0.6279 F720
G00 Z3.0000 F400
G00 Y-0.0140 F4000
G00 Z0.5000 F400
G01 Z-2.5000 F300
G01 Y1.2500 F720
G01 X130.4479 F720
G01 Y2.5140 F720
G01 X-0.6279 F720
G01 Y3.7780 F720
G01 X130.4479 F720
G01 Y5.0420 F720
G01 X-0.6279 F720
G01 Y6.3060 F720
G01 X130.4479 F720
G01 Y7.5700 F720
G01 X-0.6279 F720
G01 Y8.8340 F720
G01 X130.4479 F720
G01 Y10.0980 F720
G01 X-0.6279 F720
G01 Y11.3620 F720
G01 X130.4479 F720
G01 Y12.6260 F720
G01 X-0.6279 F720
G01 Y13.8900 F720
G01 X130.4479 F720
G01 Y15.1540 F720
G01 X-0.6279 F720
G01 X-0.9439 Y15.1173 F720
G01 Y16.4439 F720
G01 X130.7639 F720
G01 Y-20.2639 F720
G01 X-0.9439 F720
G01 Y15.1173 F720
G01 X-0.6279 Y15.1540 F720
G01 X27.9472 Z-3.7500 F300
G01 X-0.6279 Z-5.0000 F300
G01 X130.4479 F720
G01 Y13.8900 F720
G01 X-0.6279 F720
G01 Y12.6260 F720
G01 X130.4479 F720
G01 Y11.3620 F720
G01 X-0.6279 F720
G01 Y10.0980 F720
G01 X130.4479 F720
G01 Y8.8340 F720
G01 X-0.6279 F720
G01 Y7.5700 F720
G01 X130.4479 F720
G01 Y6.3060 F720
G01 X-0.6279 F720
G01 Y5.0420 F720
G01 X130.4479 F720
G01 Y3.7780 F720
G01 X-0.6279 F720
G01 Y2.5140 F720
G01 X130.4479 F720
G01 Y1.2500 F720
G01 X-0.6279 F720
G01 Y-0.0140 F720
G01 X130.4479 F720
G01 Y-1.2780 F720
G01 X-0.6279 F720
G01 Y-2.5420 F720
G01 X130.4479 F720
G01 Y-3.8060 F720
G01 X-0.6279 F720
G01 Y-5.0700 F720
G01 X130.4479 F720
G01 Y-6.3340 F720
G01 X-0.6279 F720
G01 Y-7.5980 F720
G01 X130.4479 F720
G01 Y-8.8620 F720
G01 X-0.6279 F720
G01 Y-10.1260 F720
G01 X130.4479 F720
G01 Y-11.3900 F720
G01 X-0.6279 F720
G01 Y-12.6540 F720
G01 X130.4479 F720
G01 Y-13.9180 F720
G01 X-0.6279 F720
G01 Y-15.1820 F720
G01 X130.4479 F720
G01 Y-16.4460 F720
G01 X-0.6279 F720
G01 Y-17.7100 F720
G01 X130.4479 F720
G01 Y-18.9740 F720
G01 X-0.6279 F720
G01 X-0.9439 Y-18.9373 F720
G01 Y16.4439 F720
G01 X130.7639 F720
G01 Y-20.2639 F720
G01 X-0.9439 F720
G01 Y-18.9373 F720
G01 X-0.6279 Y-18.9740 F720
G01 X5.0871 Z-5.2500 F300
G01 X-0.6279 Z-5.5000 F300
G01 X130.4479 F720
G01 Y-17.7100 F720
G01 X-0.6279 F720
G01 Y-16.4460 F720
G01 X130.4479 F720
G01 Y-15.1820 F720
G01 X-0.6279 F720
G01 Y-13.9180 F720
G01 X130.4479 F720
G01 Y-12.6540 F720
G01 X-0.6279 F720
G01 Y-11.3900 F720
G01 X130.4479 F720
G01 Y-10.1260 F720
G01 X-0.6279 F720
G01 Y-8.8620 F720
G01 X130.4479 F720
G01 Y-7.5980 F720
G01 X-0.6279 F720
G01 Y-6.3340 F720
G01 X130.4479 F720
G01 Y-5.0700 F720
G01 X-0.6279 F720
G01 Y-3.8060 F720
G01 X130.4479 F720
G01 Y-2.5420 F720
G01 X-0.6279 F720
G01 Y-1.2780 F720
G01 X130.4479 F720
G01 Y-0.0140 F720
G01 X-0.6279 F720
G01 Y1.2500 F720
G01 X130.4479 F720
G01 Y2.5140 F720
G01 X-0.6279 F720
G01 Y3.7780 F720
G01 X130.4479 F720
G01 Y5.0420 F720
G01 X-0.6279 F720
G01 Y6.3060 F720
G01 X130.4479 F720
G01 Y7.5700 F720
G01 X-0.6279 F720
G01 Y8.8340 F720
G01 X130.4479 F720
G01 Y10.0980 F720
G01 X-0.6279 F720
G01 Y11.3620 F720
G01 X130.4479 F720
G01 Y12.6260 F720
G01 X-0.6279 F720
G01 Y13.8900 F720
G01 X130.4479 F720
G01 Y15.1540 F720
G01 X-0.6279 F720
G01 X-0.9439 Y15.1173 F720
G01 Y16.4439 F720
G01 X130.7639 F720
G01 Y-20.2639 F720
G01 X-0.9439 F720
G01 Y15.1173 F720
G01 X-0.6279 Y15.1540 F720
G00 Z3.0000 F400
G00 X0.0000 Y0.0000 F4000
G00 Z0.0000 F400
G1 Z10 F150          ; lift tool up a bit
M05
