;Project zt640
;Created by Estlcam version 11 build 11.245
;Machining time about 00:11:04 hours

G90                      ; use absolute cords
G10 P0 L20 X 0 Y 0         ; set x and y home to here

M0 (MSG Place Z Probe)
G38.2 G91 Z-20 F40               ; home Z
G10 P0 L20 Z 2.1                    ; SET Z TO WIDTH OF PROBE
G1 Z3 F150          ; lift tool up a bit
G90
M00 (MSG Remove Z Probe and turn on spindle)
M03 S9000

G00 X0.0000 Y0.0000 Z0.0000 F4000
G00 Z3.0000 F400


;No. 1: Hole 1
G00 X1.8960 Y2.8727 F4000
G00 Z0.5000 F400
G01 Z0.0000 F300 S9000
G01 X30.4711 Z-1.2500 F300
G01 X1.8960 Z-2.5000 F300
G01 X121.9773 F720
G01 Y4.1367 F720
G01 X1.8960 F720
G01 Y5.4007 F720
G01 X121.9773 F720
G01 Y6.6647 F720
G01 X1.8960 F720
G01 Y7.9287 F720
G01 X121.9773 F720
G01 Y9.1927 F720
G01 X1.8960 F720
G01 Y10.4567 F720
G01 X121.9773 F720
G01 Y11.7207 F720
G01 X1.8960 F720
G01 Y12.9847 F720
G01 X121.9773 F720
G01 Y14.2487 F720
G01 X1.8960 F720
G01 Y15.5127 F720
G01 X121.9773 F720
G01 Y16.7767 F720
G01 X1.8960 F720
G01 Y18.0407 F720
G01 X121.9773 F720
G01 Y19.3047 F720
G01 X1.8960 F720
G01 Y20.5687 F720
G01 X121.9773 F720
G01 Y21.8327 F720
G01 X1.8960 F720
G01 Y23.0967 F720
G01 X121.9773 F720
G01 Y24.3607 F720
G01 X1.8960 F720
G01 Y25.6247 F720
G01 X121.9773 F720
G01 Y26.8887 F720
G01 X1.8960 F720
G01 Y28.1527 F720
G01 X121.9773 F720
G01 Y29.4167 F720
G01 X1.8960 F720
G01 Y30.6807 F720
G01 X121.9773 F720
G01 Y31.9447 F720
G01 X1.8960 F720
G01 Y33.2087 F720
G01 X121.9773 F720
G01 Y34.4727 F720
G01 X1.8960 F720
G01 Y35.7367 F720
G01 X121.9773 F720
G01 Y37.0007 F720
G01 X1.8960 F720
G01 X1.5800 Y36.9640 F720
G01 Y38.2933 F720
G01 X122.2933 F720
G01 Y1.5800 F720
G01 X1.5800 F720
G01 Y36.9640 F720
G01 X1.8960 Y37.0007 F720
G01 X19.0411 Z-3.2500 F300
G01 X1.8960 Z-4.0000 F300
G01 X121.9773 F720
G01 Y35.7367 F720
G01 X1.8960 F720
G01 Y34.4727 F720
G01 X121.9773 F720
G01 Y33.2087 F720
G01 X1.8960 F720
G01 Y31.9447 F720
G01 X121.9773 F720
G01 Y30.6807 F720
G01 X1.8960 F720
G01 Y29.4167 F720
G01 X121.9773 F720
G01 Y28.1527 F720
G01 X1.8960 F720
G01 Y26.8887 F720
G01 X121.9773 F720
G01 Y25.6247 F720
G01 X1.8960 F720
G01 Y24.3607 F720
G01 X121.9773 F720
G01 Y23.0967 F720
G01 X1.8960 F720
G01 Y21.8327 F720
G01 X121.9773 F720
G01 Y20.5687 F720
G01 X1.8960 F720
G01 Y19.3047 F720
G01 X121.9773 F720
G01 Y18.0407 F720
G01 X1.8960 F720
G01 Y16.7767 F720
G01 X121.9773 F720
G01 Y15.5127 F720
G01 X1.8960 F720
G01 Y14.2487 F720
G01 X121.9773 F720
G01 Y12.9847 F720
G01 X1.8960 F720
G01 Y11.7207 F720
G01 X121.9773 F720
G01 Y10.4567 F720
G01 X1.8960 F720
G01 Y9.1927 F720
G01 X121.9773 F720
G01 Y7.9287 F720
G01 X1.8960 F720
G01 Y6.6647 F720
G01 X121.9773 F720
G01 Y5.4007 F720
G01 X1.8960 F720
G01 Y4.1367 F720
G01 X121.9773 F720
G01 Y2.8727 F720
G01 X1.8960 F720
G01 X1.5800 Y2.9093 F720
G01 Y38.2933 F720
G01 X122.2933 F720
G01 Y1.5800 F720
G01 X1.5800 F720
G01 Y2.9093 F720
G01 X1.8960 Y2.8727 F720
G00 Z3.0000 F400
G00 X0.0000 Y0.0000 F4000
G00 Z0.0000 F400
G1 Z10 F150          ; lift tool up a bit
M05
